**kern	**kern	**kern	**kern	**kern	**kern	**kern	**kern	**kern	**kern	**kern	**kern	**kern	**kern	**kern	**kern	**kern	**kern	**kern	**kern	**kern
*ITrd7c12	*	*	*	*	*	*	*	*	*	*	*ITrd7c12	*ITrd7c12	*	*	*	*	*	*	*	*
*	*Icello	*Iviola	*Ivioln	*Ivioln	*Ibdrum	*Ipiatt	*Itrngl	*Itimpa	*Itromp	*Itromp	*	*	*Ifagot	*Ifagot	*Iclars	*Iclars	*Ioboe	*Ioboe	*Iflt	*Iflt
*Icbass	*I"Violoncello	*I"Viola	*I#2	*I#1	*I"Gran Cassa	*I"Piatti	*I"Triangolo	*I"Timpani	*I#2	*I#1	*Icor	*Icor	*I#2	*I#1	*I#2	*I#1	*I#2	*I#1	*I#2	*I#1
*I"Basso	*	*	*I"Violino II	*I"Violino I	*	*	*	*	*I"Tromba 2	*I"Tromba 1	*I#2	*I#1	*I"Fagotto 2	*I"Fagotto 1	*I"Clarinet 2	*I"Clarinet 1	*I"Oboe 2	*I"Oboe 1	*I"Flauto 2	*I"Flauto 1
*	*	*	*	*	*	*	*	*	*	*	*I"Corno 2	*I"Corno 1	*	*	*	*	*	*	*	*
=1	=1	=1	=1	=1	=1	=1	=1	=1	=1	=1	=1	=1	=1	=1	=1	=1	=1	=1	=1	=1
*staff:5	*staff:6	*staff:7	*staff:8	*staff:9	*staff:10	*staff:11	*staff:12	*staff:13	*staff:14	*staff:14	*staff:15	*staff:15	*staff:16	*staff:16	*staff:17	*staff:17	*staff:18	*staff:18	*M2/2	*staff:19
*clefF4	*clefF4	*clefC3	*clefG2	*clefG2	*M2/2	*M2/2	*M2/2	*clefF4	*clefG2	*clefG2	*clefG2	*clefG2	*clefF4	*clefF4	*clefG2	*clefG2	*clefG2	*clefG2	*	*clefG2
*M2/2	*M2/2	*M2/2	*M2/2	*M2/2	*	*	*	*M2/2	*M2/2	*M2/2	*M2/2	*M2/2	*M2/2	*M2/2	*M2/2	*M2/2	*M2/2	*M2/2	*	*M2/2
4CC	4C	4c'	4e'	2cc	1r	1r	1r	1r	1r	1r	1r	1r	1r	1r	1r	1r	1r	1r	1ryy	2cc
4r	4r	4ryy	4r	.	.	.	.	.	.	.	.	.	.	.	.	.	.	.	.	.
.	.	.	.	8eeq	.	.	.	.	.	.	.	.	.	.	.	.	.	.	.	8eeq
4GGG	4GG	4B'	4f'	8dd	.	.	.	.	.	.	.	.	.	.	.	.	.	.	.	8dd
.	.	.	.	8cc	.	.	.	.	.	.	.	.	.	.	.	.	.	.	.	8cc
4r	4r	4ryy	4r	8dd	.	.	.	.	.	.	.	.	.	.	.	.	.	.	.	8dd
.	.	.	.	8ee	.	.	.	.	.	.	.	.	.	.	.	.	.	.	.	8ee
=2	=2	=2	=2	=2	=2	=2	=2	=2	=2	=2	=2	=2	=2	=2	=2	=2	=2	=2	=2	=2
4CC	4C	4c'	4e'	4cc'	1r	1r	1r	1r	1r	1r	1r	1r	1r	1r	1r	1r	1r	1r	1ryy	4cc
4r	4r	4c'	4r	4r	.	.	.	.	.	.	.	.	.	.	.	.	.	.	.	4r
2r	2r	4e'	2r	2r	.	.	.	.	.	.	.	.	.	.	.	.	.	.	.	2r
.	.	4g'	.	.	.	.	.	.	.	.	.	.	.	.	.	.	.	.	.	.
=3	=3	=3	=3	=3	=3	=3	=3	=3	=3	=3	=3	=3	=3	=3	=3	=3	=3	=3	=3	=3
4CC	4C	4cc	4cc'	4ee'	1r	1r	1r	1r	1r	1r	1r	1r	1r	1r	1r	1r	1r	1r	1ryy	4ee'
4r	4r	4ryy	4cc'	4ee'	.	.	.	.	.	.	.	.	.	.	.	.	.	.	.	4ee'
.	.	.	8eeQ	8ggQ	.	.	.	.	.	.	.	.	.	.	.	.	.	.	.	8ggQ
2r	2r	2ryy	4dd	4ff	.	.	.	.	.	.	.	.	.	.	.	.	.	.	.	4ff
.	.	.	8cc	8ee	.	.	.	.	.	.	.	.	.	.	.	.	.	.	.	8ee
.	.	.	8dd	8ff	.	.	.	.	.	.	.	.	.	.	.	.	.	.	.	8ff
=4	=4	=4	=4	=4	=4	=4	=4	=4	=4	=4	=4	=4	=4	=4	=4	=4	=4	=4	=4	=4
4CC	4C	4ryy	2ee	2gg	1r	1r	1r	1r	1r	1r	1r	1r	1r	1r	1r	1r	1r	1r	1ryy	2gg
4r	4r	4E	.	.	.	.	.	.	.	.	.	.	.	.	.	.	.	.	.	.
2r	2r	4c	4cc'	4ee'	.	.	.	.	.	.	.	.	.	.	.	.	.	.	.	4ee'
.	.	4e	4r	4r	.	.	.	.	.	.	.	.	.	.	.	.	.	.	.	4r
=5	=5	=5	=5	=5	=5	=5	=5	=5	=5	=5	=5	=5	=5	=5	=5	=5	=5	=5	=5	=5
4CC	1f	4a'	4aa'	4ccc'	1r	1r	1r	1r	1r	1r	1r	1r	1r	1r	1r	1r	1r	1r	1ryy	4ccc'
4r	.	4a'	4aa'	4ccc'	.	.	.	.	.	.	.	.	.	.	.	.	.	.	.	4ccc'
.	.	8bQ	8bbQ	8dddQ	.	.	.	.	.	.	.	.	.	.	.	.	.	.	.	8dddQ
2r	.	4a	4aa	4ccc	.	.	.	.	.	.	.	.	.	.	.	.	.	.	.	4ccc
.	.	8g	8gg	8bb	.	.	.	.	.	.	.	.	.	.	.	.	.	.	.	8bb
.	.	8f	8ff	8aa	.	.	.	.	.	.	.	.	.	.	.	.	.	.	.	8aa
=6	=6	=6	=6	=6	=6	=6	=6	=6	=6	=6	=6	=6	=6	=6	=6	=6	=6	=6	=6	=6
4CC	4e	4e	2ee	2gg	1r	1r	1r	1r	1r	1r	1r	1r	1r	1r	1r	1r	1r	1r	1ryy	2gg
4r	4r	4c	.	.	.	.	.	.	.	.	.	.	.	.	.	.	.	.	.	.
2r	2r	4d	4dd	4ff	.	.	.	.	.	.	.	.	.	.	.	.	.	.	.	4ff
.	.	4e	4cc	4ee	.	.	.	.	.	.	.	.	.	.	.	.	.	.	.	4ee
=7	=7	=7	=7	=7	=7	=7	=7	=7	=7	=7	=7	=7	=7	=7	=7	=7	=7	=7	=7	=7
[1GGG	[1GG	2f	4b'	4dd'	1r	1r	1r	1r	1r	1r	1r	1r	1r	1r	1r	1r	1r	1r	1ryy	4dd'
.	.	.	4b'	4dd'	.	.	.	.	.	.	.	.	.	.	.	.	.	.	.	4dd'
.	.	.	8ddq	8ffq	.	.	.	.	.	.	.	.	.	.	.	.	.	.	.	8ffq
.	.	4e	8cc	8ee	.	.	.	.	.	.	.	.	.	.	.	.	.	.	.	8ee
.	.	.	8b	8dd	.	.	.	.	.	.	.	.	.	.	.	.	.	.	.	8dd
.	.	4c'	8cc	8ee	.	.	.	.	.	.	.	.	.	.	.	.	.	.	.	8ee
.	.	.	8dd	8ff	.	.	.	.	.	.	.	.	.	.	.	.	.	.	.	8ff
=8	=8	=8	=8	=8	=8	=8	=8	=8	=8	=8	=8	=8	=8	=8	=8	=8	=8	=8	=8	=8
4GGG]	4GG]	4g	4b	4dd	1r	1r	1r	1r	1r	1r	1r	1r	1r	1r	1r	1r	1r	[2gg	1ryy	4dd
4r	4r	4r	4r	4r	.	.	.	.	.	.	.	.	.	.	.	.	.	.	.	4r
2r	2r	2r	2r	2r	.	.	.	.	.	.	.	.	.	.	.	.	.	8gg]	.	2r
.	.	.	.	.	.	.	.	.	.	.	.	.	.	.	.	.	.	8ee	.	.
.	.	.	.	.	.	.	.	.	.	.	.	.	.	.	.	.	.	8ff	.	.
.	.	.	.	.	.	.	.	.	.	.	.	.	.	.	.	.	.	8dd	.	.
=9	=9	=9	=9	=9	=9	=9	=9	=9	=9	=9	=9	=9	=9	=9	=9	=9	=9	=9	=9	=9
*	*	*	*	*	*	*	*	*	*	*	*staff:1	*staff:1	*	*staff:2	*staff:3	*staff:3	*staff:4	*staff:4	*	*
1ryy	1ryy	1ryy	1ryy	1ryy	1ryy	1ryy	1ryy	1ryy	1ryy	1ryy	1r	1r	1ryy	4C	4c	4e	4e	2cc	1ryy	1ryy
.	.	.	.	.	.	.	.	.	.	.	.	.	.	4r	4ryy	4r	4r	.	.	.
.	.	.	.	.	.	.	.	.	.	.	.	.	.	.	.	.	.	8eeq	.	.
.	.	.	.	.	.	.	.	.	.	.	.	.	.	4GG	4B	4f	4g	8dd	.	.
.	.	.	.	.	.	.	.	.	.	.	.	.	.	.	.	.	.	8cc	.	.
.	.	.	.	.	.	.	.	.	.	.	.	.	.	4r	4ryy	4r	4r	8dd	.	.
.	.	.	.	.	.	.	.	.	.	.	.	.	.	.	.	.	.	8ee	.	.
=10	=10	=10	=10	=10	=10	=10	=10	=10	=10	=10	=10	=10	=10	=10	=10	=10	=10	=10	=10	=10
1ryy	1ryy	1ryy	1ryy	1ryy	1ryy	1ryy	1ryy	1ryy	1ryy	1ryy	1r	1r	1ryy	4CC	4c	4e	4e	4cc	1ryy	1ryy
.	.	.	.	.	.	.	.	.	.	.	.	.	.	4r	4c	4e	4ryy	4r	.	.
.	.	.	.	.	.	.	.	.	.	.	.	.	.	2r	4e	4g	2ryy	2r	.	.
.	.	.	.	.	.	.	.	.	.	.	.	.	.	.	4g	4cc	.	.	.	.
=11	=11	=11	=11	=11	=11	=11	=11	=11	=11	=11	=11	=11	=11	=11	=11	=11	=11	=11	=11	=11
1ryy	1ryy	1ryy	1ryy	1ryy	1ryy	1ryy	1ryy	1ryy	1ryy	1ryy	1r	1r	1ryy	4C	4cc	4ee	4cc'	4ee'	1ryy	1ryy
.	.	.	.	.	.	.	.	.	.	.	.	.	.	4r	4ryy	4r	4cc'	4ee'	.	.
.	.	.	.	.	.	.	.	.	.	.	.	.	.	.	.	.	8eeQ	8ggQ	.	.
.	.	.	.	.	.	.	.	.	.	.	.	.	.	2r	2ryy	2r	4dd	4ff	.	.
.	.	.	.	.	.	.	.	.	.	.	.	.	.	.	.	.	8cc	8ee	.	.
.	.	.	.	.	.	.	.	.	.	.	.	.	.	.	.	.	8dd	8ff	.	.
=12	=12	=12	=12	=12	=12	=12	=12	=12	=12	=12	=12	=12	=12	=12	=12	=12	=12	=12	=12	=12
1ryy	1ryy	1ryy	1ryy	1ryy	1ryy	1ryy	1ryy	1ryy	1ryy	1ryy	1r	1r	1ryy	4C	4ryy	4r	2ee	2gg	1ryy	1ryy
.	.	.	.	.	.	.	.	.	.	.	.	.	.	4r	4E	4c	.	.	.	.
.	.	.	.	.	.	.	.	.	.	.	.	.	.	2r	4c	4e	4cc	4ee	.	.
.	.	.	.	.	.	.	.	.	.	.	.	.	.	.	4e	4g	4ryy	4r	.	.
=13	=13	=13	=13	=13	=13	=13	=13	=13	=13	=13	=13	=13	=13	=13	=13	=13	=13	=13	=13	=13
*	*	*	*	*	*	*	*	*	*	*	*	*	*staff:2	*	*	*	*	*	*	*
1ryy	1ryy	1ryy	1ryy	1ryy	1ryy	1ryy	1ryy	1ryy	1ryy	1ryy	1r	1r	4C	1f	4a'	4cc'y	4aa'y	4ccc'	1ryy	1ryy
.	.	.	.	.	.	.	.	.	.	.	.	.	4r	.	4a'	4cc'y	4aa'y	4ccc'	.	.
.	.	.	.	.	.	.	.	.	.	.	.	.	.	.	8bQ	8ddQ	8bbQ	8dddQ	.	.
.	.	.	.	.	.	.	.	.	.	.	.	.	2r	.	4a	4cc	4aa	4ccc	.	.
.	.	.	.	.	.	.	.	.	.	.	.	.	.	.	8g	8b	8gg	8bb	.	.
.	.	.	.	.	.	.	.	.	.	.	.	.	.	.	8f	8a	8ff	8aa	.	.
=14	=14	=14	=14	=14	=14	=14	=14	=14	=14	=14	=14	=14	=14	=14	=14	=14	=14	=14	=14	=14
1ryy	1ryy	1ryy	1ryy	1ryy	1ryy	1ryy	1ryy	1ryy	1ryy	1ryy	1r	1r	4C	4e	4e'	4g'y	2ee	2gg	1ryy	1ryy
.	.	.	.	.	.	.	.	.	.	.	.	.	4ryy	4r	4c	4e	.	.	.	.
.	.	.	.	.	.	.	.	.	.	.	.	.	2ryy	2r	4d	4f	4dd	4ff	.	.
.	.	.	.	.	.	.	.	.	.	.	.	.	.	.	4e	4g	4cc	4ee	.	.
=15	=15	=15	=15	=15	=15	=15	=15	=15	=15	=15	=15	=15	=15	=15	=15	=15	=15	=15	=15	=15
1ryy	1ryy	1ryy	1ryy	1ryy	1ryy	1ryy	1ryy	1ryy	1ryy	1ryy	1r	1r	[1GG	1GG	4d'	4f'y	4b'y	4dd'	1ryy	1ryy
.	.	.	.	.	.	.	.	.	.	.	.	.	.	.	4d'	4f'y	4b'y	4dd'	.	.
.	.	.	.	.	.	.	.	.	.	.	.	.	.	.	8dQ	8fQ	8ddQ	8ffQ	.	.
.	.	.	.	.	.	.	.	.	.	.	.	.	.	.	8c	8e	8cc	8ee	.	.
.	.	.	.	.	.	.	.	.	.	.	.	.	.	.	8B	8d	8b	8dd	.	.
.	.	.	.	.	.	.	.	.	.	.	.	.	.	.	8c	8e	8cc	8ee	.	.
.	.	.	.	.	.	.	.	.	.	.	.	.	.	.	8d	8f	8dd	8ff	.	.
=16	=16	=16	=16	=16	=16	=16	=16	=16	=16	=16	=16	=16	=16	=16	=16	=16	=16	=16	=16	=16
1ryy	1ryy	1ryy	1ryy	1ryy	1ryy	1ryy	1ryy	1ryy	1ryy	1ryy	4ryy	4r	4GG]	4GG	4B	4d	4b	4dd	1ryy	1ryy
.	.	.	.	.	.	.	.	.	.	.	4GG	4G	4ryy	4r	4ryy	4r	4ryy	4r	.	.
.	.	.	.	.	.	.	.	.	.	.	4GG	4G	2ryy	2r	2ryy	2r	2ryy	2r	.	.
.	.	.	.	.	.	.	.	.	.	.	4GG	4G	.	.	.	.	.	.	.	.
=17	=17	=17	=17	=17	=17	=17	=17	=17	=17	=17	=17	=17	=17	=17	=17	=17	=17	=17	=17	=17
*staff:13	*staff:13	*staff:14	*staff:15	*staff:16	*	*	*	*	*	*	*staff:17	*staff:17	*staff:18	*staff:18	*	*	*	*	*	*
2GG	2G	[1g	2b	2dd	1ryy	1ryy	1ryy	1ryy	1ryy	1ryy	4GG	4G	1r	1r	1ryy	1ryy	1ryy	1ryy	1ryy	2dd
.	.	.	.	.	.	.	.	.	.	.	4ryy	4r	.	.	.	.	.	.	.	.
.	.	.	8ddq	8ffnq	.	.	.	.	.	.	.	.	.	.	.	.	.	.	.	8ffq
2CC	2C	.	8cc	8ee	.	.	.	.	.	.	2ryy	2r	.	.	.	.	.	.	.	8ee
.	.	.	8b	8dd	.	.	.	.	.	.	.	.	.	.	.	.	.	.	.	8dd
.	.	.	8cc	8ee	.	.	.	.	.	.	.	.	.	.	.	.	.	.	.	8ee
.	.	.	8dd	8ff	.	.	.	.	.	.	.	.	.	.	.	.	.	.	.	8ff
=18	=18	=18	=18	=18	=18	=18	=18	=18	=18	=18	=18	=18	=18	=18	=18	=18	=18	=18	=18	=18
4GGG	4GG	2.g]	2.b	2.dd	1ryy	1ryy	1ryy	1ryy	1ryy	1ryy	1r	1r	1r	1r	1ryy	1ryy	1ryy	1ryy	1ryy	2.dd
4GG	4G	.	.	.	.	.	.	.	.	.	.	.	.	.	.	.	.	.	.	.
4FF	4F	.	.	.	.	.	.	.	.	.	.	.	.	.	.	.	.	.	.	.
4EE	4E	4g	4cc#	4ee	.	.	.	.	.	.	.	.	.	.	.	.	.	.	.	4ee
=19	=19	=19	=19	=19	=19	=19	=19	=19	=19	=19	=19	=19	=19	=19	=19	=19	=19	=19	=19	=19
2DD	2D	2a	4dd'	4ff'	1ryy	1ryy	1ryy	1ryy	1ryy	1ryy	1r	1r	1r	1r	1ryy	1ryy	1ryy	1ryy	1ryy	4ff'
.	.	.	4dd'	4ff'	.	.	.	.	.	.	.	.	.	.	.	.	.	.	.	4ff'
.	.	.	8eeq	8ggq	.	.	.	.	.	.	.	.	.	.	.	.	.	.	.	8ggq
2GGG	2GG	2b	8dd	8ff	.	.	.	.	.	.	.	.	.	.	.	.	.	.	.	8ff
.	.	.	8ccn	8ee	.	.	.	.	.	.	.	.	.	.	.	.	.	.	.	8ee
.	.	.	8dd	8ff	.	.	.	.	.	.	.	.	.	.	.	.	.	.	.	8ff
.	.	.	8ee	8gg	.	.	.	.	.	.	.	.	.	.	.	.	.	.	.	8gg
=20	=20	=20	=20	=20	=20	=20	=20	=20	=20	=20	=20	=20	=20	=20	=20	=20	=20	=20	=20	=20
2.CC	2.C	4g	2dd	2ff	1ryy	1ryy	1ryy	1ryy	1ryy	1ryy	1r	1r	1r	1r	1ryy	1ryy	1ryy	1ryy	1ryy	2ff
.	.	4B	.	.	.	.	.	.	.	.	.	.	.	.	.	.	.	.	.	.
.	.	4c	4cc	4ee	.	.	.	.	.	.	.	.	.	.	.	.	.	.	.	4ee
4BBB	4BB	4B	4dd'	4gg'	.	.	.	.	.	.	.	.	.	.	.	.	.	.	.	4gg'
=21	=21	=21	=21	=21	=21	=21	=21	=21	=21	=21	=21	=21	=21	=21	=21	=21	=21	=21	=21	=21
2AAA	2AA	2.A	2ee	4ccc'	1ryy	1ryy	1ryy	1ryy	1ryy	1ryy	1r	1r	1r	1r	1ryy	1ryy	1ryy	1ryy	1ryy	4ccc'
.	.	.	.	4ccc'	.	.	.	.	.	.	.	.	.	.	.	.	.	.	.	4ccc'
.	.	.	.	8dddq	.	.	.	.	.	.	.	.	.	.	.	.	.	.	.	8dddq
2DD	2D	.	2ff#	8ccc	.	.	.	.	.	.	.	.	.	.	.	.	.	.	.	8ccc
.	.	.	.	8bb	.	.	.	.	.	.	.	.	.	.	.	.	.	.	.	8bb
.	.	4A	.	8ccc	.	.	.	.	.	.	.	.	.	.	.	.	.	.	.	8ccc
.	.	.	.	8ddd	.	.	.	.	.	.	.	.	.	.	.	.	.	.	.	8ddd
=22	=22	=22	=22	=22	=22	=22	=22	=22	=22	=22	=22	=22	=22	=22	=22	=22	=22	=22	=22	=22
2.GGG	2.GG	2d	2gg	4ccc	1ryy	1ryy	1ryy	1ryy	1ryy	1ryy	1r	1r	1r	1r	1ryy	1ryy	1ryy	1ryy	1ryy	4ccc
.	.	.	.	4bb	.	.	.	.	.	.	.	.	.	.	.	.	.	.	.	4bb
.	.	4ryy	4r	4aa	.	.	.	.	.	.	.	.	.	.	.	.	.	.	.	4aa
4EE	4E	4g	4cc#	4gg	.	.	.	.	.	.	.	.	.	.	.	.	.	.	.	4gg
=23	=23	=23	=23	=23	=23	=23	=23	=23	=23	=23	=23	=23	=23	=23	=23	=23	=23	=23	=23	=23
2DD	2D	2b	4dd	2gg	1ryy	1ryy	1ryy	1ryy	1ryy	1ryy	1r	1r	1r	1r	1ryy	1ryy	1ryy	1ryy	1ryy	2gg
.	.	.	4b	.	.	.	.	.	.	.	.	.	.	.	.	.	.	.	.	.
.	.	.	.	8bbq	.	.	.	.	.	.	.	.	.	.	.	.	.	.	.	8bbq
2DDD	2DD	2f#	8ccn	8aa	.	.	.	.	.	.	.	.	.	.	.	.	.	.	.	8aa
.	.	.	8b	8gg	.	.	.	.	.	.	.	.	.	.	.	.	.	.	.	8gg
.	.	.	8cc	8aa	.	.	.	.	.	.	.	.	.	.	.	.	.	.	.	8aa
.	.	.	8a	8ff#	.	.	.	.	.	.	.	.	.	.	.	.	.	.	.	8ff#
=24	=24	=24	=24	=24	=24	=24	=24	=24	=24	=24	=24	=24	=24	=24	=24	=24	=24	=24	=24	=24
4GGG	4GG	[1g	4g	4gg	1ryy	1ryy	1ryy	1ryy	1ryy	1ryy	4ryy	4r	1r	1r	1ryy	1ryy	1ryy	1ryy	1ryy	[1gg
4r	4r	.	4r	4r	.	.	.	.	.	.	4GG	4G	.	.	.	.	.	.	.	.
2r	2r	.	2r	2r	.	.	.	.	.	.	4GG	4G	.	.	.	.	.	.	.	.
.	.	.	.	.	.	.	.	.	.	.	4GG	4G	.	.	.	.	.	.	.	.
=25	=25	=25	=25	=25	=25	=25	=25	=25	=25	=25	=25	=25	=25	=25	=25	=25	=25	=25	=25	=25
4GG	4G	1g_	2b	2dd	1ryy	1ryy	1ryy	1ryy	1ryy	1ryy	1GG	[1G	1r	1r	1ryy	1ryy	1ryy	1ryy	1ryy	1gg_
4r	4r	.	.	.	.	.	.	.	.	.	.	.	.	.	.	.	.	.	.	.
.	.	.	8ddq	8ffnq	.	.	.	.	.	.	.	.	.	.	.	.	.	.	.	.
4CC	4C	.	8cc	8ee	.	.	.	.	.	.	.	.	.	.	.	.	.	.	.	.
.	.	.	8b	8dd	.	.	.	.	.	.	.	.	.	.	.	.	.	.	.	.
4r	4r	.	8cc	8ee	.	.	.	.	.	.	.	.	.	.	.	.	.	.	.	.
.	.	.	8dd	8ff	.	.	.	.	.	.	.	.	.	.	.	.	.	.	.	.
=26	=26	=26	=26	=26	=26	=26	=26	=26	=26	=26	=26	=26	=26	=26	=26	=26	=26	=26	=26	=26
4GG	4G	1g_	2.b	2.dd	1ryy	1ryy	1ryy	1ryy	1ryy	1ryy	4GG	4G]	1ryy	4r	1ryy	1ryy	1ryy	1ryy	1ryy	1gg_
4r	4r	.	.	.	.	.	.	.	.	.	4GG	4G	.	4g	.	.	.	.	.	.
2r	2r	.	.	.	.	.	.	.	.	.	4GG	4G	.	4f	.	.	.	.	.	.
.	.	.	4cc	4ee	.	.	.	.	.	.	4GG	4G	.	4e	.	.	.	.	.	.
=27	=27	=27	=27	=27	=27	=27	=27	=27	=27	=27	=27	=27	=27	=27	=27	=27	=27	=27	=27	=27
*staff:5	*staff:6	*staff:7	*staff:8	*staff:9	*	*	*	*	*	*	*staff:10	*staff:10	*	*staff:11	*	*	*	*	*	*staff:12
4GG	4G	1g_	4dd'	4ff'	1ryy	1ryy	1ryy	1ryy	1ryy	1ryy	1GG	[1G	1ryy	4d	1ryy	1ryy	1ryy	1ryy	1ryy	1gg_
4r	4r	.	4dd'	4ff'	.	.	.	.	.	.	.	.	.	4B	.	.	.	.	.	.
.	.	.	8ddQ	8ffQ	.	.	.	.	.	.	.	.	.	.	.	.	.	.	.	.
4GG	4G	.	4cc	4ee	.	.	.	.	.	.	.	.	.	4c	.	.	.	.	.	.
4r	4r	.	8b	8dd	.	.	.	.	.	.	.	.	.	4e	.	.	.	.	.	.
.	.	.	8cc	8ee	.	.	.	.	.	.	.	.	.	.	.	.	.	.	.	.
=28	=28	=28	=28	=28	=28	=28	=28	=28	=28	=28	=28	=28	=28	=28	=28	=28	=28	=28	=28	=28
4GG	4G	2g_	4b	4dd	1ryy	1ryy	1ryy	1ryy	1ryy	1ryy	4GG	4G]	1ryy	4g	1ryy	1ryy	1ryy	1ryy	1ryy	2gg_
4r	4r	.	4r	4r	.	.	.	.	.	.	4ryy	4r	.	4r	.	.	.	.	.	.
2r	2r	8g]	2r	2r	.	.	.	.	.	.	2ryy	2r	.	2r	.	.	.	.	.	8gg]
.	.	8e	.	.	.	.	.	.	.	.	.	.	.	.	.	.	.	.	.	8ee
.	.	8fn	.	.	.	.	.	.	.	.	.	.	.	.	.	.	.	.	.	8ffn
.	.	8d	.	.	.	.	.	.	.	.	.	.	.	.	.	.	.	.	.	8dd
=29	=29	=29	=29	=29	=29	=29	=29	=29	=29	=29	=29	=29	=29	=29	=29	=29	=29	=29	=29	=29
*	*	*	*	*	*	*	*	*	*	*	*	*	*staff:11	*	*	*	*	*	*	*
4CC	4C	4c'	4G' 4e'y	2cc	1ryy	1ryy	1ryy	1ryy	1ryy	1ryy	1r	1r	1r	1r	1ryy	1ryy	1ryy	1ryy	1ryy	2cc
4r	4r	4ryy	4r	.	.	.	.	.	.	.	.	.	.	.	.	.	.	.	.	.
.	.	.	.	8eeq	.	.	.	.	.	.	.	.	.	.	.	.	.	.	.	8eeq
4GGG	4GG	4B'	4G' 4f'y	8dd	.	.	.	.	.	.	.	.	.	.	.	.	.	.	.	8dd
.	.	.	.	8cc	.	.	.	.	.	.	.	.	.	.	.	.	.	.	.	8cc
4r	4r	4ryy	4r	8dd	.	.	.	.	.	.	.	.	.	.	.	.	.	.	.	8dd
.	.	.	.	8ee	.	.	.	.	.	.	.	.	.	.	.	.	.	.	.	8ee
=30	=30	=30	=30	=30	=30	=30	=30	=30	=30	=30	=30	=30	=30	=30	=30	=30	=30	=30	=30	=30
4CC	4C	4c'	4G' 4e'y	4cc	1ryy	1ryy	1ryy	1ryy	1ryy	1ryy	1r	1r	1r	1r	1ryy	1ryy	1ryy	1ryy	1ryy	4cc
4r	4r	4c'	4r	4r	.	.	.	.	.	.	.	.	.	.	.	.	.	.	.	4r
2r	2r	4e'	2r	2r	.	.	.	.	.	.	.	.	.	.	.	.	.	.	.	2r
.	.	4g'	.	.	.	.	.	.	.	.	.	.	.	.	.	.	.	.	.	.
=31	=31	=31	=31	=31	=31	=31	=31	=31	=31	=31	=31	=31	=31	=31	=31	=31	=31	=31	=31	=31
4CC	4C	4cc	4cc'	4ee'	1ryy	1ryy	1ryy	1ryy	1ryy	1ryy	1r	1r	1r	1r	1ryy	1ryy	1ryy	1ryy	1ryy	4ee'
4r	4r	4ryy	4cc'	4ee'	.	.	.	.	.	.	.	.	.	.	.	.	.	.	.	4ee'
.	.	.	8eeQ	8ggQ	.	.	.	.	.	.	.	.	.	.	.	.	.	.	.	8ggQ
2r	2r	2ryy	4dd	4ff	.	.	.	.	.	.	.	.	.	.	.	.	.	.	.	4ff
.	.	.	8cc	8ee	.	.	.	.	.	.	.	.	.	.	.	.	.	.	.	8ee
.	.	.	8dd	8ff	.	.	.	.	.	.	.	.	.	.	.	.	.	.	.	8ff
=32	=32	=32	=32	=32	=32	=32	=32	=32	=32	=32	=32	=32	=32	=32	=32	=32	=32	=32	=32	=32
4CC	4C	4ryy	2ee	2gg	1ryy	1ryy	1ryy	1ryy	1ryy	1ryy	1r	1r	1r	1r	1ryy	1ryy	1ryy	1ryy	1ryy	2gg
4r	4r	4E	.	.	.	.	.	.	.	.	.	.	.	.	.	.	.	.	.	.
2r	2r	4c	4cc'	4ee'	.	.	.	.	.	.	.	.	.	.	.	.	.	.	.	4ee'
.	.	4e	4r	4r	.	.	.	.	.	.	.	.	.	.	.	.	.	.	.	4r
=33	=33	=33	=33	=33	=33	=33	=33	=33	=33	=33	=33	=33	=33	=33	=33	=33	=33	=33	=33	=33
4CC	1f	4a'	4aa'	4ccc'	1ryy	1ryy	1ryy	1ryy	1ryy	1ryy	1r	1r	1r	1r	1ryy	1ryy	1ryy	1ryy	1ryy	4ccc'
4r	.	4a'	4aa'	4ccc'	.	.	.	.	.	.	.	.	.	.	.	.	.	.	.	4ccc'
.	.	8bQ	8bbQ	8dddQ	.	.	.	.	.	.	.	.	.	.	.	.	.	.	.	8dddQ
2r	.	4a	4aa	4ccc	.	.	.	.	.	.	.	.	.	.	.	.	.	.	.	4ccc
.	.	8g	8gg	8bb	.	.	.	.	.	.	.	.	.	.	.	.	.	.	.	8bb
.	.	8f	8ff	8aa	.	.	.	.	.	.	.	.	.	.	.	.	.	.	.	8aa
=34	=34	=34	=34	=34	=34	=34	=34	=34	=34	=34	=34	=34	=34	=34	=34	=34	=34	=34	=34	=34
4CC	4e	4e	2ee	2gg	1ryy	1ryy	1ryy	1ryy	1ryy	1ryy	1r	1r	1r	1r	1ryy	1ryy	1ryy	1ryy	1ryy	2gg
4r	4r	4c	.	.	.	.	.	.	.	.	.	.	.	.	.	.	.	.	.	.
2r	2r	4d	4dd	4ff	.	.	.	.	.	.	.	.	.	.	.	.	.	.	.	4ff
.	.	4e	4cc	4ee	.	.	.	.	.	.	.	.	.	.	.	.	.	.	.	4ee
=35	=35	=35	=35	=35	=35	=35	=35	=35	=35	=35	=35	=35	=35	=35	=35	=35	=35	=35	=35	=35
1GG	1G	1G	4b'	4dd'	1ryy	1ryy	1ryy	1ryy	1ryy	1ryy	1r	1r	1r	1r	1ryy	1ryy	1ryy	1ryy	1ryy	4dd'
.	.	.	4b'	4dd'	.	.	.	.	.	.	.	.	.	.	.	.	.	.	.	4dd'
.	.	.	8ccq	8eeq	.	.	.	.	.	.	.	.	.	.	.	.	.	.	.	8eeq
.	.	.	8b	8dd	.	.	.	.	.	.	.	.	.	.	.	.	.	.	.	8dd
.	.	.	8a	8cc	.	.	.	.	.	.	.	.	.	.	.	.	.	.	.	8cc
.	.	.	8b	8dd	.	.	.	.	.	.	.	.	.	.	.	.	.	.	.	8dd
.	.	.	8g	8ee	.	.	.	.	.	.	.	.	.	.	.	.	.	.	.	8ee
=36	=36	=36	=36	=36	=36	=36	=36	=36	=36	=36	=36	=36	=36	=36	=36	=36	=36	=36	=36	=36
4CC	4C	4c	4cc	4cc	1ryy	1ryy	1ryy	1ryy	1ryy	1ryy	4ryy	4r	1r	1r	1ryy	1ryy	1ryy	1ryy	1ryy	4cc
4r	4r	4ryy	4r	4r	.	.	.	.	.	.	4G	4g	.	.	.	.	.	.	.	4r
2r	2r	2ryy	2r	2r	.	.	.	.	.	.	4E	4e	.	.	.	.	.	.	.	2r
.	.	.	.	.	.	.	.	.	.	.	4C	4c	.	.	.	.	.	.	.	.
=37	=37	=37	=37	=37	=37	=37	=37	=37	=37	=37	=37	=37	=37	=37	=37	=37	=37	=37	=37	=37
*	*	*	*	*	*	*	*	*	*	*	*staff:1	*staff:1	*	*staff:2	*	*	*	*	*	*
1ryy	1ryy	1ryy	1ryy	1ryy	1ryy	1ryy	1ryy	1ryy	1ryy	1ryy	4GG	4G	1ryy	2G	1r	[1g	2b	2dd	1ryy	1ryy
.	.	.	.	.	.	.	.	.	.	.	4ryy	4r	.	.	.	.	.	.	.	.
.	.	.	.	.	.	.	.	.	.	.	.	.	.	.	.	.	8ddQ	8ffQ	.	.
.	.	.	.	.	.	.	.	.	.	.	2ryy	2r	.	2C	.	.	8cc	8ee	.	.
.	.	.	.	.	.	.	.	.	.	.	.	.	.	.	.	.	8b	8dd	.	.
.	.	.	.	.	.	.	.	.	.	.	.	.	.	.	.	.	8cc	8ee	.	.
.	.	.	.	.	.	.	.	.	.	.	.	.	.	.	.	.	8dd	8ff	.	.
=38	=38	=38	=38	=38	=38	=38	=38	=38	=38	=38	=38	=38	=38	=38	=38	=38	=38	=38	=38	=38
1ryy	1ryy	1ryy	1ryy	1ryy	1ryy	1ryy	1ryy	1ryy	1ryy	1ryy	1r	1r	1ryy	4GG	1r	1g]	2.b	2.dd	1ryy	1ryy
.	.	.	.	.	.	.	.	.	.	.	.	.	.	4G	.	.	.	.	.	.
.	.	.	.	.	.	.	.	.	.	.	.	.	.	4F	.	.	.	.	.	.
.	.	.	.	.	.	.	.	.	.	.	.	.	.	4E	.	.	4cc#	4ee	.	.
=39	=39	=39	=39	=39	=39	=39	=39	=39	=39	=39	=39	=39	=39	=39	=39	=39	=39	=39	=39	=39
1ryy	1ryy	1ryy	1ryy	1ryy	1ryy	1ryy	1ryy	1ryy	1ryy	1ryy	1r	1r	1ryy	2D	1r	2a	4dd	4ff	1ryy	1ryy
.	.	.	.	.	.	.	.	.	.	.	.	.	.	.	.	.	4dd	4ff	.	.
.	.	.	.	.	.	.	.	.	.	.	.	.	.	.	.	.	8eeQ	8ggQ	.	.
.	.	.	.	.	.	.	.	.	.	.	.	.	.	2GG	.	2b	8dd	8ff	.	.
.	.	.	.	.	.	.	.	.	.	.	.	.	.	.	.	.	8ccn	8ee	.	.
.	.	.	.	.	.	.	.	.	.	.	.	.	.	.	.	.	8dd	8ff	.	.
.	.	.	.	.	.	.	.	.	.	.	.	.	.	.	.	.	8ee	8gg	.	.
=40	=40	=40	=40	=40	=40	=40	=40	=40	=40	=40	=40	=40	=40	=40	=40	=40	=40	=40	=40	=40
1ryy	1ryy	1ryy	1ryy	1ryy	1ryy	1ryy	1ryy	1ryy	1ryy	1ryy	1r	1r	1ryy	2.C	4g	2g	2dd	2ff	1ryy	1ryy
.	.	.	.	.	.	.	.	.	.	.	.	.	.	.	4b	.	.	.	.	.
.	.	.	.	.	.	.	.	.	.	.	.	.	.	.	4cc	[2gg	4cc	4ee	.	.
.	.	.	.	.	.	.	.	.	.	.	.	.	.	4BB	4dd	.	4dd	4gg	.	.
=41	=41	=41	=41	=41	=41	=41	=41	=41	=41	=41	=41	=41	=41	=41	=41	=41	=41	=41	=41	=41
1ryy	1ryy	1ryy	1ryy	1ryy	1ryy	1ryy	1ryy	1ryy	1ryy	1ryy	1r	1r	1ryy	2AA	2cc	2gg]	2ee	4ccc'	1ryy	1ryy
.	.	.	.	.	.	.	.	.	.	.	.	.	.	.	.	.	.	4ccc'	.	.
.	.	.	.	.	.	.	.	.	.	.	.	.	.	.	.	.	.	8dddq	.	.
.	.	.	.	.	.	.	.	.	.	.	.	.	.	2D	2a	4ff#	2ff#	8ccc	.	.
.	.	.	.	.	.	.	.	.	.	.	.	.	.	.	.	.	.	8bb	.	.
.	.	.	.	.	.	.	.	.	.	.	.	.	.	.	.	4aa	.	8ccc	.	.
.	.	.	.	.	.	.	.	.	.	.	.	.	.	.	.	.	.	8ddd	.	.
=42	=42	=42	=42	=42	=42	=42	=42	=42	=42	=42	=42	=42	=42	=42	=42	=42	=42	=42	=42	=42
1ryy	1ryy	1ryy	1ryy	1ryy	1ryy	1ryy	1ryy	1ryy	1ryy	1ryy	1r	1r	1ryy	2.GG	2.dd	2.gg	2gg	4ccc	1ryy	1ryy
.	.	.	.	.	.	.	.	.	.	.	.	.	.	.	.	.	.	4bb	.	.
.	.	.	.	.	.	.	.	.	.	.	.	.	.	.	.	.	4r	4aa	.	.
.	.	.	.	.	.	.	.	.	.	.	.	.	.	4E	4g	4cc#	4cc#	4gg	.	.
=43	=43	=43	=43	=43	=43	=43	=43	=43	=43	=43	=43	=43	=43	=43	=43	=43	=43	=43	=43	=43
*	*	*	*	*	*	*	*	*	*	*	*	*	*staff:2	*	*	*	*	*	*	*
1ryy	1ryy	1ryy	1ryy	1ryy	1ryy	1ryy	1ryy	1ryy	1ryy	1ryy	1r	1r	2D	2D	2b	2dd	4dd	2gg	1ryy	1ryy
.	.	.	.	.	.	.	.	.	.	.	.	.	.	.	.	.	4b	.	.	.
.	.	.	.	.	.	.	.	.	.	.	.	.	.	.	.	.	8ddq	8bbq	.	.
.	.	.	.	.	.	.	.	.	.	.	.	.	2DD	2DD	4a	2ff#	8ccn	8aa	.	.
.	.	.	.	.	.	.	.	.	.	.	.	.	.	.	.	.	8b	8gg	.	.
.	.	.	.	.	.	.	.	.	.	.	.	.	.	.	4ccn	.	8cc	8aa	.	.
.	.	.	.	.	.	.	.	.	.	.	.	.	.	.	.	.	8a	8ff#	.	.
=44	=44	=44	=44	=44	=44	=44	=44	=44	=44	=44	=44	=44	=44	=44	=44	=44	=44	=44	=44	=44
1ryy	1ryy	1ryy	1ryy	1ryy	1ryy	1ryy	1ryy	1ryy	1ryy	1ryy	4ryy	4r	4GG	4GG	4b	4gg	4g	[1gg	1ryy	1ryy
.	.	.	.	.	.	.	.	.	.	.	4GG	4G	4r	4r	4ryy	4r	4r	.	.	.
.	.	.	.	.	.	.	.	.	.	.	4GG	4G	2r	2r	2ryy	2r	2r	.	.	.
.	.	.	.	.	.	.	.	.	.	.	4GG	4G	.	.	.	.	.	.	.	.
=45	=45	=45	=45	=45	=45	=45	=45	=45	=45	=45	=45	=45	=45	=45	=45	=45	=45	=45	=45	=45
1ryy	1ryy	1ryy	1ryy	1ryy	1ryy	1ryy	1ryy	1ryy	1ryy	1ryy	1GG	[1G	4G	4G	1ryy	2b	2dd	1gg_	1ryy	1ryy
.	.	.	.	.	.	.	.	.	.	.	.	.	4ryy	4r	.	.	.	.	.	.
.	.	.	.	.	.	.	.	.	.	.	.	.	.	.	.	8ddq	8ffnq	.	.	.
.	.	.	.	.	.	.	.	.	.	.	.	.	4C	4C	.	8cc	8ee	.	.	.
.	.	.	.	.	.	.	.	.	.	.	.	.	.	.	.	8b	8dd	.	.	.
.	.	.	.	.	.	.	.	.	.	.	.	.	4ryy	4r	.	8cc	8ee	.	.	.
.	.	.	.	.	.	.	.	.	.	.	.	.	.	.	.	8dd	8ff	.	.	.
=46	=46	=46	=46	=46	=46	=46	=46	=46	=46	=46	=46	=46	=46	=46	=46	=46	=46	=46	=46	=46
1ryy	1ryy	1ryy	1ryy	1ryy	1ryy	1ryy	1ryy	1ryy	1ryy	1ryy	4GG	4G]	4G	4G	1ryy	2.b	2.dd	1gg_	1ryy	1ryy
.	.	.	.	.	.	.	.	.	.	.	4GG	4G	4r	4g	.	.	.	.	.	.
.	.	.	.	.	.	.	.	.	.	.	4GG	4G	2r	4f	.	.	.	.	.	.
.	.	.	.	.	.	.	.	.	.	.	4GG	4G	.	4e	.	4cc	4ee	.	.	.
=47	=47	=47	=47	=47	=47	=47	=47	=47	=47	=47	=47	=47	=47	=47	=47	=47	=47	=47	=47	=47
*	*	*	*	*	*	*	*	*	*	*	*staff:15	*staff:15	*staff:16	*staff:16	*	*staff:17	*staff:18	*staff:18	*	*
1ryy	1ryy	1ryy	1ryy	1ryy	1ryy	1ryy	1ryy	1ryy	1ryy	1ryy	1GG	[1G	4GG	4d	1ryy	4dd'	4ff'	1gg_	1ryy	1ryy
.	.	.	.	.	.	.	.	.	.	.	.	.	4r	4B	.	4dd'	4ff'	.	.	.
.	.	.	.	.	.	.	.	.	.	.	.	.	.	.	.	[8ccP	8ffQ	.	.	.
.	.	.	.	.	.	.	.	.	.	.	.	.	4GG	4c	.	4ccp]	4ee	.	.	.
.	.	.	.	.	.	.	.	.	.	.	.	.	4r	4e	.	8b	8dd	.	.	.
.	.	.	.	.	.	.	.	.	.	.	.	.	.	.	.	8cc	8ee	.	.	.
=48	=48	=48	=48	=48	=48	=48	=48	=48	=48	=48	=48	=48	=48	=48	=48	=48	=48	=48	=48	=48
1ryy	1ryy	1ryy	1ryy	1ryy	1ryy	1ryy	1ryy	1ryy	1ryy	1ryy	2GG	2G]	4GG	4g	1ryy	4b	4dd	2gg_	1ryy	1ryy
.	.	.	.	.	.	.	.	.	.	.	.	.	4ryy	4r	.	4r	4r	.	.	.
.	.	.	.	.	.	.	.	.	.	.	2ryy	2r	2ryy	2r	.	2r	2r	8gg]	.	.
.	.	.	.	.	.	.	.	.	.	.	.	.	.	.	.	.	.	8ee	.	.
.	.	.	.	.	.	.	.	.	.	.	.	.	.	.	.	.	.	8ffn	.	.
.	.	.	.	.	.	.	.	.	.	.	.	.	.	.	.	.	.	8dd	.	.
=49	=49	=49	=49	=49	=49	=49	=49	=49	=49	=49	=49	=49	=49	=49	=49	=49	=49	=49	=49	=49
*	*	*	*	*	*	*	*	*	*	*	*	*	*	*	*staff:17	*	*	*	*	*
1ryy	1ryy	1ryy	1ryy	1ryy	1ryy	1ryy	1ryy	1ryy	1ryy	1ryy	2E	2c	4C	4C	4c	4e	4e	2cc	1ryy	1ryy
.	.	.	.	.	.	.	.	.	.	.	.	.	4r	4r	4ryy	4r	4r	.	.	.
.	.	.	.	.	.	.	.	.	.	.	.	.	.	.	.	.	.	8eeq	.	.
.	.	.	.	.	.	.	.	.	.	.	2G	2d	4GG	4GG	4B	4f	4g	8dd	.	.
.	.	.	.	.	.	.	.	.	.	.	.	.	.	.	.	.	.	8cc	.	.
.	.	.	.	.	.	.	.	.	.	.	.	.	4r	4r	4ryy	4r	4r	8dd	.	.
.	.	.	.	.	.	.	.	.	.	.	.	.	.	.	.	.	.	8ee	.	.
=50	=50	=50	=50	=50	=50	=50	=50	=50	=50	=50	=50	=50	=50	=50	=50	=50	=50	=50	=50	=50
1ryy	1ryy	1ryy	1ryy	1ryy	1ryy	1ryy	1ryy	1ryy	1ryy	1ryy	4c	4e	4CC	4CC	4c	4e	4e	4cc	1ryy	1ryy
.	.	.	.	.	.	.	.	.	.	.	4ryy	4r	4r	4r	4c	4e	4ryy	4r	.	.
.	.	.	.	.	.	.	.	.	.	.	2ryy	2r	2r	2r	4e	4g	2ryy	2r	.	.
.	.	.	.	.	.	.	.	.	.	.	.	.	.	.	4g	4cc	.	.	.	.
=51	=51	=51	=51	=51	=51	=51	=51	=51	=51	=51	=51	=51	=51	=51	=51	=51	=51	=51	=51	=51
1ryy	1ryy	1ryy	1ryy	1ryy	1ryy	1ryy	1ryy	1ryy	1ryy	1ryy	1C	[1c	4C	4C	4cc	4ee	4cc'y	4ee'	1ryy	1ryy
.	.	.	.	.	.	.	.	.	.	.	.	.	4r	4r	4ryy	4r	4cc'y	4ee'	.	.
.	.	.	.	.	.	.	.	.	.	.	.	.	.	.	.	.	8eeQ	8ggQ	.	.
.	.	.	.	.	.	.	.	.	.	.	.	.	2r	2r	2ryy	2r	4dd	4ff	.	.
.	.	.	.	.	.	.	.	.	.	.	.	.	.	.	.	.	8cc	8ee	.	.
.	.	.	.	.	.	.	.	.	.	.	.	.	.	.	.	.	8dd	8ff	.	.
=52	=52	=52	=52	=52	=52	=52	=52	=52	=52	=52	=52	=52	=52	=52	=52	=52	=52	=52	=52	=52
1ryy	1ryy	1ryy	1ryy	1ryy	1ryy	1ryy	1ryy	1ryy	1ryy	1ryy	1C	1c_	4C	4C	4ryy	4r	2ee	2gg	1ryy	1ryy
.	.	.	.	.	.	.	.	.	.	.	.	.	4r	4r	4E	4c	.	.	.	.
.	.	.	.	.	.	.	.	.	.	.	.	.	2r	2r	4c	4e	4cc'y	4ee'	.	.
.	.	.	.	.	.	.	.	.	.	.	.	.	.	.	4e	4g	4ryy	4r	.	.
=53	=53	=53	=53	=53	=53	=53	=53	=53	=53	=53	=53	=53	=53	=53	=53	=53	=53	=53	=53	=53
1ryy	1ryy	1ryy	1ryy	1ryy	1ryy	1ryy	1ryy	1ryy	1ryy	1ryy	1C	1c_	4C	1f	4a'	4cc'y	4aa'y	4ccc'	1ryy	1ryy
.	.	.	.	.	.	.	.	.	.	.	.	.	4r	.	4a'	4cc'y	4aa'y	4ccc'	.	.
.	.	.	.	.	.	.	.	.	.	.	.	.	.	.	8bQ	8ddQ	8bbQ	8dddQ	.	.
.	.	.	.	.	.	.	.	.	.	.	.	.	2r	.	4a	4cc	4aa	4ccc	.	.
.	.	.	.	.	.	.	.	.	.	.	.	.	.	.	8g	8b	8gg	8bb	.	.
.	.	.	.	.	.	.	.	.	.	.	.	.	.	.	8f	8a	8ff	8aa	.	.
=54	=54	=54	=54	=54	=54	=54	=54	=54	=54	=54	=54	=54	=54	=54	=54	=54	=54	=54	=54	=54
1ryy	1ryy	1ryy	1ryy	1ryy	1ryy	1ryy	1ryy	1ryy	1ryy	1ryy	4C	4c]	4C	4e	4e'	4g'y	2ee	2gg	1ryy	1ryy
.	.	.	.	.	.	.	.	.	.	.	4ryy	4r	4ryy	4r	4c	4e	.	.	.	.
.	.	.	.	.	.	.	.	.	.	.	2ryy	2r	2ryy	2r	4d	4f	4dd	4ff	.	.
.	.	.	.	.	.	.	.	.	.	.	.	.	.	.	4e	4g	4cc	4ee	.	.
=55	=55	=55	=55	=55	=55	=55	=55	=55	=55	=55	=55	=55	=55	=55	=55	=55	=55	=55	=55	=55
1ryy	1ryy	1ryy	1ryy	1ryy	1ryy	1ryy	1ryy	1ryy	1ryy	1ryy	1G	1d	1GG	1G	1f	1f	4b'y	4dd'	1ryy	1ryy
.	.	.	.	.	.	.	.	.	.	.	.	.	.	.	.	.	4b'y	4dd'	.	.
.	.	.	.	.	.	.	.	.	.	.	.	.	.	.	.	.	8ccQ	8eeQ	.	.
.	.	.	.	.	.	.	.	.	.	.	.	.	.	.	.	.	8b	8dd	.	.
.	.	.	.	.	.	.	.	.	.	.	.	.	.	.	.	.	8a	8cc	.	.
.	.	.	.	.	.	.	.	.	.	.	.	.	.	.	.	.	8b	8dd	.	.
.	.	.	.	.	.	.	.	.	.	.	.	.	.	.	.	.	8g	8ee	.	.
=56	=56	=56	=56	=56	=56	=56	=56	=56	=56	=56	=56	=56	=56	=56	=56	=56	=56	=56	=56	=56
*staff:1	*staff:1	*staff:2	*staff:3	*staff:4	*staff:5	*staff:6	*staff:7	*staff:8	*staff:9	*staff:9	*staff:10	*staff:10	*staff:11	*staff:11	*staff:12	*staff:12	*staff:13	*staff:13	*	*staff:14
*	*	*	*	*	*	*	*	*	*	*	*	*	*	*	*	*	*	*	*staff:14	*
*	*	*	*	*	*	*	*	*	*	*	*	*	*	*	*	*	*	*	*clefG2	*
4r	4r	4r	1r	1r	1r	1r	1r	1r	1r	1r	2c	2e	4C	4C	4e	4e	4cc	4cc	1r	1r
4C'	4c'	4c'	.	.	.	.	.	.	.	.	.	.	4c'	4c'	4ryy	4r	4ryy	4r	.	.
4GG'	4G'	4G'	.	.	.	.	.	.	.	.	2ryy	2r	4G'	4G'	2ryy	2r	2ryy	2r	.	.
4EE-'	4E-'	4E-'	.	.	.	.	.	.	.	.	.	.	4E-'	4E-'	.	.	.	.	.	.
=57	=57	=57	=57	=57	=57	=57	=57	=57	=57	=57	=57	=57	=57	=57	=57	=57	=57	=57	=57	=57
2CC`	2C`	2C`	2G 2e-	2e- 2cc	4b	2b	8D	2C	2c	2cc	2C	2c	2C	2C	2cc	2cc	2e-	2cc	2cc	2cc
.	.	.	.	.	.	.	8D	.	.	.	.	.	.	.	.	.	.	.	.	.
.	.	.	.	.	4b	.	8D	.	.	.	.	.	.	.	.	.	.	.	.	.
.	.	.	.	.	.	.	8D	.	.	.	.	.	.	.	.	.	.	.	.	.
.	.	.	8gq	8ee-Xq	.	.	.	.	.	.	.	.	.	.	.	.	.	8ee-Xq	8ee-q	8ee-q
2GGG`	2GG`	2G`	8f	8dd	4b	2b	8D	2GG	2g	2g	2G	2G	2GG	2GG	2b	2b	2f	8dd	8dd	8dd
.	.	.	8e-	8cc	.	.	8D	.	.	.	.	.	.	.	.	.	.	8cc	8cc	8cc
.	.	.	8f	8dd	4b	.	8D	.	.	.	.	.	.	.	.	.	.	8dd	8dd	8dd
.	.	.	8g	8ee-X	.	.	8D	.	.	.	.	.	.	.	.	.	.	8ee-X	8ee-X	8ee-X
=58	=58	=58	=58	=58	=58	=58	=58	=58	=58	=58	=58	=58	=58	=58	=58	=58	=58	=58	=58	=58
2CC`	2C`	2c`	4e-'	4cc'	4b	2b	8D	2C	2c	2cc	2C	2c	2C	2C	2cc	2cc	4e-	4cc	4cc'	4cc'
.	.	.	.	.	.	.	8D	.	.	.	.	.	.	.	.	.	.	.	.	.
.	.	.	4e-'	4g'	4b	.	8D	.	.	.	.	.	.	.	.	.	4ryy	4r	4g'	4g'
.	.	.	.	.	.	.	8D	.	.	.	.	.	.	.	.	.	.	.	.	.
2r	2r	2r	4g'	4cc'	4b	2r	8D	2r	2ryy	2r	2ryy	2r	2r	2r	2ryy	2r	2ryy	2r	4cc'	4cc'
.	.	.	.	.	.	.	8D	.	.	.	.	.	.	.	.	.	.	.	.	.
.	.	.	4cc'	4ee-'	4b	.	8D	.	.	.	.	.	.	.	.	.	.	.	4ee-'	4ee-'
.	.	.	.	.	.	.	8D	.	.	.	.	.	.	.	.	.	.	.	.	.
=59	=59	=59	=59	=59	=59	=59	=59	=59	=59	=59	=59	=59	=59	=59	=59	=59	=59	=59	=59	=59
2BBB`	2BB`	2G`	2dd	2ff	4b	2b	8D	2GG	2g	2dd	2G	2g	2B	2B	[1g	1gg	2dd	2ff	2ff	2ff
.	.	.	.	.	.	.	8D	.	.	.	.	.	.	.	.	.	.	.	.	.
.	.	.	.	.	4b	.	8D	.	.	.	.	.	.	.	.	.	.	.	.	.
.	.	.	.	.	.	.	8D	.	.	.	.	.	.	.	.	.	.	.	.	.
.	.	.	8ddQ	8ffQ	.	.	.	.	.	.	.	.	.	.	.	.	8ddQ	8ffQ	8ffQ	8ffQ
2CC`	2C`	2G`	4cc	4ee-	4b	2b	8D	2C	2cc	2cc	2G	2g	2c	2c	.	.	4cc	4ee-	4ee-	4ee-
.	.	.	.	.	.	.	8D	.	.	.	.	.	.	.	.	.	.	.	.	.
.	.	.	8bn	8dd	4b	.	8D	.	.	.	.	.	.	.	.	.	8bn	8dd	8dd	8dd
.	.	.	8cc	8ee-	.	.	8D	.	.	.	.	.	.	.	.	.	8cc	8ee-	8ee-	8ee-
=60	=60	=60	=60	=60	=60	=60	=60	=60	=60	=60	=60	=60	=60	=60	=60	=60	=60	=60	=60	=60
2GGG`	2GG`	2G`	4b'	4dd'	4b	4b	4D	2GG	2g	2g	2G	2g	2G	2G	4g]	4gg	4b	4dd	4dd	4dd
.	.	.	4b	4dd	4r	4r	4r	.	.	.	.	.	.	.	4ryy	4r	4ryy	4r	4r	4r
2r	2r	2r	4cc	4ee-	2r	2r	2r	2r	2ryy	2r	2ryy	2r	2r	2r	2ryy	2r	2ryy	2r	2r	2r
.	.	.	4dd	4ff	.	.	.	.	.	.	.	.	.	.	.	.	.	.	.	.
=61	=61	=61	=61	=61	=61	=61	=61	=61	=61	=61	=61	=61	=61	=61	=61	=61	=61	=61	=61	=61
4EE-	4E-	2g	4ee-	4gg	1r	1r	1r	1r	1r	1r	1r	1r	4E-	1e-X	1gg	1gg	2b-	1r	1ryy	2bb-
4r	4r	.	4r	4r	.	.	.	.	.	.	.	.	4r	.	.	.	.	.	.	.
2r	2r	8f#	2r	2r	.	.	.	.	.	.	.	.	2r	.	.	.	8an	.	.	8aan
.	.	8g	.	.	.	.	.	.	.	.	.	.	.	.	.	.	8b-	.	.	8bb-
.	.	8a-	.	.	.	.	.	.	.	.	.	.	.	.	.	.	8cc	.	.	8ccc
.	.	8g	.	.	.	.	.	.	.	.	.	.	.	.	.	.	8b-	.	.	8bb-
=62	=62	=62	=62	=62	=62	=62	=62	=62	=62	=62	=62	=62	=62	=62	=62	=62	=62	=62	=62	=62
4BBB-	4BB-	4fn	2ff	2aa-	1r	1r	1r	1r	1r	1r	1r	1r	4BB-	1B-X	4ff	4ff	1b-	1dd	1ryy	[1bb-
4r	4r	4r	.	.	.	.	.	.	.	.	.	.	4r	.	4r	4r	.	.	.	.
2r	2r	2r	8een	8gg	.	.	.	.	.	.	.	.	2r	.	2r	2r	.	.	.	.
.	.	.	8ff	8aa-	.	.	.	.	.	.	.	.	.	.	.	.	.	.	.	.
.	.	.	8gg	8bb-	.	.	.	.	.	.	.	.	.	.	.	.	.	.	.	.
.	.	.	8ff	8aa-	.	.	.	.	.	.	.	.	.	.	.	.	.	.	.	.
=63	=63	=63	=63	=63	=63	=63	=63	=63	=63	=63	=63	=63	=63	=63	=63	=63	=63	=63	=63	=63
4EE-	4E-	2g	4ee-	4gg	1r	1r	1r	1r	1r	1r	1r	1r	4E-	1e-X	1gg	1gg	2b-	4ee-	1ryy	2bb-]
4r	4r	.	4r	4r	.	.	.	.	.	.	.	.	4r	.	.	.	.	4r	.	.
2r	2r	8f#	2r	2r	.	.	.	.	.	.	.	.	2r	.	.	.	8a	2r	.	8aa
.	.	8g	.	.	.	.	.	.	.	.	.	.	.	.	.	.	8b-X	.	.	8bb-
.	.	8a-	.	.	.	.	.	.	.	.	.	.	.	.	.	.	8cc	.	.	8ccc
.	.	8g	.	.	.	.	.	.	.	.	.	.	.	.	.	.	8b-	.	.	8bb-
=64	=64	=64	=64	=64	=64	=64	=64	=64	=64	=64	=64	=64	=64	=64	=64	=64	=64	=64	=64	=64
*staff:15	*staff:15	*staff:16	*staff:17	*staff:18	*	*	*	*	*	*	*	*	*staff:19	*staff:19	*staff:20	*staff:20	*staff:21	*staff:21	*	*staff:22
4BBB-	4BB-	4fn	2ff	2aa-	1ryy	1ryy	1ryy	1ryy	1ryy	1ryy	1ryy	1ryy	4BB-	1B-X	4ff	4ff	1b-	1dd	1ryy	[1bb-
4r	4r	4r	.	.	.	.	.	.	.	.	.	.	4r	.	4r	4r	.	.	.	.
2r	2r	2r	8een	8gg	.	.	.	.	.	.	.	.	2r	.	2r	2r	.	.	.	.
.	.	.	8ff	8aa-	.	.	.	.	.	.	.	.	.	.	.	.	.	.	.	.
.	.	.	8gg	8bb-	.	.	.	.	.	.	.	.	.	.	.	.	.	.	.	.
.	.	.	8ff	8aa-	.	.	.	.	.	.	.	.	.	.	.	.	.	.	.	.
=65	=65	=65	=65	=65	=65	=65	=65	=65	=65	=65	=65	=65	=65	=65	=65	=65	=65	=65	=65	=65
4EE-	4E-	4r	4ee-`	4gg`	1ryy	1ryy	1ryy	1ryy	1ryy	1ryy	1ryy	1ryy	4E-	4E-	1r	1r	2b-	2ee-	1ryy	2bb-]
4r	4r	4e-	4ee-`	4gg`	.	.	.	.	.	.	.	.	4r	4r	.	.	.	.	.	.
8BBB	8BBn	4r	4r	4r	.	.	.	.	.	.	.	.	8Bn	8Bn	.	.	2g	2gg	.	[2eee-
8CC	8C	.	.	.	.	.	.	.	.	.	.	.	8c	8c	.	.	.	.	.	.
8DD	8D	4cc	4ee-`	4gg`	.	.	.	.	.	.	.	.	8d	8d	.	.	.	.	.	.
8CC	8C	.	.	.	.	.	.	.	.	.	.	.	8c	8c	.	.	.	.	.	.
=66	=66	=66	=66	=66	=66	=66	=66	=66	=66	=66	=66	=66	=66	=66	=66	=66	=66	=66	=66	=66
4AAA-	4AA-	4r	4r	4r	1ryy	1ryy	1ryy	1ryy	1ryy	1ryy	1ryy	1ryy	4A-	4A-	1r	1r	2cc	1ff	1ryy	2eee-]
4r	4r	4cc'	4ee-'	4ff'	.	.	.	.	.	.	.	.	4r	4r	.	.	.	.	.	.
8AAA	8AAn	4r	4r	4r	.	.	.	.	.	.	.	.	8An	8An	.	.	2a-	.	.	2ddd
8BBB-	8BB-	.	.	.	.	.	.	.	.	.	.	.	8B-	8B-	.	.	.	.	.	.
8CC	8C	4a-'	4dd'	4ff'	.	.	.	.	.	.	.	.	8c	8c	.	.	.	.	.	.
8BBB-	8BB-	.	.	.	.	.	.	.	.	.	.	.	8B-	8B-	.	.	.	.	.	.
=67	=67	=67	=67	=67	=67	=67	=67	=67	=67	=67	=67	=67	=67	=67	=67	=67	=67	=67	=67	=67
4EE-	4E-	4r	4r	4r	1ryy	1ryy	1ryy	1ryy	1ryy	1ryy	1ryy	1ryy	4E-	4E-	1r	1r	2g	1gg	1ryy	[1eee-
4r	4r	4g'	4ee-'	4gg'	.	.	.	.	.	.	.	.	4r	4r	.	.	.	.	.	.
8BBB	8BBn	4r	4r	4r	.	.	.	.	.	.	.	.	8Bn	8Bn	.	.	2r	.	.	.
8CC	8C	.	.	.	.	.	.	.	.	.	.	.	8c	8c	.	.	.	.	.	.
8DD	8D	4cc'	4ee-'	4gg'	.	.	.	.	.	.	.	.	8d	8d	.	.	.	.	.	.
8CC	8C	.	.	.	.	.	.	.	.	.	.	.	8c	8c	.	.	.	.	.	.
=68	=68	=68	=68	=68	=68	=68	=68	=68	=68	=68	=68	=68	=68	=68	=68	=68	=68	=68	=68	=68
4AAA-	4AA-	4r	4r	4r	1ryy	1ryy	1ryy	1ryy	1ryy	1ryy	1ryy	1ryy	4A-	4A-	1r	1r	2cc	1ff	1ryy	2eee-]
4r	4r	4cc'	4ee-'	4ff'	.	.	.	.	.	.	.	.	4r	4r	.	.	.	.	.	.
8AAA	8AAn	4r	4r	4r	.	.	.	.	.	.	.	.	8An	8An	.	.	2a-	.	.	2ddd
8BBB-	8BB-	.	.	.	.	.	.	.	.	.	.	.	8B-	8B-	.	.	.	.	.	.
8CC	8C	4a-'	4dd'	4ff'	.	.	.	.	.	.	.	.	8c	8c	.	.	.	.	.	.
8BBB-	8BB-	.	.	.	.	.	.	.	.	.	.	.	8B-	8B-	.	.	.	.	.	.
=69	=69	=69	=69	=69	=69	=69	=69	=69	=69	=69	=69	=69	=69	=69	=69	=69	=69	=69	=69	=69
4EE-'	4E-'	4g'	4ee-	4gg	1ryy	1ryy	1ryy	1ryy	1ryy	1ryy	1ryy	1ryy	4E-'	4E-'	1r	1r	4g	4gg	1ryy	4eee-
4EE-'	4E-'	4e-'	4r	4r	.	.	.	.	.	.	.	.	4E-'	4E-'	.	.	4ryy	4r	.	4r
8EE-	8E-	8e-	2r	2r	.	.	.	.	.	.	.	.	8E-	8E-	.	.	2ryy	2r	.	2r
8DD	8D	8d	.	.	.	.	.	.	.	.	.	.	8D	8D	.	.	.	.	.	.
8EE-	8E-	8e-	.	.	.	.	.	.	.	.	.	.	8E-	8E-	.	.	.	.	.	.
8FF	8F	8f	.	.	.	.	.	.	.	.	.	.	8F	8F	.	.	.	.	.	.
=70	=70	=70	=70	=70	=70	=70	=70	=70	=70	=70	=70	=70	=70	=70	=70	=70	=70	=70	=70	=70
*staff:1	*staff:1	*staff:2	*staff:3	*staff:4	*	*	*	*	*	*	*	*	*staff:11	*staff:11	*staff:12	*staff:12	*staff:13	*staff:13	*	*staff:14
2GGz	2Gz	2gz	2ggz	2ggz	4b	4b	8D	2GGz	2g	2ggz	2G	2gz	2Gz	2Gz	2ggz	2ggz	2g	2ggz	2ggz	2ggz
.	.	.	.	.	.	.	8D	.	.	.	.	.	.	.	.	.	.	.	.	.
.	.	.	.	.	4r	4r	8D	.	.	.	.	.	.	.	.	.	.	.	.	.
.	.	.	.	.	.	.	8D	.	.	.	.	.	.	.	.	.	.	.	.	.
8FF#	8F#	8f#	8ff#	8ff#	2r	2r	8D	2r	2ryy	2r	2ryy	2r	8F#	8F#	2r	2r	2ryy	2r	8ff#	8ff#
8GG	8G	8g	8gg	8gg	.	.	8D	.	.	.	.	.	8G	8G	.	.	.	.	8gg	8gg
8AA-	8A-	8a-	8aa-	8aa-	.	.	8D	.	.	.	.	.	8A-	8A-	.	.	.	.	8aa-	8aa-
8GG	8G	8g	8gg	8gg	.	.	8D	.	.	.	.	.	8G	8G	.	.	.	.	8gg	8gg
=71	=71	=71	=71	=71	=71	=71	=71	=71	=71	=71	=71	=71	=71	=71	=71	=71	=71	=71	=71	=71
4.DDz	4.Dz	4.dz	4.ddz	4.ddz	4b	4b	8D	2GGz	2g	2ggz	2G	2gz	4.Dz	4.Dz	2ggz	2ggz	2g	2ggz	4.ddz	4.ddz
.	.	.	.	.	.	.	8D	.	.	.	.	.	.	.	.	.	.	.	.	.
.	.	.	.	.	4r	4r	8D	.	.	.	.	.	.	.	.	.	.	.	.	.
8FF'	8Fn'	8fn'	8ffn'	8ffn'	.	.	8D	.	.	.	.	.	8Fn'	8Fn'	.	.	.	.	8ffn'	8ffn'
8EE-	8E-	8e-	8ee-	8ee-	2r	2r	8D	2r	2ryy	2r	2ryy	2r	8E-	8E-	2r	2r	2ryy	2r	8ee-	8ee-
8DD	8D	8d	8dd	8dd	.	.	8D	.	.	.	.	.	8D	8D	.	.	.	.	8dd	8dd
8EE-	8E-	8e-	8ee-	8ee-	.	.	8D	.	.	.	.	.	8E-	8E-	.	.	.	.	8ee-	8ee-
8CC	8C	8c	8cc	8cc	.	.	8D	.	.	.	.	.	8C	8C	.	.	.	.	8cc	8cc
=72	=72	=72	=72	=72	=72	=72	=72	=72	=72	=72	=72	=72	=72	=72	=72	=72	=72	=72	=72	=72
4.BBBz	4.BBnz	4.Bnz	4.bnz	4.bnz	4b	4b	1D	2GGz	2g	2ggz	2G	2gz	4.BBnz	4.BBnz	2ggz	2ggz	2g	2ggz	4.bnz	4.bnz
.	.	.	.	.	4r	4r	.	.	.	.	.	.	.	.	.	.	.	.	.	.
8DD'	8D'	8d'	8dd'	8dd'	.	.	.	.	.	.	.	.	8d'	8d'	.	.	.	.	8dd'	8dd'
8CC	8C	8c	8cc	8cc	2r	2r	.	2r	2ryy	2r	2ryy	2r	8c	8c	2r	2r	2ryy	2r	8cc	8cc
8BBB	8BB	8B	8b	8b	.	.	.	.	.	.	.	.	8B	8B	.	.	.	.	8b	8b
8CC	8C	8c	8cc	8cc	.	.	.	.	.	.	.	.	8c	8c	.	.	.	.	8cc	8cc
8FFF#	8FF#	8F#	8f#	8f#	.	.	.	.	.	.	.	.	8F#	8F#	.	.	.	.	8f#	8f#
=73	=73	=73	=73	=73	=73	=73	=73	=73	=73	=73	=73	=73	=73	=73	=73	=73	=73	=73	=73	=73
4.GGG	4.GG	4.G	2gz	2gz	4b	4b	1D	2GGz	2g	2ggz	2G	2gz	2Gz	2Gz	2ggz	2ggz	2g	2ggz	2gz	2gz
.	.	.	.	.	4r	4r	.	.	.	.	.	.	.	.	.	.	.	.	.	.
8AAA-'	8AA-'	8A-'	.	.	.	.	.	.	.	.	.	.	.	.	.	.	.	.	.	.
8GGG	8GG	8G	2r	2r	2r	2r	.	2r	2ryy	2r	2ryy	2r	2r	2r	2r	2r	2ryy	2r	2r	2r
8AAA-	8AA-	8A-	.	.	.	.	.	.	.	.	.	.	.	.	.	.	.	.	.	.
8GGG	8GG	8G	.	.	.	.	.	.	.	.	.	.	.	.	.	.	.	.	.	.
8FFF	8FFn	8Fn	.	.	.	.	.	.	.	.	.	.	.	.	.	.	.	.	.	.
=74	=74	=74	=74	=74	=74	=74	=74	=74	=74	=74	=74	=74	=74	=74	=74	=74	=74	=74	=74	=74
1EEE-	1EE-	4E-	1g	1cc	4b`	2b	8D	1r	1r	1r	1C	[1c	4r	4r	2cc	2cc	[1cc	1r	2ccc	2ccc
.	.	.	.	.	.	.	8D	.	.	.	.	.	.	.	.	.	.	.	.	.
.	.	4r	.	.	4b	.	8D	.	.	.	.	.	4c	4c	.	.	.	.	.	.
.	.	.	.	.	.	.	8D	.	.	.	.	.	.	.	.	.	.	.	.	.
.	.	2r	.	.	4b	2b	8D	.	.	.	.	.	4G	4G	8bn	8bn	.	.	8bbn	8bbn
.	.	.	.	.	.	.	8D	.	.	.	.	.	.	.	8cc	8cc	.	.	8ccc	8ccc
.	.	.	.	.	4b	.	8D	.	.	.	.	.	4E-	4E-	8dd	8dd	.	.	8ddd	8ddd
.	.	.	.	.	.	.	8D	.	.	.	.	.	.	.	8cc	8cc	.	.	8ccc	8ccc
=75	=75	=75	=75	=75	=75	=75	=75	=75	=75	=75	=75	=75	=75	=75	=75	=75	=75	=75	=75	=75
1FFF	1FF	2c	1a-	1dd	4b`	2b	8D	1r	1r	1r	1C	1c_	4r	4r	4cc	4cc	2cc]	1dd	[1ccc	[1ccc
.	.	.	.	.	.	.	8D	.	.	.	.	.	.	.	.	.	.	.	.	.
.	.	.	.	.	4b	.	8D	.	.	.	.	.	4c	4c	4r	4r	.	.	.	.
.	.	.	.	.	.	.	8D	.	.	.	.	.	.	.	.	.	.	.	.	.
.	.	8Bn	.	.	4b	2b	8D	.	.	.	.	.	4A-	4A-	2r	2r	8b	.	.	.
.	.	8c	.	.	.	.	8D	.	.	.	.	.	.	.	.	.	8cc	.	.	.
.	.	8d	.	.	4b	.	8D	.	.	.	.	.	4Fn	4Fn	.	.	8dd	.	.	.
.	.	8c	.	.	.	.	8D	.	.	.	.	.	.	.	.	.	8cc	.	.	.
=76	=76	=76	=76	=76	=76	=76	=76	=76	=76	=76	=76	=76	=76	=76	=76	=76	=76	=76	=76	=76
1GGG	1GG	4c	1b-	1een	4b`	2b	8D	1r	1r	1r	1C	1c_	4r	4r	2cc	2cc	[1cc	1een	2ccc]	2ccc]
.	.	.	.	.	.	.	8D	.	.	.	.	.	.	.	.	.	.	.	.	.
.	.	4r	.	.	4b	.	8D	.	.	.	.	.	4c	4c	.	.	.	.	.	.
.	.	.	.	.	.	.	8D	.	.	.	.	.	.	.	.	.	.	.	.	.
.	.	2r	.	.	4b	2b	8D	.	.	.	.	.	4G	4G	8b	8b	.	.	8bb	8bb
.	.	.	.	.	.	.	8D	.	.	.	.	.	.	.	8cc	8cc	.	.	8ccc	8ccc
.	.	.	.	.	4b	.	8D	.	.	.	.	.	4En	4En	8dd	8dd	.	.	8ddd	8ddd
.	.	.	.	.	.	.	8D	.	.	.	.	.	.	.	8cc	8cc	.	.	8ccc	8ccc
=77	=77	=77	=77	=77	=77	=77	=77	=77	=77	=77	=77	=77	=77	=77	=77	=77	=77	=77	=77	=77
1AAA-	1AA-	2c	1cc	1ff	4b`	2b	8D	1r	1r	1r	1C	1c_	4r	4r	4cc	4cc	2cc]	1ff	1ccc	1ccc
.	.	.	.	.	.	.	8D	.	.	.	.	.	.	.	.	.	.	.	.	.
.	.	.	.	.	4b	.	8D	.	.	.	.	.	4c	4c	4r	4r	.	.	.	.
.	.	.	.	.	.	.	8D	.	.	.	.	.	.	.	.	.	.	.	.	.
.	.	8B	.	.	4b	2b	8D	.	.	.	.	.	4A-	4A-	2r	2r	8b	.	.	.
.	.	8c	.	.	.	.	8D	.	.	.	.	.	.	.	.	.	8cc	.	.	.
.	.	8d	.	.	4b	.	8D	.	.	.	.	.	4F	4F	.	.	8dd	.	.	.
.	.	8c	.	.	.	.	8D	.	.	.	.	.	.	.	.	.	8cc	.	.	.
=78	=78	=78	=78	=78	=78	=78	=78	=78	=78	=78	=78	=78	=78	=78	=78	=78	=78	=78	=78	=78
1AAA	1AAn	4c	[1ee-	1ff#	4b`	2b	8D	8C	1c	1cc	1C	1c]	4r	4r	2cc	2cc	1ff#	1cc	2ccc	2ccc
.	.	.	.	.	.	.	8D	8C	.	.	.	.	.	.	.	.	.	.	.	.
.	.	4r	.	.	4b	.	8D	8C	.	.	.	.	4c	4c	.	.	.	.	.	.
.	.	.	.	.	.	.	8D	8C	.	.	.	.	.	.	.	.	.	.	.	.
.	.	2r	.	.	4b	2b	8D	8C	.	.	.	.	4An	4An	8b	8b	.	.	8bb	8bb
.	.	.	.	.	.	.	8D	8C	.	.	.	.	.	.	8cc	8cc	.	.	8ccc	8ccc
.	.	.	.	.	4b	.	8D	8C	.	.	.	.	4F#	4F#	8dd	8dd	.	.	8ddd	8ddd
.	.	.	.	.	.	.	8D	8C	.	.	.	.	.	.	8cc	8cc	.	.	8ccc	8ccc
=79	=79	=79	=79	=79	=79	=79	=79	=79	=79	=79	=79	=79	=79	=79	=79	=79	=79	=79	=79	=79
4GGG	4GG	4G	4ee-]	4gg	4b	4b	4D	4GG	2g	2g	4GG	4G	4G	4G	4cc	4cc	4gg	4ee-	4eee-	4eee-
4r	4r	4r	4r	4r	4r	4r	4r	4r	.	.	4ryy	4r	4r	4r	4r	4r	4ryy	4r	4r	4r
4GGG	4GG	4G	4dd	4bn	2r	2r	2r	2r	2ryy	2r	4GG	4G	4GG	4GG	4b	4b	4b	4dd	4bbn	4bbn
4r	4r	4r	4r	4r	.	.	.	.	.	.	4ryy	4r	4r	4r	4r	4r	4ryy	4r	4r	4r
=80	=80	=80	=80	=80	=80	=80	=80	=80	=80	=80	=80	=80	=80	=80	=80	=80	=80	=80	=80	=80
4CC	4C	4G	4cc	4cc	1r	1r	1r	1r	1r	1r	4C	4c	4C	4C	4cc	4cc	4cc	4cc	4ccc	4ccc
4GG	4G	4g	4r	4r	.	.	.	.	.	.	4ryy	4r	4G'	4G'	4r	4r	4ryy	4r	4r	4r
4EE-	4E-	4e-	2r	2r	.	.	.	.	.	.	2ryy	2r	4E-'	4E-'	2r	2r	2ryy	2r	2r	2r
4CC	4C	4c	.	.	.	.	.	.	.	.	.	.	4C'	4C'	.	.	.	.	.	.
=81	=81	=81	=81	=81	=81	=81	=81	=81	=81	=81	=81	=81	=81	=81	=81	=81	=81	=81	=81	=81
2GGz	2Gz	2gz	2ggz	2ggz	4b	4b	8D	2GGz	2g	2ggz	2G	2gz	2Gz	2Gz	2ggz	2ggz	2g	2ggz	2ggz	2ggz
.	.	.	.	.	.	.	8D	.	.	.	.	.	.	.	.	.	.	.	.	.
.	.	.	.	.	4r	4r	8D	.	.	.	.	.	.	.	.	.	.	.	.	.
.	.	.	.	.	.	.	8D	.	.	.	.	.	.	.	.	.	.	.	.	.
8FF#	8F#	8f#	8ff#	8ff#	2r	2r	8D	2r	2ryy	2r	2ryy	2r	8F#	8F#	2r	2r	2ryy	2r	2r	2r
8GG	8G	8g	8gg	8gg	.	.	8D	.	.	.	.	.	8G	8G	.	.	.	.	.	.
8AA-	8A-	8a-	8aa-	8aa-	.	.	8D	.	.	.	.	.	8A-	8A-	.	.	.	.	.	.
8GG	8G	8g	8gg	8gg	.	.	8D	.	.	.	.	.	8G	8G	.	.	.	.	.	.
=82	=82	=82	=82	=82	=82	=82	=82	=82	=82	=82	=82	=82	=82	=82	=82	=82	=82	=82	=82	=82
4.DDz	4.Dz	4.dz	4.ddz	4.ddz	4b	4b	8D	2GGz	2g	2ggz	2G	2gz	4.Dz	4.Dz	2ggz	2ggz	2g	2ggz	2ggz	2ggz
.	.	.	.	.	.	.	8D	.	.	.	.	.	.	.	.	.	.	.	.	.
.	.	.	.	.	4r	4r	8D	.	.	.	.	.	.	.	.	.	.	.	.	.
8FF'	8Fn'	8fn'	8ffn'	8ffn'	.	.	8D	.	.	.	.	.	8Fn'	8Fn'	.	.	.	.	.	.
8EE-	8E-	8e-	8ee-	8ee-	2r	2r	8D	2r	2ryy	2r	2ryy	2r	8E-	8E-	2r	2r	2ryy	2r	2r	2r
8DD	8D	8d	8dd	8dd	.	.	8D	.	.	.	.	.	8D	8D	.	.	.	.	.	.
8EE-	8E-	8e-	8ee-	8ee-	.	.	8D	.	.	.	.	.	8E-	8E-	.	.	.	.	.	.
8CC	8C	8c	8cc	8cc	.	.	8D	.	.	.	.	.	8C	8C	.	.	.	.	.	.
=83	=83	=83	=83	=83	=83	=83	=83	=83	=83	=83	=83	=83	=83	=83	=83	=83	=83	=83	=83	=83
4.BBBz	4.BBnz	4.Bnz	4.bnz	4.bnz	4b	4b	8D	2GGz	2g	2ggz	2G	2gz	4.BBnz	4.BBnz	2ggz	2ggz	2g	2ggz	2ggz	2ggz
.	.	.	.	.	.	.	8D	.	.	.	.	.	.	.	.	.	.	.	.	.
.	.	.	.	.	4r	4r	8D	.	.	.	.	.	.	.	.	.	.	.	.	.
8DD'	8D'	8d'	8dd'	8dd'	.	.	8D	.	.	.	.	.	8D'	8D'	.	.	.	.	.	.
8CC	8C	8c	8cc	8cc	2r	2r	8D	2r	2ryy	2r	2ryy	2r	8C	8C	2r	2r	2ryy	2r	2r	2r
8BBB	8BB	8B	8b	8b	.	.	8D	.	.	.	.	.	8BB	8BB	.	.	.	.	.	.
8CC	8C	8c	8cc	8cc	.	.	8D	.	.	.	.	.	8C	8C	.	.	.	.	.	.
8FFF#	8FF#	8F#	8f#	8f#	.	.	8D	.	.	.	.	.	8FF#	8FF#	.	.	.	.	.	.
=84	=84	=84	=84	=84	=84	=84	=84	=84	=84	=84	=84	=84	=84	=84	=84	=84	=84	=84	=84	=84
4.GGGz	4.GGz	4.Gz	2gz	2gz	4b	4b	8D	2GGz	2g	2ggz	2G	2gz	4GGz	4GGz	2ggz	2ggz	2g	2ggz	2ggz	2ggz
.	.	.	.	.	.	.	8D	.	.	.	.	.	.	.	.	.	.	.	.	.
.	.	.	.	.	4r	4r	8D	.	.	.	.	.	4r	4r	.	.	.	.	.	.
8AAA-'	8AA-'	8A-'	.	.	.	.	8D	.	.	.	.	.	.	.	.	.	.	.	.	.
8GGG	8GG	8G	2r	2r	2r	2r	8D	2r	2ryy	2r	2ryy	2r	2r	2r	2r	2r	2ryy	2r	2r	2r
8AAA-	8AA-	8A-	.	.	.	.	8D	.	.	.	.	.	.	.	.	.	.	.	.	.
8GGG	8GG	8G	.	.	.	.	8D	.	.	.	.	.	.	.	.	.	.	.	.	.
8FFF	8FFn	8Fn	.	.	.	.	8D	.	.	.	.	.	.	.	.	.	.	.	.	.
=85	=85	=85	=85	=85	=85	=85	=85	=85	=85	=85	=85	=85	=85	=85	=85	=85	=85	=85	=85	=85
1EEE-	1EE-	4E-	1g	1cc	4b`	2b	8D	1r	1r	1r	1C	[1c	4r	4r	2cc	2cc	[1cc	1r	2ccc	2ccc
.	.	.	.	.	.	.	8D	.	.	.	.	.	.	.	.	.	.	.	.	.
.	.	4r	.	.	4b	.	8D	.	.	.	.	.	4c	4c	.	.	.	.	.	.
.	.	.	.	.	.	.	8D	.	.	.	.	.	.	.	.	.	.	.	.	.
.	.	2r	.	.	4b	2b	8D	.	.	.	.	.	4G	4G	8b	8b	.	.	8bb	8bb
.	.	.	.	.	.	.	8D	.	.	.	.	.	.	.	8cc	8cc	.	.	8ccc	8ccc
.	.	.	.	.	4b	.	8D	.	.	.	.	.	4E-	4E-	8dd	8dd	.	.	8ddd	8ddd
.	.	.	.	.	.	.	8D	.	.	.	.	.	.	.	8cc	8cc	.	.	8ccc	8ccc
=86	=86	=86	=86	=86	=86	=86	=86	=86	=86	=86	=86	=86	=86	=86	=86	=86	=86	=86	=86	=86
1FFF	1FF	2c	1a-	1dd	4b`	2b	8D	1r	1r	1r	1C	1c_	4r	4r	4cc	4cc	2cc]	1dd	[1ccc	[1ccc
.	.	.	.	.	.	.	8D	.	.	.	.	.	.	.	.	.	.	.	.	.
.	.	.	.	.	4b	.	8D	.	.	.	.	.	4c	4c	4r	4r	.	.	.	.
.	.	.	.	.	.	.	8D	.	.	.	.	.	.	.	.	.	.	.	.	.
.	.	8B	.	.	4b	2b	8D	.	.	.	.	.	4A-	4A-	2r	2r	8b	.	.	.
.	.	8c	.	.	.	.	8D	.	.	.	.	.	.	.	.	.	8cc	.	.	.
.	.	8d	.	.	4b	.	8D	.	.	.	.	.	4Fn	4Fn	.	.	8dd	.	.	.
.	.	8c	.	.	.	.	8D	.	.	.	.	.	.	.	.	.	8cc	.	.	.
=87	=87	=87	=87	=87	=87	=87	=87	=87	=87	=87	=87	=87	=87	=87	=87	=87	=87	=87	=87	=87
1GGG	1GG	4c	1b-	1een	4b`	2b	8D	1r	1r	1r	1C	1c_	4r	4r	2cc	2cc	[1cc	1eent	2ccc]	2ccc]
.	.	.	.	.	.	.	8D	.	.	.	.	.	.	.	.	.	.	.	.	.
.	.	4r	.	.	4b	.	8D	.	.	.	.	.	4B-	4B-	.	.	.	.	.	.
.	.	.	.	.	.	.	8D	.	.	.	.	.	.	.	.	.	.	.	.	.
.	.	2r	.	.	4b	2b	8D	.	.	.	.	.	4G	4G	8b	8b	.	.	8bb	8bb
.	.	.	.	.	.	.	8D	.	.	.	.	.	.	.	8cc	8cc	.	.	8ccc	8ccc
.	.	.	.	.	4b	.	8D	.	.	.	.	.	4En	4En	8dd	8dd	.	.	8ddd	8ddd
.	.	.	.	.	.	.	8D	.	.	.	.	.	.	.	8cc	8cc	.	.	8ccc	8ccc
=88	=88	=88	=88	=88	=88	=88	=88	=88	=88	=88	=88	=88	=88	=88	=88	=88	=88	=88	=88	=88
1AAA-	1AA-	2c	1cc	1ff	4b`	2b	8D	1r	1r	1r	1C	1c_	4r	4r	4cc	4cc	2cc]	1ffT	1ccc	1ccc
.	.	.	.	.	.	.	8D	.	.	.	.	.	.	.	.	.	.	.	.	.
.	.	.	.	.	4b	.	8D	.	.	.	.	.	4c	4c	4r	4r	.	.	.	.
.	.	.	.	.	.	.	8D	.	.	.	.	.	.	.	.	.	.	.	.	.
.	.	8B	.	.	4b	2b	8D	.	.	.	.	.	4A-	4A-	2r	2r	8b	.	.	.
.	.	8c	.	.	.	.	8D	.	.	.	.	.	.	.	.	.	8cc	.	.	.
.	.	8d	.	.	4b	.	8D	.	.	.	.	.	4F	4F	.	.	8dd	.	.	.
.	.	8c	.	.	.	.	8D	.	.	.	.	.	.	.	.	.	8cc	.	.	.
=89	=89	=89	=89	=89	=89	=89	=89	=89	=89	=89	=89	=89	=89	=89	=89	=89	=89	=89	=89	=89
1AAA	1AAn	4c	[1ee-	2.ff#	4b`	2b	8D	8C	1c	1cc	1C	1c]	4r	4r	2cc	2cc	1ff#t	1cc	2ccc	2ccc
.	.	.	.	.	.	.	8D	8C	.	.	.	.	.	.	.	.	.	.	.	.
.	.	4r	.	.	4b	.	8D	8C	.	.	.	.	4c	4c	.	.	.	.	.	.
.	.	.	.	.	.	.	8D	8C	.	.	.	.	.	.	.	.	.	.	.	.
.	.	2r	.	.	4b	2b	8D	8C	.	.	.	.	4An	4An	8b	8b	.	.	8bb	8bb
.	.	.	.	.	.	.	8D	8C	.	.	.	.	.	.	8cc	8cc	.	.	8ccc	8ccc
.	.	.	.	8een	4b	.	8D	8C	.	.	.	.	4F#	4F#	8dd	8dd	.	.	8ddd	8ddd
.	.	.	.	8ff#	.	.	8D	8C	.	.	.	.	.	.	8cc	8cc	.	.	8ccc	8ccc
=90	=90	=90	=90	=90	=90	=90	=90	=90	=90	=90	=90	=90	=90	=90	=90	=90	=90	=90	=90	=90
*staff:10	*staff:11	*staff:12	*staff:13	*staff:14	*staff:15	*staff:16	*staff:17	*staff:18	*staff:19	*staff:19	*staff:20	*staff:20	*staff:21	*staff:21	*staff:22	*staff:22	*staff:23	*staff:23	*staff:24	*staff:24
4GGG	4GG	4G	4ee-]	4gg	4b`	2b	8D	4GG	2g	2g	4GG	4G	4G	4G	4cc	4cc	4gg	4ee-	4eee-	4eee-
.	.	.	.	.	.	.	8D	.	.	.	.	.	.	.	.	.	.	.	.	.
4r	4r	4r	4r	4r	4b	.	8D	4r	.	.	4ryy	4r	4r	4r	4r	4r	4ryy	4r	4r	4r
.	.	.	.	.	.	.	8D	.	.	.	.	.	.	.	.	.	.	.	.	.
4GGG	4GG	4G	4dd	4bn	4b	2b	8D	2r	2ryy	2r	4GG	4G	4G	4G	4b	4b	4b	4dd	4bbn	4bbn
.	.	.	.	.	.	.	8D	.	.	.	.	.	.	.	.	.	.	.	.	.
4r	4r	4r	4r	4r	4b	.	8D	.	.	.	4ryy	4r	4r	4r	4r	4r	4ryy	4r	4r	4r
.	.	.	.	.	.	.	8D	.	.	.	.	.	.	.	.	.	.	.	.	.
=91	=91	=91	=91	=91	=91	=91	=91	=91	=91	=91	=91	=91	=91	=91	=91	=91	=91	=91	=91	=91
4CC	4C	4c	4cc	4cc	4b	4b	4D	1r	1r	1r	4C	4c	4C	4C	4cc	4cc	4cc	4cc	4ccc	4ccc
4r	4r	4r	4r	4r	4r	4r	4r	.	.	.	4ryy	4r	4r	4r	4r	4r	4ryy	4r	4r	4r
2r	2r	2r	2r	2r	2r	2r	2r	.	.	.	2ryy	2r	2r	2r	2r	2r	2ryy	2r	2r	2r
=92	=92	=92	=92	=92	=92	=92	=92	=92	=92	=92	=92	=92	=92	=92	=92	=92	=92	=92	=92	=92
4CC	4C	4G	4G 4en 4cc	4G 4en 4cc	1r	1r	1r	1r	1r	1r	2E	2c	4C	4C	4c	4en	4en	2cc	1r	1r
4r	4r	4ryy	4r	4r	.	.	.	.	.	.	.	.	4r	4r	4ryy	4r	4r	.	.	.
.	.	.	.	.	.	.	.	.	.	.	.	.	.	.	.	.	.	8eenq	.	.
4GGG	4GG	4G	4G 4f 4b	4G 4fn 4dd	.	.	.	.	.	.	2G	2d	4GG	4GG	4B	4f	4g	8dd	.	.
.	.	.	.	.	.	.	.	.	.	.	.	.	.	.	.	.	.	8cc	.	.
4r	4r	4ryy	4r	4r	.	.	.	.	.	.	.	.	4r	4r	4ryy	4r	4r	8dd	.	.
.	.	.	.	.	.	.	.	.	.	.	.	.	.	.	.	.	.	8ee	.	.
=93	=93	=93	=93	=93	=93	=93	=93	=93	=93	=93	=93	=93	=93	=93	=93	=93	=93	=93	=93	=93
4CC	4C	4C 4G 4e	4G 4e 4cc	4G 4e 4cc	1r	1r	1r	1r	1r	1r	4c	4e	4CC	4CC	4c	4e	4e	4cc	1r	1r
4r	4r	4r	4c'	4e'	.	.	.	.	.	.	4ryy	4r	4r	4r	4c	4e	4ryy	4r	.	.
2r	2r	2r	4e'	4g'	.	.	.	.	.	.	2ryy	2r	2r	2r	4e	4g	2ryy	2r	.	.
.	.	.	4g'	4cc'	.	.	.	.	.	.	.	.	.	.	4g	4cc	.	.	.	.
=94	=94	=94	=94	=94	=94	=94	=94	=94	=94	=94	=94	=94	=94	=94	=94	=94	=94	=94	=94	=94
4CC	4C	4c	4cc	4ee	1r	1r	1r	1r	1r	1r	4c'y	4e'	4C	4C	4cc	4ee	4cc'y	4ee'	1r	1r
4r	4r	4ryy	4r	4r	.	.	.	.	.	.	4c'y	4e'	4r	4r	4ryy	4r	4cc'y	4ee'	.	.
.	.	.	.	.	.	.	.	.	.	.	8eeQ	8ggQ	.	.	.	.	8eeQ	8ggQ	.	.
4CC	4C	4d	4dd	4ff	.	.	.	.	.	.	4d	4f	2r	2r	2ryy	2r	4dd	4ff	.	.
4r	4r	4ryy	4r	4r	.	.	.	.	.	.	8c	8e	.	.	.	.	8cc	8ee	.	.
.	.	.	.	.	.	.	.	.	.	.	8d	8f	.	.	.	.	8dd	8ff	.	.
=95	=95	=95	=95	=95	=95	=95	=95	=95	=95	=95	=95	=95	=95	=95	=95	=95	=95	=95	=95	=95
4CC	4C	4e	4ee	4gg	1r	1r	1r	1r	1r	1r	2e	2g	4C	4C	4ryy	4r	2ee	2gg	1r	1r
4r	4r	4ryy	4g	4cc	.	.	.	.	.	.	.	.	4r	4r	4E'	4c'y	.	.	.	.
2r	2r	2ryy	4cc	4ee	.	.	.	.	.	.	4c'y	4e'	2r	2r	4c'	4e'y	4cc'y	4ee'	.	.
.	.	.	4ee	4gg	.	.	.	.	.	.	4ryy	4r	.	.	4e'	4g'y	4ryy	4r	.	.
=96	=96	=96	=96	=96	=96	=96	=96	=96	=96	=96	=96	=96	=96	=96	=96	=96	=96	=96	=96	=96
4CC	1f	4f	4ff	4f 4cc 4aa	1r	1r	1r	1r	1r	1r	1r	1r	4C	1f	4a'	4cc'y	4aa'y	4ccc'	1r	1r
4r	.	4ryy	4r	4r	.	.	.	.	.	.	.	.	4r	.	4a'	4cc'y	4aa'y	4ccc'	.	.
.	.	.	.	.	.	.	.	.	.	.	.	.	.	.	8bQ	8ddQ	8bbQ	8dddQ	.	.
2r	.	2ryy	4f 4cc 4aa	4f 4cc 4aa	.	.	.	.	.	.	.	.	2r	.	4a	4cc	4aa	4ccc	.	.
.	.	.	4r	4r	.	.	.	.	.	.	.	.	.	.	8g	8b	8gg	8bb	.	.
.	.	.	.	.	.	.	.	.	.	.	.	.	.	.	8f	8a	8ff	8aa	.	.
=97	=97	=97	=97	=97	=97	=97	=97	=97	=97	=97	=97	=97	=97	=97	=97	=97	=97	=97	=97	=97
4CC	4e	4e	4e 4cc 4gg	4e 4cc 4gg	1r	1r	1r	1r	1r	1r	2e	2g	4C	4e	4e'	4g'y	2ee	2gg	1r	1r
4r	4r	4ryy	4ee	4gg	.	.	.	.	.	.	.	.	4ryy	4r	4c	4e	.	.	.	.
2r	2r	2ryy	4dd	4ff	.	.	.	.	.	.	4d	4f	2ryy	2r	4d	4f	4dd	4ff	.	.
.	.	.	4cc	4ee	.	.	.	.	.	.	4c	4e	.	.	4e	4g	4cc	4ee	.	.
=98	=98	=98	=98	=98	=98	=98	=98	=98	=98	=98	=98	=98	=98	=98	=98	=98	=98	=98	=98	=98
4GGG	4GG	4d	4b	4dd	1r	1r	1r	1r	1r	1r	2G	2d	1GG	1G	4d'	4f'y	4b'y	4dd'	1r	1r
4r	4r	4ryy	4r	4r	.	.	.	.	.	.	.	.	.	.	4d'	4f'y	4b'y	4dd'	.	.
.	.	.	.	.	.	.	.	.	.	.	.	.	.	.	8dQ	8fQ	8ddQ	8ffQ	.	.
4GGG	4GG	4c	4cc	4ee	.	.	.	.	.	.	2c	2e	.	.	8c	8e	8cc	8ee	.	.
.	.	.	.	.	.	.	.	.	.	.	.	.	.	.	8B	8d	8b	8dd	.	.
4r	4r	4ryy	4r	4r	.	.	.	.	.	.	.	.	.	.	8c	8e	8cc	8ee	.	.
.	.	.	.	.	.	.	.	.	.	.	.	.	.	.	8d	8f	8dd	8ff	.	.
=99	=99	=99	=99	=99	=99	=99	=99	=99	=99	=99	=99	=99	=99	=99	=99	=99	=99	=99	=99	=99
4GGG	4GG	4B	4b	4dd	1r	1r	1r	1r	1r	1r	4G	4d	4GG	4GG	4B	4d	4b	4dd	1r	1r
4r	4r	4ryy	4r	4r	.	.	.	.	.	.	4G	4g	4ryy	4r	4ryy	4r	4ryy	4r	.	.
2r	2r	2ryy	2r	2r	.	.	.	.	.	.	4G	4g	2ryy	2r	2ryy	2r	2ryy	2r	.	.
.	.	.	.	.	.	.	.	.	.	.	4G	4g	.	.	.	.	.	.	.	.
=100	=100	=100	=100	=100	=100	=100	=100	=100	=100	=100	=100	=100	=100	=100	=100	=100	=100	=100	=100	=100
2GG	2G	[1G	2B	2d	1r	1r	1r	1r	1r	1r	1G	[1g	1r	1r	1ryy	2b	1r	1r	1ryy	2dd
.	.	.	8dq	8fq	.	.	.	.	.	.	.	.	.	.	.	8ddq	.	.	.	8ffq
2CC	2C	.	8c	8e	.	.	.	.	.	.	.	.	.	.	.	8cc	.	.	.	8ee
.	.	.	8B	8d	.	.	.	.	.	.	.	.	.	.	.	8b	.	.	.	8dd
.	.	.	8c	8e	.	.	.	.	.	.	.	.	.	.	.	8cc	.	.	.	8ee
.	.	.	8d	8f	.	.	.	.	.	.	.	.	.	.	.	8dd	.	.	.	8ff
=101	=101	=101	=101	=101	=101	=101	=101	=101	=101	=101	=101	=101	=101	=101	=101	=101	=101	=101	=101	=101
*staff:1	*staff:1	*staff:2	*staff:3	*staff:4	*	*	*	*	*	*	*staff:5	*staff:5	*staff:6	*staff:6	*	*staff:7	*staff:8	*staff:8	*	*staff:9
4GGG	4GG	2.G]	2.B	2.d	1ryy	1ryy	1ryy	1ryy	1ryy	1ryy	4G	4g]	1r	1r	1ryy	2.b	1r	1r	1ryy	2.dd
4GG	4G	.	.	.	.	.	.	.	.	.	4ryy	4r	.	.	.	.	.	.	.	.
4FF	4F	.	.	.	.	.	.	.	.	.	2ryy	2r	.	.	.	.	.	.	.	.
4EE	4E	4G	4c#	4e	.	.	.	.	.	.	.	.	.	.	.	4cc#	.	.	.	4ee
=102	=102	=102	=102	=102	=102	=102	=102	=102	=102	=102	=102	=102	=102	=102	=102	=102	=102	=102	=102	=102
2DD	2D	2A	4d'	4f'	1ryy	1ryy	1ryy	1ryy	1ryy	1ryy	1r	1r	1r	1r	1ryy	4dd'	1r	1r	1ryy	4ff'
.	.	.	4d'	4f'	.	.	.	.	.	.	.	.	.	.	.	4dd'	.	.	.	4ff'
.	.	.	8eq	8gq	.	.	.	.	.	.	.	.	.	.	.	8eeq	.	.	.	8ggq
2GGG	2GG	2B	8d	8f	.	.	.	.	.	.	.	.	.	.	.	8dd	.	.	.	8ff
.	.	.	8cn	8e	.	.	.	.	.	.	.	.	.	.	.	8ccn	.	.	.	8ee
.	.	.	8d	8f	.	.	.	.	.	.	.	.	.	.	.	8dd	.	.	.	8ff
.	.	.	8e	8g	.	.	.	.	.	.	.	.	.	.	.	8ee	.	.	.	8gg
=103	=103	=103	=103	=103	=103	=103	=103	=103	=103	=103	=103	=103	=103	=103	=103	=103	=103	=103	=103	=103
2.CC	2.C	[1G	2d	2f	1ryy	1ryy	1ryy	1ryy	1ryy	1ryy	1r	1r	1r	1r	1ryy	2dd	1r	1r	1ryy	2ff
.	.	.	4c	4e	.	.	.	.	.	.	.	.	.	.	.	4cc	.	.	.	4ee
4BBB	4BB	.	4d'	4g'	.	.	.	.	.	.	.	.	.	.	.	4dd'	.	.	.	4gg'
=104	=104	=104	=104	=104	=104	=104	=104	=104	=104	=104	=104	=104	=104	=104	=104	=104	=104	=104	=104	=104
2AAA	2AA	2G]	2e	4cc'	1ryy	1ryy	1ryy	1ryy	1ryy	1ryy	1r	1r	1r	1r	1ryy	2ee	1r	1r	1ryy	4ccc'
.	.	.	.	4cc'	.	.	.	.	.	.	.	.	.	.	.	.	.	.	.	4ccc'
.	.	.	.	8ddq	.	.	.	.	.	.	.	.	.	.	.	.	.	.	.	8dddq
2DD	2D	4F#	2f#	8cc	.	.	.	.	.	.	.	.	.	.	.	2ff#	.	.	.	8ccc
.	.	.	.	8b	.	.	.	.	.	.	.	.	.	.	.	.	.	.	.	8bb
.	.	4A	.	8cc	.	.	.	.	.	.	.	.	.	.	.	.	.	.	.	8ccc
.	.	.	.	8dd	.	.	.	.	.	.	.	.	.	.	.	.	.	.	.	8ddd
=105	=105	=105	=105	=105	=105	=105	=105	=105	=105	=105	=105	=105	=105	=105	=105	=105	=105	=105	=105	=105
2.GGG	2.GG	1G	2.g	4cc	1ryy	1ryy	1ryy	1ryy	1ryy	1ryy	1r	1r	1r	1r	1ryy	2.gg	1r	1r	1ryy	4ccc
.	.	.	.	4b	.	.	.	.	.	.	.	.	.	.	.	.	.	.	.	4bb
.	.	.	.	4a	.	.	.	.	.	.	.	.	.	.	.	.	.	.	.	4aa
4EE	4E	.	4c#	4g	.	.	.	.	.	.	.	.	.	.	.	4cc#	.	.	.	4gg
=106	=106	=106	=106	=106	=106	=106	=106	=106	=106	=106	=106	=106	=106	=106	=106	=106	=106	=106	=106	=106
2DD	2D	2B	4d	2g	1ryy	1ryy	1ryy	1ryy	1ryy	1ryy	1r	1r	1r	1r	1ryy	4dd	1r	1r	1ryy	2gg
.	.	.	4B	.	.	.	.	.	.	.	.	.	.	.	.	4b	.	.	.	.
.	.	.	.	8bq	.	.	.	.	.	.	.	.	.	.	.	.	.	.	.	8bbq
2DDD	2DD	2F#	8cn	8a	.	.	.	.	.	.	.	.	.	.	.	8ccn	.	.	.	8aa
.	.	.	8B	8g	.	.	.	.	.	.	.	.	.	.	.	8b	.	.	.	8gg
.	.	.	8c	8a	.	.	.	.	.	.	.	.	.	.	.	8cc	.	.	.	8aa
.	.	.	8A	8f#	.	.	.	.	.	.	.	.	.	.	.	8a	.	.	.	8ff#
=107	=107	=107	=107	=107	=107	=107	=107	=107	=107	=107	=107	=107	=107	=107	=107	=107	=107	=107	=107	=107
4GGG	4GG	4G	4B	4g	1ryy	1ryy	1ryy	1ryy	1ryy	1ryy	1r	1r	1r	1r	1ryy	4g	1r	[1gg	1ryy	4gg
4r	4r	4r	4r	4r	.	.	.	.	.	.	.	.	.	.	.	4r	.	.	.	4r
2r	2r	2r	2r	2r	.	.	.	.	.	.	.	.	.	.	.	2r	.	.	.	2r
=108	=108	=108	=108	=108	=108	=108	=108	=108	=108	=108	=108	=108	=108	=108	=108	=108	=108	=108	=108	=108
*	*	*	*	*	*	*	*	*	*	*	*	*	*	*	*	*	*	*	*staff:9	*
4GGG	4GG	4G	4B 4d	4B 4d	1ryy	1ryy	1ryy	1ryy	1ryy	1ryy	1r	1r	2G	2G	1ryy	2b	2dd	1gg_	1r	1r
4r	4r	4r	4r	4r	.	.	.	.	.	.	.	.	.	.	.	.	.	.	.	.
.	.	.	.	.	.	.	.	.	.	.	.	.	.	.	.	8ddq	8ffnq	.	.	.
4GGG	4GG	4G	4c 4e	4c 4e	.	.	.	.	.	.	.	.	2C	2C	.	8cc	8ee	.	.	.
.	.	.	.	.	.	.	.	.	.	.	.	.	.	.	.	8b	8dd	.	.	.
4r	4r	4r	4r	4r	.	.	.	.	.	.	.	.	.	.	.	8cc	8ee	.	.	.
.	.	.	.	.	.	.	.	.	.	.	.	.	.	.	.	8dd	8ff	.	.	.
=109	=109	=109	=109	=109	=109	=109	=109	=109	=109	=109	=109	=109	=109	=109	=109	=109	=109	=109	=109	=109
4GGG	4GG	4G	4B 4d	4B 4d	1ryy	1ryy	1ryy	1ryy	1ryy	1ryy	1r	1r	4G	4G	1ryy	2.b	2.dd	1gg_	1r	1r
4r	4r	4r	4r	4r	.	.	.	.	.	.	.	.	4r	4g	.	.	.	.	.	.
2r	2r	2r	4r	4r	.	.	.	.	.	.	.	.	2r	4f	.	.	.	.	.	.
.	.	.	4c 4e	4c 4e	.	.	.	.	.	.	.	.	.	4e	.	4cc	4ee	.	.	.
=110	=110	=110	=110	=110	=110	=110	=110	=110	=110	=110	=110	=110	=110	=110	=110	=110	=110	=110	=110	=110
4GGG	4GG	4G	4d 4f	4d 4f	1ryy	1ryy	1ryy	1ryy	1ryy	1ryy	1r	1r	4GG	4d	1ryy	4dd'	4ff'	1gg_	1r	1r
4r	4r	4r	4d 4f	4d 4f	.	.	.	.	.	.	.	.	4r	4B	.	4dd'	4ff'	.	.	.
.	.	.	.	.	.	.	.	.	.	.	.	.	.	.	.	8ddQ	8ffQ	.	.	.
4GGG	4GG	4G	4c 4e	4c 4e	.	.	.	.	.	.	.	.	4GG	4c	.	4cc	4ee	.	.	.
4r	4r	4r	4c 4e	4c 4e	.	.	.	.	.	.	.	.	4r	4e	.	8b	8dd	.	.	.
.	.	.	.	.	.	.	.	.	.	.	.	.	.	.	.	8cc	8ee	.	.	.
=111	=111	=111	=111	=111	=111	=111	=111	=111	=111	=111	=111	=111	=111	=111	=111	=111	=111	=111	=111	=111
4GGG	4GG	4G	4B 4d	4B 4d	1ryy	1ryy	1ryy	1ryy	1ryy	1ryy	1r	1r	4GG	4g	1ryy	4b	4dd	2gg_	1r	1r
4r	4r	4r	4r	4r	.	.	.	.	.	.	.	.	4ryy	4r	.	4r	4r	.	.	.
2r	2r	2r	2r	2r	.	.	.	.	.	.	.	.	2ryy	2r	.	2r	2r	8gg]	.	.
.	.	.	.	.	.	.	.	.	.	.	.	.	.	.	.	.	.	8ee	.	.
.	.	.	.	.	.	.	.	.	.	.	.	.	.	.	.	.	.	8ff	.	.
.	.	.	.	.	.	.	.	.	.	.	.	.	.	.	.	.	.	8dd	.	.
=112	=112	=112	=112	=112	=112	=112	=112	=112	=112	=112	=112	=112	=112	=112	=112	=112	=112	=112	=112	=112
*staff:6	*staff:7	*staff:8	*staff:9	*staff:10	*staff:11	*staff:12	*staff:13	*staff:14	*staff:15	*staff:15	*staff:16	*staff:16	*staff:17	*staff:17	*staff:18	*staff:18	*staff:19	*staff:19	*staff:20	*staff:20
4CC	4C	2c	8c	8e	4b`	2b	8D	2C	2e	2cc	2E	2c	2c	2c	1r	1r	2cc	2cc	2ccc	2ccc
.	.	.	8G	8G	.	.	8D	.	.	.	.	.	.	.	.	.	.	.	.	.
4r	4r	.	8c	8e	4b	.	8D	.	.	.	.	.	.	.	.	.	.	.	.	.
.	.	.	8G	8G	.	.	8D	.	.	.	.	.	.	.	.	.	.	.	.	.
.	.	8eq	.	.	.	.	.	.	.	.	.	8eeq	.	.	.	.	.	8eeq	8eeeq	8eeeq
4GGG	4GG	8d	8d	8f	4b	2b	8D	2GG	2g	2dd	2G	8d	2B	2B	.	.	2b	8dd	8ddd	8ddd
.	.	8c	8G	8G	.	.	8D	.	.	.	.	8c	.	.	.	.	.	8cc	8ccc	8ccc
4r	4r	8d	8d	8f	4b	.	8D	.	.	.	.	8d	.	.	.	.	.	8dd	8ddd	8ddd
.	.	8e	8G	8G	.	.	8D	.	.	.	.	8e	.	.	.	.	.	8ee	8eee	8eee
=113	=113	=113	=113	=113	=113	=113	=113	=113	=113	=113	=113	=113	=113	=113	=113	=113	=113	=113	=113	=113
4CC	4C	4c	8c	8e	4b`	2b	8D	2C	1cc	1ee	4E	4c	4c	4c	4ryy	4r	4cc	4cc	4ccc	4ccc
.	.	.	8G	8G	.	.	8D	.	.	.	.	.	.	.	.	.	.	.	.	.
4r	4r	4r	8c	8e	4b	.	8D	.	.	.	4ryy	4r	4C	4E	4c	4e	4ryy	4r	4r	4r
.	.	.	8G	8G	.	.	8D	.	.	.	.	.	.	.	.	.	.	.	.	.
2r	2r	2r	8c	8e	4b	2b	8D	2r	.	.	2ryy	2r	4E	4G	4e	4g	2ryy	2r	2r	2r
.	.	.	8G	8G	.	.	8D	.	.	.	.	.	.	.	.	.	.	.	.	.
.	.	.	8c	8e	4b	.	8D	.	.	.	.	.	4G	4c	4g	4cc	.	.	.	.
.	.	.	8G	8G	.	.	8D	.	.	.	.	.	.	.	.	.	.	.	.	.
=114	=114	=114	=114	=114	=114	=114	=114	=114	=114	=114	=114	=114	=114	=114	=114	=114	=114	=114	=114	=114
4CC	4C	1r	8c	8e	4b`	2b	8D	2C	2cc	2ee	2c	2e	4c	4e	4cc	4ee	4cc'y	4ee'	4eee'	4eee'
.	.	.	8G	8G	.	.	8D	.	.	.	.	.	.	.	.	.	.	.	.	.
4r	4r	.	8c	8e	4b	.	8D	.	.	.	.	.	4c	4e	4ryy	4r	4cc'y	4ee'	4eee'	4eee'
.	.	.	8G	8G	.	.	8D	.	.	.	.	.	.	.	.	.	.	.	.	.
.	.	.	.	.	.	.	.	.	.	.	8eeQ	8ggQ	8eQ	8gQ	.	.	8eeQ	8ggQ	8gggQ	8gggQ
2r	2r	.	8e	8g	4b	2b	8D	2C	2dd	2ff	4d	4f	4d	4f	2ryy	2r	4dd	4ff	4fff	4fff
.	.	.	8d	8f	.	.	8D	.	.	.	.	.	.	.	.	.	.	.	.	.
.	.	.	8c	8e	4b	.	8D	.	.	.	8c	8e	8c	8e	.	.	8cc	8ee	8eee	8eee
.	.	.	8d	8f	.	.	8D	.	.	.	8d	8f	8d	8f	.	.	8dd	8ff	8fff	8fff
=115	=115	=115	=115	=115	=115	=115	=115	=115	=115	=115	=115	=115	=115	=115	=115	=115	=115	=115	=115	=115
4CC	4C	4ryy	8e	8g	4b`	2b	8D	2C	2ee	2gg	2e	2g	2e	2g	4ryy	4r	2ee	2gg	2ggg	2ggg
.	.	.	8G	8G	.	.	8D	.	.	.	.	.	.	.	.	.	.	.	.	.
4r	4r	4E	8e	8g	4b	.	8D	.	.	.	.	.	.	.	4e	4cc	.	.	.	.
.	.	.	8G	8G	.	.	8D	.	.	.	.	.	.	.	.	.	.	.	.	.
2r	2r	4c	8e	8e	4b	2b	8D	2r	4cc'y	4ee'	4c'y	4e'	4c'y	4e'	4cc	4ee	4cc'y	4ee'	4eee'	4eee'
.	.	.	8G	8G	.	.	8D	.	.	.	.	.	.	.	.	.	.	.	.	.
.	.	4e	8e	8e	4b	.	8D	.	4ryy	4r	4ryy	4r	4c	4c	4ee	4gg	4ryy	4r	4r	4r
.	.	.	8G	8G	.	.	8D	.	.	.	.	.	.	.	.	.	.	.	.	.
=116	=116	=116	=116	=116	=116	=116	=116	=116	=116	=116	=116	=116	=116	=116	=116	=116	=116	=116	=116	=116
4CC	1f	4f	8a	8cc	4b`	2b	8D	2C	1r	1r	1r	1r	1f	1f	4ff	4aa	4aa'y	4ccc'	4ccc'	4ccc'
.	.	.	8c	8c	.	.	8D	.	.	.	.	.	.	.	.	.	.	.	.	.
4r	.	4ryy	8a	8cc	4b	.	8D	.	.	.	.	.	.	.	4ryy	4r	4aa'y	4ccc'	4ccc'	4ccc'
.	.	.	8c	8c	.	.	8D	.	.	.	.	.	.	.	.	.	.	.	.	.
.	.	.	.	.	.	.	.	.	.	.	.	.	.	.	.	.	8bbQ	8dddQ	8dddQ	8dddQ
2r	.	2ryy	8a'	8cc'	4b	2b	8D	2r	.	.	.	.	.	.	2ryy	2r	4aa	4ccc	4ccc	4ccc
.	.	.	8a	8cc	.	.	8D	.	.	.	.	.	.	.	.	.	.	.	.	.
.	.	.	8g	8b	4b	.	8D	.	.	.	.	.	.	.	.	.	8gg	8bb	8bb	8bb
.	.	.	8f	8a	.	.	8D	.	.	.	.	.	.	.	.	.	8ff	8aa	8aa	8aa
=117	=117	=117	=117	=117	=117	=117	=117	=117	=117	=117	=117	=117	=117	=117	=117	=117	=117	=117	=117	=117
4CC	4e	1r	8e	8g	4b`	2b	8D	2C	2ee	2gg	2e	2g	4e	4e	4ryy	4r	2ee	2gg	4gg'	4gg'
.	.	.	8G	8G	.	.	8D	.	.	.	.	.	.	.	.	.	.	.	.	.
4r	4r	.	8e	8g	4b	.	8D	.	.	.	.	.	4E	4c	4e	4cc	.	.	4ggg	4ggg
.	.	.	8G	8G	.	.	8D	.	.	.	.	.	.	.	.	.	.	.	.	.
2r	2r	.	8d	8f	4b	2b	8D	2r	4dd	4ff	4d	4f	4F	4d	4f	4dd	4dd	4ff	4fff	4fff
.	.	.	8G	8G	.	.	8D	.	.	.	.	.	.	.	.	.	.	.	.	.
.	.	.	8c	8e	4b	.	8D	.	4cc	4ee	4c	4e	4G	4e	4g	4ee	4cc	4ee	4eee	4eee
.	.	.	8G	8G	.	.	8D	.	.	.	.	.	.	.	.	.	.	.	.	.
=118	=118	=118	=118	=118	=118	=118	=118	=118	=118	=118	=118	=118	=118	=118	=118	=118	=118	=118	=118	=118
1GGG	1GG	1G	8d	8f	4b`	2b	8D	4GG	1g	1dd	1G	1d	4F	4d	4d'	4ff'y	4b'y	4dd'	4ddd'	4ddd'
.	.	.	8G	8G	.	.	8D	.	.	.	.	.	.	.	.	.	.	.	.	.
.	.	.	8d	8f	4b	.	8D	8GG	.	.	.	.	4ryy	4r	4dd'y	4ff'	4b'y	4dd'	4ddd'	4ddd'
.	.	.	8G	8G	.	.	8D	8GG	.	.	.	.	.	.	.	.	.	.	.	.
.	.	.	.	.	.	.	.	.	.	.	.	.	.	.	8ccQ	8eeQ	8ccQ	8eeQ	8eeeq	8eeeq
.	.	.	8d	8f	4b	2b	8D	4GG	.	.	.	.	2ryy	2r	8b	8dd	8b	8dd	8ddd	8ddd
.	.	.	8c	8e	.	.	8D	.	.	.	.	.	.	.	8a	8cc	8a	8cc	8ccc	8ccc
.	.	.	8d	8f	4b	.	8D	4GG	.	.	.	.	.	.	8b	8dd	8b	8dd	8ddd	8ddd
.	.	.	8e	8g	.	.	8D	.	.	.	.	.	.	.	8g	8ee	8g	8ee	8eee	8eee
=119	=119	=119	=119	=119	=119	=119	=119	=119	=119	=119	=119	=119	=119	=119	=119	=119	=119	=119	=119	=119
4CC	4C	4c	4c	4e	4b	4b	4D	4C	4e	4cc	4E	4c	8C	1ryy	4cc	4cc	4cc	4cc	4ccc	4ccc
.	.	.	.	.	.	.	.	.	.	.	.	.	8c	.	.	.	.	.	.	.
4r	4r	4r	4r	4r	4r	4r	4r	4r	4ryy	4r	4ryy	4r	8C	.	4ryy	4r	4ryy	4r	4r	4r
.	.	.	.	.	.	.	.	.	.	.	.	.	8c	.	.	.	.	.	.	.
2r	2r	2r	2r	2r	2r	2r	2r	2r	2ryy	2r	2ryy	2r	8C	.	2ryy	2r	2ryy	2r	2r	2r
.	.	.	.	.	.	.	.	.	.	.	.	.	8c	.	.	.	.	.	.	.
.	.	.	.	.	.	.	.	.	.	.	.	.	8C	.	.	.	.	.	.	.
.	.	.	.	.	.	.	.	.	.	.	.	.	8c	.	.	.	.	.	.	.
=120	=120	=120	=120	=120	=120	=120	=120	=120	=120	=120	=120	=120	=120	=120	=120	=120	=120	=120	=120	=120
*	*	*	*	*	*	*	*	*	*	*	*staff:1	*staff:1	*staff:2	*	*staff:3	*staff:3	*	*staff:4	*	*staff:5
1ryy	1ryy	1ryy	1ryy	1ryy	1ryy	1ryy	1ryy	1ryy	1ryy	1ryy	1r	1r	8C	1ryy	1r	1r	1ryy	2a	1ryy	4ff'
.	.	.	.	.	.	.	.	.	.	.	.	.	8c	.	.	.	.	.	.	.
.	.	.	.	.	.	.	.	.	.	.	.	.	8C	.	.	.	.	.	.	4ff'
.	.	.	.	.	.	.	.	.	.	.	.	.	8c	.	.	.	.	.	.	.
.	.	.	.	.	.	.	.	.	.	.	.	.	.	.	.	.	.	.	.	8ggQ
.	.	.	.	.	.	.	.	.	.	.	.	.	8C	.	.	.	.	2b	.	4ff
.	.	.	.	.	.	.	.	.	.	.	.	.	8c	.	.	.	.	.	.	.
.	.	.	.	.	.	.	.	.	.	.	.	.	8C	.	.	.	.	.	.	8ee
.	.	.	.	.	.	.	.	.	.	.	.	.	8c	.	.	.	.	.	.	8dd
=121	=121	=121	=121	=121	=121	=121	=121	=121	=121	=121	=121	=121	=121	=121	=121	=121	=121	=121	=121	=121
1ryy	1ryy	1ryy	1ryy	1ryy	1ryy	1ryy	1ryy	1ryy	1ryy	1ryy	1r	1r	8C	1ryy	4ryy	4r	1ryy	4cc	1ryy	4ee
.	.	.	.	.	.	.	.	.	.	.	.	.	8c	.	.	.	.	.	.	.
.	.	.	.	.	.	.	.	.	.	.	.	.	8C	.	4c	4e	.	4r	.	4r
.	.	.	.	.	.	.	.	.	.	.	.	.	8c	.	.	.	.	.	.	.
.	.	.	.	.	.	.	.	.	.	.	.	.	8C	.	4e	4g	.	2r	.	2r
.	.	.	.	.	.	.	.	.	.	.	.	.	8c	.	.	.	.	.	.	.
.	.	.	.	.	.	.	.	.	.	.	.	.	8C	.	4g	4cc	.	.	.	.
.	.	.	.	.	.	.	.	.	.	.	.	.	8c	.	.	.	.	.	.	.
=122	=122	=122	=122	=122	=122	=122	=122	=122	=122	=122	=122	=122	=122	=122	=122	=122	=122	=122	=122	=122
1ryy	1ryy	1ryy	1ryy	1ryy	1ryy	1ryy	1ryy	1ryy	1ryy	1ryy	1r	1r	8AA	1ryy	4cc	4ee	1ryy	2ee	1ryy	4ccc'
.	.	.	.	.	.	.	.	.	.	.	.	.	8A	.	.	.	.	.	.	.
.	.	.	.	.	.	.	.	.	.	.	.	.	8AA	.	4ryy	4r	.	.	.	4ccc'
.	.	.	.	.	.	.	.	.	.	.	.	.	8A	.	.	.	.	.	.	.
.	.	.	.	.	.	.	.	.	.	.	.	.	.	.	.	.	.	.	.	8dddQ
.	.	.	.	.	.	.	.	.	.	.	.	.	8D	.	4a	4ff#	.	2ff#	.	4ccc
.	.	.	.	.	.	.	.	.	.	.	.	.	8d	.	.	.	.	.	.	.
.	.	.	.	.	.	.	.	.	.	.	.	.	8D	.	4ryy	4r	.	.	.	8bb
.	.	.	.	.	.	.	.	.	.	.	.	.	8d	.	.	.	.	.	.	8aa
=123	=123	=123	=123	=123	=123	=123	=123	=123	=123	=123	=123	=123	=123	=123	=123	=123	=123	=123	=123	=123
*	*	*	*	*	*	*	*	*	*	*	*	*	*	*	*	*	*staff:4	*	*	*
1ryy	1ryy	1ryy	1ryy	1ryy	1ryy	1ryy	1ryy	1ryy	1ryy	1ryy	1r	1r	8GG	1ryy	4b	4gg	2.b	2.gg	1ryy	2.gg
.	.	.	.	.	.	.	.	.	.	.	.	.	8G	.	.	.	.	.	.	.
.	.	.	.	.	.	.	.	.	.	.	.	.	8GG	.	4ryy	4r	.	.	.	.
.	.	.	.	.	.	.	.	.	.	.	.	.	8G	.	.	.	.	.	.	.
.	.	.	.	.	.	.	.	.	.	.	.	.	8GG	.	2ryy	2r	.	.	.	.
.	.	.	.	.	.	.	.	.	.	.	.	.	8G	.	.	.	.	.	.	.
.	.	.	.	.	.	.	.	.	.	.	.	.	8GG	.	.	.	8a	8ccc	.	8aa
.	.	.	.	.	.	.	.	.	.	.	.	.	8G	.	.	.	8cc	8aa	.	8ff#
=124	=124	=124	=124	=124	=124	=124	=124	=124	=124	=124	=124	=124	=124	=124	=124	=124	=124	=124	=124	=124
1ryy	1ryy	1ryy	1ryy	1ryy	1ryy	1ryy	1ryy	1ryy	1ryy	1ryy	1r	1r	8GG	1ryy	1r	1r	4b'y	4gg'	1ryy	4gg'
.	.	.	.	.	.	.	.	.	.	.	.	.	8G	.	.	.	.	.	.	.
.	.	.	.	.	.	.	.	.	.	.	.	.	8GG	.	.	.	8a	8ccc	.	8aa
.	.	.	.	.	.	.	.	.	.	.	.	.	8G	.	.	.	8cc	8aa	.	8ff#
.	.	.	.	.	.	.	.	.	.	.	.	.	8GG	.	.	.	4b'y	4gg'	.	4gg'
.	.	.	.	.	.	.	.	.	.	.	.	.	8G	.	.	.	.	.	.	.
.	.	.	.	.	.	.	.	.	.	.	.	.	8GG	.	.	.	8a	8ccc	.	8aa
.	.	.	.	.	.	.	.	.	.	.	.	.	8G	.	.	.	8cc	8aa	.	8ff#
=125	=125	=125	=125	=125	=125	=125	=125	=125	=125	=125	=125	=125	=125	=125	=125	=125	=125	=125	=125	=125
1ryy	1ryy	1ryy	1ryy	1ryy	1ryy	1ryy	1ryy	1ryy	1ryy	1ryy	1r	1r	4GG	1ryy	4ryy	4r	4b'y	4gg'	1ryy	4gg'
.	.	.	.	.	.	.	.	.	.	.	.	.	4r	.	4B	4g	4ryy	4r	.	4r
.	.	.	.	.	.	.	.	.	.	.	.	.	2r	.	4g	4b	2ryy	4r	.	4r
.	.	.	.	.	.	.	.	.	.	.	.	.	.	.	4ryy	4r	.	4b	.	4gg
=126	=126	=126	=126	=126	=126	=126	=126	=126	=126	=126	=126	=126	=126	=126	=126	=126	=126	=126	=126	=126
*	*	*	*	*	*	*	*	*	*	*	*	*	*	*staff:2	*	*	*	*	*	*
1ryy	1ryy	1ryy	1ryy	1ryy	1ryy	1ryy	1ryy	1ryy	1ryy	1ryy	1r	1r	1r	1r	4ryy	4r	1ryy	4dd`	1ryy	4bb`
.	.	.	.	.	.	.	.	.	.	.	.	.	.	.	4g	4b	.	4r	.	4r
.	.	.	.	.	.	.	.	.	.	.	.	.	.	.	4b	4dd	.	4r	.	4r
.	.	.	.	.	.	.	.	.	.	.	.	.	.	.	4ryy	4r	.	4gg	.	4bb
=127	=127	=127	=127	=127	=127	=127	=127	=127	=127	=127	=127	=127	=127	=127	=127	=127	=127	=127	=127	=127
1ryy	1ryy	1ryy	1ryy	1ryy	1ryy	1ryy	1ryy	1ryy	1ryy	1ryy	1r	1r	1r	1r	4ryy	4r	1ryy	4bb'	1ryy	4ddd'
.	.	.	.	.	.	.	.	.	.	.	.	.	.	.	4b	4dd	.	4r	.	4r
.	.	.	.	.	.	.	.	.	.	.	.	.	.	.	4dd	4ffn	.	4r	.	4r
.	.	.	.	.	.	.	.	.	.	.	.	.	.	.	4ryy	4r	.	4bb	.	4ddd
=128	=128	=128	=128	=128	=128	=128	=128	=128	=128	=128	=128	=128	=128	=128	=128	=128	=128	=128	=128	=128
1ryy	1ryy	1ryy	1ryy	1ryy	1ryy	1ryy	1ryy	1ryy	1ryy	1ryy	4ryy	4r	1r	1r	1r	1r	1ryy	4ddd'	1ryy	4fffn'
.	.	.	.	.	.	.	.	.	.	.	4GG	4G	.	.	.	.	.	4r	.	4r
.	.	.	.	.	.	.	.	.	.	.	4GG	4G	.	.	.	.	.	4r	.	4r
.	.	.	.	.	.	.	.	.	.	.	4ryy	4r	.	.	.	.	.	4ccc	.	4eee
=129	=129	=129	=129	=129	=129	=129	=129	=129	=129	=129	=129	=129	=129	=129	=129	=129	=129	=129	=129	=129
*staff:1	*staff:1	*staff:2	*staff:3	*staff:4	*staff:5	*staff:6	*staff:7	*staff:8	*staff:9	*staff:9	*staff:10	*staff:10	*staff:11	*staff:11	*staff:12	*staff:12	*	*staff:13	*	*staff:14
1r	1r	1r	1r	1r	1r	1r	1r	1r	1r	1r	4ryy	4r	1r	1r	1r	1r	1ryy	4bb'	1ryy	4ddd'
.	.	.	.	.	.	.	.	.	.	.	4GG	4G	.	.	.	.	.	4r	.	4r
.	.	.	.	.	.	.	.	.	.	.	4GG	4G	.	.	.	.	.	4r	.	4r
.	.	.	.	.	.	.	.	.	.	.	4ryy	4r	.	.	.	.	.	4aa	.	4ccc
=130	=130	=130	=130	=130	=130	=130	=130	=130	=130	=130	=130	=130	=130	=130	=130	=130	=130	=130	=130	=130
1r	1r	1r	1r	1r	1r	1r	1r	1r	1r	1r	4ryy	4r	1r	1r	1r	1r	1ryy	4gg'	1ryy	4bb'
.	.	.	.	.	.	.	.	.	.	.	4GG	4G	.	.	.	.	.	4r	.	4r
.	.	.	.	.	.	.	.	.	.	.	4GG	4G	.	.	.	.	.	4r	.	4r
.	.	.	.	.	.	.	.	.	.	.	4ryy	4r	.	.	.	.	.	4ff	.	4aa
=131	=131	=131	=131	=131	=131	=131	=131	=131	=131	=131	=131	=131	=131	=131	=131	=131	=131	=131	=131	=131
1r	1r	1r	1r	1r	1r	1r	1r	1r	1r	1r	1r	1r	1r	1r	1r	1r	1ryy	2ee	1ryy	2gg
.	.	.	.	.	.	.	.	.	.	.	.	.	.	.	.	.	.	2ee-	.	2ff#
=132	=132	=132	=132	=132	=132	=132	=132	=132	=132	=132	=132	=132	=132	=132	=132	=132	=132	=132	=132	=132
1r	1r	1r	1r	1r	1r	1r	1r	1r	1r	1r	1r	1r	2r	2r	1r	1r	1ryy	[1dd	1ryy	[1ffn
.	.	.	.	.	.	.	.	.	.	.	.	.	4r	4r	.	.	.	.	.	.
.	.	.	.	.	.	.	.	.	.	.	.	.	4G	4G	.	.	.	.	.	.
=133	=133	=133	=133	=133	=133	=133	=133	=133	=133	=133	=133	=133	=133	=133	=133	=133	=133	=133	=133	=133
1r	1r	1r	1r	1r	1r	1r	1r	1r	1r	1r	1r	1r	4A-	4A-	1r	1r	1ryy	1dd]	1ryy	2ff]
.	.	.	.	.	.	.	.	.	.	.	.	.	4An	4An	.	.	.	.	.	.
.	.	.	.	.	.	.	.	.	.	.	.	.	.	.	.	.	.	.	.	8ggQ
.	.	.	.	.	.	.	.	.	.	.	.	.	4B-	4B-	.	.	.	.	.	4ff
.	.	.	.	.	.	.	.	.	.	.	.	.	4Bn	4Bn	.	.	.	.	.	8ee
.	.	.	.	.	.	.	.	.	.	.	.	.	.	.	.	.	.	.	.	8dd
=134	=134	=134	=134	=134	=134	=134	=134	=134	=134	=134	=134	=134	=134	=134	=134	=134	=134	=134	=134	=134
*	*	*	*	*	*	*	*	*	*	*	*	*	*	*	*	*	*staff:13	*	*staff:14	*
4CC	4C	2cc	8c	8e	4b`	2b	8D	2C	2e	2cc	2E	2c	2c	2c	2e	2cc	2cc	2cc	4cc	4cc
.	.	.	8G	8G	.	.	8D	.	.	.	.	.	.	.	.	.	.	.	.	.
4r	4r	.	8c	8e	4b	.	8D	.	.	.	.	.	.	.	.	.	.	.	4ccc	4ccc
.	.	.	8G	8G	.	.	8D	.	.	.	.	.	.	.	.	.	.	.	.	.
.	.	8eeq	.	.	.	.	.	.	.	.	.	8eeq	.	.	.	8eeq	.	8eeq	8eeeq	8eeeq
4GGG	4GG	8dd	8d	8f	4b	2b	8D	2GG	2g	2dd	2G	8d	2B	2B	2B	8dd	2b	8dd	8ddd	8ddd
.	.	8cc	8G	8G	.	.	8D	.	.	.	.	8c	.	.	.	8cc	.	8cc	8ccc	8ccc
4r	4r	8dd	8d	8f	4b	.	8D	.	.	.	.	8d	.	.	.	8dd	.	8dd	8ddd	8ddd
.	.	8ee	8G	8G	.	.	8D	.	.	.	.	8e	.	.	.	8ee	.	8ee	8eee	8eee
=135	=135	=135	=135	=135	=135	=135	=135	=135	=135	=135	=135	=135	=135	=135	=135	=135	=135	=135	=135	=135
4CC	4C	4cc	8c	8e	4b`	2b	8D	2C	1cc	1ee	4E	4c	4c	4c	4r	4cc	4cc	4cc	4ccc	4ccc
.	.	.	8G	8G	.	.	8D	.	.	.	.	.	.	.	.	.	.	.	.	.
4r	4r	4r	8c	8e	4b	.	8D	.	.	.	4ryy	4r	4C	4E	4c	4e	4ryy	4r	4r	4r
.	.	.	8G	8G	.	.	8D	.	.	.	.	.	.	.	.	.	.	.	.	.
2r	2r	2r	8c	8e	4b	2b	8D	2r	.	.	2ryy	2r	4E	4G	4e	4g	2ryy	2r	2r	2r
.	.	.	8G	8G	.	.	8D	.	.	.	.	.	.	.	.	.	.	.	.	.
.	.	.	8c	8e	4b	.	8D	.	.	.	.	.	4G	4c	4g	4cc	.	.	.	.
.	.	.	8G	8G	.	.	8D	.	.	.	.	.	.	.	.	.	.	.	.	.
=136	=136	=136	=136	=136	=136	=136	=136	=136	=136	=136	=136	=136	=136	=136	=136	=136	=136	=136	=136	=136
4CC	4C	1r	8c	8e	4b`	2b	8D	2C	2cc	2ee	2c	2e	4c	4e	4cc	4ee	4cc	4ee	4eee	4eee
.	.	.	8G	8G	.	.	8D	.	.	.	.	.	.	.	.	.	.	.	.	.
4r	4r	.	8c	8e	4b	.	8D	.	.	.	.	.	4c	4e	4ryy	4r	4cc	4ee	4eee	4eee
.	.	.	8G	8G	.	.	8D	.	.	.	.	.	.	.	.	.	.	.	.	.
.	.	.	.	.	.	.	.	.	.	.	8eeQ	8ggQ	8eQ	8gQ	.	.	8eeQ	8ggQ	8gggQ	8gggQ
2r	2r	.	8e	8g	4b	2b	8D	2C	2dd	2ff	4d	4f	4d	4f	2ryy	2r	4dd	4ff	4fff	4fff
.	.	.	8d	8f	.	.	8D	.	.	.	.	.	.	.	.	.	.	.	.	.
.	.	.	8c	8e	4b	.	8D	.	.	.	8c	8e	8c	8e	.	.	8cc	8ee	8eee	8eee
.	.	.	8d	8f	.	.	8D	.	.	.	8d	8f	8d	8f	.	.	8dd	8ff	8fff	8fff
=137	=137	=137	=137	=137	=137	=137	=137	=137	=137	=137	=137	=137	=137	=137	=137	=137	=137	=137	=137	=137
4CC	4C	4ryy	8e	8g	4b`	2b	8D	2C	2ee	2gg	2e	2g	2e	2g	4ryy	4r	2ee	2gg	2ggg	2ggg
.	.	.	8G	8G	.	.	8D	.	.	.	.	.	.	.	.	.	.	.	.	.
4r	4r	4E	8e	8g	4b	.	8D	.	.	.	.	.	.	.	4e	4cc	.	.	.	.
.	.	.	8G	8G	.	.	8D	.	.	.	.	.	.	.	.	.	.	.	.	.
2r	2r	4c	8e	8e	4b	2b	8D	2r	4cc'y	4ee'	4c'y	4e'	4c	4e	4cc	4ee	4cc'y	4ee'	4eee'	4eee'
.	.	.	8G	8G	.	.	8D	.	.	.	.	.	.	.	.	.	.	.	.	.
.	.	4e	8e	8e	4b	.	8D	.	4ryy	4r	4ryy	4r	4c	4c	4ee	4gg	4ryy	4r	4r	4r
.	.	.	8G	8G	.	.	8D	.	.	.	.	.	.	.	.	.	.	.	.	.
=138	=138	=138	=138	=138	=138	=138	=138	=138	=138	=138	=138	=138	=138	=138	=138	=138	=138	=138	=138	=138
*	*staff:2	*staff:3	*staff:4	*staff:5	*staff:6	*staff:7	*staff:8	*staff:9	*staff:10	*staff:10	*staff:11	*staff:11	*staff:12	*staff:12	*staff:13	*staff:13	*staff:14	*staff:14	*staff:15	*staff:15
4CC	1f	4f	8a	8cc	4b`	2b	8D	2C	1r	1r	1r	1r	1f	1f	4ff	4aa	4aa	4ccc	4ccc	4ccc
.	.	.	8c	8c	.	.	8D	.	.	.	.	.	.	.	.	.	.	.	.	.
4r	.	4ryy	8a	8cc	4b	.	8D	.	.	.	.	.	.	.	4ryy	4r	4aa	4ccc	4ccc	4ccc
.	.	.	8c	8c	.	.	8D	.	.	.	.	.	.	.	.	.	.	.	.	.
.	.	.	.	.	.	.	.	.	.	.	.	.	.	.	.	.	8bbQ	8dddQ	8dddQ	8dddQ
2r	.	2ryy	8a'	8cc'	4b	2b	8D	2r	.	.	.	.	.	.	2ryy	2r	4aa	4ccc	4ccc	4ccc
.	.	.	8a	8cc	.	.	8D	.	.	.	.	.	.	.	.	.	.	.	.	.
.	.	.	8g	8b	4b	.	8D	.	.	.	.	.	.	.	.	.	8gg	8bb	8bb	8bb
.	.	.	8f	8a	.	.	8D	.	.	.	.	.	.	.	.	.	8ff	8aa	8aa	8aa
=139	=139	=139	=139	=139	=139	=139	=139	=139	=139	=139	=139	=139	=139	=139	=139	=139	=139	=139	=139	=139
4CC	4e	1r	8e	8g	4b`	2b	8D	2C	2ee	2gg	2e	2g	4e	4e	4ryy	4r	2ee	2gg	4gg	4gg
.	.	.	8G	8G	.	.	8D	.	.	.	.	.	.	.	.	.	.	.	.	.
4r	4r	.	8e	8g	4b	.	8D	.	.	.	.	.	4E	4c	4e	4cc	.	.	4ggg	4ggg
.	.	.	8G	8G	.	.	8D	.	.	.	.	.	.	.	.	.	.	.	.	.
2r	2r	.	8d	8f	4b	2b	8D	2r	4dd'y	4ff'	4d'y	4f'	4F	4d	4f	4dd	4dd'y	4ff'	4fff	4fff
.	.	.	8G	8G	.	.	8D	.	.	.	.	.	.	.	.	.	.	.	.	.
.	.	.	8c	8e	4b	.	8D	.	4cc'y	4ee'	4c'y	4e'	4G	4e	4g	4ee	4cc'y	4ee'	4eee	4eee
.	.	.	8G	8G	.	.	8D	.	.	.	.	.	.	.	.	.	.	.	.	.
=140	=140	=140	=140	=140	=140	=140	=140	=140	=140	=140	=140	=140	=140	=140	=140	=140	=140	=140	=140	=140
1GGG	1GG	1G	8d	8f	4b`	2b	8D	4GG	2g	1dd	1G	1d	4F	4d	4d	4ff	4b	4dd	4ddd	4ddd
.	.	.	8G	8G	.	.	8D	.	.	.	.	.	.	.	.	.	.	.	.	.
.	.	.	8d	8f	4b	.	8D	8GG	.	.	.	.	4ryy	4r	4dd	4ff	4b	4dd	4ddd	4ddd
.	.	.	8G	8G	.	.	8D	8GG	.	.	.	.	.	.	.	.	.	.	.	.
.	.	.	.	.	.	.	.	.	.	.	.	.	.	.	8ccQ	8eeQ	8ccQ	8eeQ	8eeeq	8eeeq
.	.	.	8d	8f	4b	2b	8D	4GG	2g	.	.	.	2ryy	2r	8b	8dd	8b	8dd	8ddd	8ddd
.	.	.	8c	8e	.	.	8D	.	.	.	.	.	.	.	8a	8cc	8a	8cc	8ccc	8ccc
.	.	.	8d	8f	4b	.	8D	4GG	.	.	.	.	.	.	8b	8dd	8b	8dd	8ddd	8ddd
.	.	.	8e	8g	.	.	8D	.	.	.	.	.	.	.	8g	8ee	8g	8ee	8eee	8eee
=141	=141	=141	=141	=141	=141	=141	=141	=141	=141	=141	=141	=141	=141	=141	=141	=141	=141	=141	=141	=141
4CC	4C	[1C	8c	8e	4b`	2b	8D	4C	4e	4cc	1C	[1c	4C	4C	4cc	4cc	4cc	4cc	4ccc	4ccc
.	.	.	8G	8c	.	.	8D	.	.	.	.	.	.	.	.	.	.	.	.	.
4r	4r	.	8c	8e	4b	.	8D	4r	4ryy	4r	.	.	4E'y	4c'	4e'	4r	4cc'	4r	4r	4r
.	.	.	8G	8c	.	.	8D	.	.	.	.	.	.	.	.	.	.	.	.	.
2r	2r	.	8c	8e	4b	2b	8D	2r	2ryy	2r	.	.	4c'y	4e'	4g'	2r	4ee'	2r	2r	2r
.	.	.	8G	8c	.	.	8D	.	.	.	.	.	.	.	.	.	.	.	.	.
.	.	.	8c	8e	4b	.	8D	.	.	.	.	.	4e'y	4g'	4e'	.	4gg'	.	.	.
.	.	.	8G	8c	.	.	8D	.	.	.	.	.	.	.	.	.	.	.	.	.
=142	=142	=142	=142	=142	=142	=142	=142	=142	=142	=142	=142	=142	=142	=142	=142	=142	=142	=142	=142	=142
4CC	4C	1C]	8e	8g	4b`	2b	8D	4C	1r	1r	1C	1c_	4c	4e	4c	4gg'	4ee	1ee	4bb-'	4bb-'
.	.	.	8c	8e	.	.	8D	.	.	.	.	.	.	.	.	.	.	.	.	.
4r	4r	.	8e	8g	4b	.	8D	4r	.	.	.	.	4ryy	4r	4r	4gg'	4r	.	4bb-'	4bb-'
.	.	.	8c	8e	.	.	8D	.	.	.	.	.	.	.	.	.	.	.	.	.
.	.	.	.	.	.	.	.	.	.	.	.	.	.	.	.	8aaq	.	.	8cccq	8cccq
2r	2r	.	8e	8g	4b	2b	8D	2r	.	.	.	.	2ryy	2r	2r	8gg	2r	.	8bb-	8bb-
.	.	.	8c	8e	.	.	8D	.	.	.	.	.	.	.	.	8ff	.	.	8aa	8aa
.	.	.	8e	8g	4b	.	8D	.	.	.	.	.	.	.	.	8gg	.	.	8bb-	8bb-
.	.	.	8c	8e	.	.	8D	.	.	.	.	.	.	.	.	8aa	.	.	8ccc	8ccc
=143	=143	=143	=143	=143	=143	=143	=143	=143	=143	=143	=143	=143	=143	=143	=143	=143	=143	=143	=143	=143
4CC	4C	1C	8f	8a	4b`	2b	8D	4C	1r	1r	1C	1c_	4ryy	4r	4r	4ff	4r	4ff	4aa	4aa
.	.	.	8c	8f	.	.	8D	.	.	.	.	.	.	.	.	.	.	.	.	.
4r	4r	.	8f	8a	4b	.	8D	4r	.	.	.	.	4A'	4A'	4c'	4r	4cc'	4r	4r	4r
.	.	.	8c	8f	.	.	8D	.	.	.	.	.	.	.	.	.	.	.	.	.
2r	2r	.	8f	8a	4b	2b	8D	2r	.	.	.	.	4c'	4c'	4f'	2r	4ff'	2r	2r	2r
.	.	.	8c	8f	.	.	8D	.	.	.	.	.	.	.	.	.	.	.	.	.
.	.	.	8f	8a	4b	.	8D	.	.	.	.	.	4f'	4f'	4a'	.	4aa'	.	.	.
.	.	.	8c	8f	.	.	8D	.	.	.	.	.	.	.	.	.	.	.	.	.
=144	=144	=144	=144	=144	=144	=144	=144	=144	=144	=144	=144	=144	=144	=144	=144	=144	=144	=144	=144	=144
4CC	4C	[1C	8d	8f	4b`	2b	8D	4C	1r	1r	1C	1c_	4B	4Bn	4f	1bn	4ddn'	1b'y	4ff'	4ff'
.	.	.	8B	8d	.	.	8D	.	.	.	.	.	.	.	.	.	.	.	.	.
4r	4r	.	8d	8f	4b	.	8D	4r	.	.	.	.	4ryy	4r	4r	.	4dd'	.	4ff'	4ff'
.	.	.	8B	8d	.	.	8D	.	.	.	.	.	.	.	.	.	.	.	.	.
.	.	.	.	.	.	.	.	.	.	.	.	.	.	.	.	.	8eeq	.	8ggq	8ggq
2r	2r	.	8d	8f	4b	2b	8D	2r	.	.	.	.	2ryy	2r	2r	.	8dd	.	8ff	8ff
.	.	.	8B	8d	.	.	8D	.	.	.	.	.	.	.	.	.	8cc	.	8ee	8ee
.	.	.	8d	8f	4b	.	8D	.	.	.	.	.	.	.	.	.	8dd	.	8ff	8ff
.	.	.	8B	8d	.	.	8D	.	.	.	.	.	.	.	.	.	8ee	.	8gg	8gg
=145	=145	=145	=145	=145	=145	=145	=145	=145	=145	=145	=145	=145	=145	=145	=145	=145	=145	=145	=145	=145
*staff:3	*staff:3	*staff:4	*staff:5	*staff:6	*staff:7	*staff:8	*staff:9	*staff:10	*staff:11	*staff:11	*staff:12	*staff:12	*staff:13	*staff:13	*staff:14	*staff:14	*staff:15	*staff:15	*staff:16	*staff:16
4CC	4C	4C]	8c	8e	4b`	2b	8D	16C	1c	[1cc	4C	4c]	4ryy	4r	4r	4cc	4cc	4cc	4ee	4ee
.	.	.	.	.	.	.	.	16C	.	.	.	.	.	.	.	.	.	.	.	.
.	.	.	8G	8c	.	.	8D	16C	.	.	.	.	.	.	.	.	.	.	.	.
.	.	.	.	.	.	.	.	16C	.	.	.	.	.	.	.	.	.	.	.	.
4r	4r	4r	8c	8e	4b	.	8D	16C	.	.	4ryy	4r	4E'y	4c'	4e'	4cc'y	4ryy	4r	4r	4r
.	.	.	.	.	.	.	.	16C	.	.	.	.	.	.	.	.	.	.	.	.
.	.	.	8G	8c	.	.	8D	16C	.	.	.	.	.	.	.	.	.	.	.	.
.	.	.	.	.	.	.	.	16C	.	.	.	.	.	.	.	.	.	.	.	.
2r	2r	2r	8c	8e	4b	2b	8D	16C	.	.	2ryy	2r	4c'y	4e'	4cc'y	4ee'	2ryy	2r	2r	2r
.	.	.	.	.	.	.	.	16C	.	.	.	.	.	.	.	.	.	.	.	.
.	.	.	8G	8c	.	.	8D	16C	.	.	.	.	.	.	.	.	.	.	.	.
.	.	.	.	.	.	.	.	16C	.	.	.	.	.	.	.	.	.	.	.	.
.	.	.	8c	8e	4b	.	8D	16C	.	.	.	.	4e'y	4g'	4ee'y	4gg'	.	.	.	.
.	.	.	.	.	.	.	.	16C	.	.	.	.	.	.	.	.	.	.	.	.
.	.	.	8G	8c	.	.	8D	16C	.	.	.	.	.	.	.	.	.	.	.	.
.	.	.	.	.	.	.	.	16C	.	.	.	.	.	.	.	.	.	.	.	.
=146	=146	=146	=146	=146	=146	=146	=146	=146	=146	=146	=146	=146	=146	=146	=146	=146	=146	=146	=146	=146
4CC	4C	[1c	8e	8g	4b`	2b	8D	16C	1c	1cc_	1c	1g	4c	4e	4cc	4ee	4gg'y	4bb-'	1eee	1eee
.	.	.	.	.	.	.	.	16C	.	.	.	.	.	.	.	.	.	.	.	.
.	.	.	8c	8e	.	.	8D	16C	.	.	.	.	.	.	.	.	.	.	.	.
.	.	.	.	.	.	.	.	16C	.	.	.	.	.	.	.	.	.	.	.	.
4r	4r	.	8e	8g	4b	.	8D	16C	.	.	.	.	4ryy	4r	4ryy	4r	4gg'y	4bb-'	.	.
.	.	.	.	.	.	.	.	16C	.	.	.	.	.	.	.	.	.	.	.	.
.	.	.	8c	8e	.	.	8D	16C	.	.	.	.	.	.	.	.	.	.	.	.
.	.	.	.	.	.	.	.	16C	.	.	.	.	.	.	.	.	.	.	.	.
.	.	.	.	.	.	.	.	.	.	.	.	.	.	.	.	.	8aaQ	8cccQ	.	.
2r	2r	.	8e	8g	4b	2b	8D	16C	.	.	.	.	2ryy	2r	2ryy	2r	8gg	8bb-	.	.
.	.	.	.	.	.	.	.	16C	.	.	.	.	.	.	.	.	.	.	.	.
.	.	.	8c	8e	.	.	8D	16C	.	.	.	.	.	.	.	.	8ff	8aa	.	.
.	.	.	.	.	.	.	.	16C	.	.	.	.	.	.	.	.	.	.	.	.
.	.	.	8e	8g	4b	.	8D	16C	.	.	.	.	.	.	.	.	8gg	8bb-	.	.
.	.	.	.	.	.	.	.	16C	.	.	.	.	.	.	.	.	.	.	.	.
.	.	.	8c	8e	.	.	8D	16C	.	.	.	.	.	.	.	.	8aa	8ccc	.	.
.	.	.	.	.	.	.	.	16C	.	.	.	.	.	.	.	.	.	.	.	.
=147	=147	=147	=147	=147	=147	=147	=147	=147	=147	=147	=147	=147	=147	=147	=147	=147	=147	=147	=147	=147
4CC	4C	1c]	8f	8a	4b`	2b	8D	16C	1c	1cc_	4c	4f	4ryy	4r	4ryy	4r	4ff	4aa	4fff	4fff
.	.	.	.	.	.	.	.	16C	.	.	.	.	.	.	.	.	.	.	.	.
.	.	.	8c	8f	.	.	8D	16C	.	.	.	.	.	.	.	.	.	.	.	.
.	.	.	.	.	.	.	.	16C	.	.	.	.	.	.	.	.	.	.	.	.
4r	4r	.	8f	8a	4b	.	8D	16C	.	.	4ryy	4r	4A'y	4c'	4a'y	4cc'	4ryy	4r	4r	4r
.	.	.	.	.	.	.	.	16C	.	.	.	.	.	.	.	.	.	.	.	.
.	.	.	8c	8f	.	.	8D	16C	.	.	.	.	.	.	.	.	.	.	.	.
.	.	.	.	.	.	.	.	16C	.	.	.	.	.	.	.	.	.	.	.	.
2r	2r	.	8f	8a	4b	2b	8D	16C	.	.	2ryy	2r	4A'y	4f'	4cc'y	4ff'	2ryy	2r	2r	2r
.	.	.	.	.	.	.	.	16C	.	.	.	.	.	.	.	.	.	.	.	.
.	.	.	8c	8f	.	.	8D	16C	.	.	.	.	.	.	.	.	.	.	.	.
.	.	.	.	.	.	.	.	16C	.	.	.	.	.	.	.	.	.	.	.	.
.	.	.	8f	8a	4b	.	8D	16C	.	.	.	.	4A'y	4f'	4ff'y	4aa'	.	.	.	.
.	.	.	.	.	.	.	.	16C	.	.	.	.	.	.	.	.	.	.	.	.
.	.	.	8c	8f	.	.	8D	16C	.	.	.	.	.	.	.	.	.	.	.	.
.	.	.	.	.	.	.	.	16C	.	.	.	.	.	.	.	.	.	.	.	.
=148	=148	=148	=148	=148	=148	=148	=148	=148	=148	=148	=148	=148	=148	=148	=148	=148	=148	=148	=148	=148
4CC	4C	[1g	8d	8bn	4b`	2b	8D	16C	1c	1cc_	1G	1d	1G	4d'	2dd	2ff	1bn	4ff'	1bbn	1bbn
.	.	.	.	.	.	.	.	16C	.	.	.	.	.	.	.	.	.	.	.	.
.	.	.	8f	8d	.	.	8D	16C	.	.	.	.	.	.	.	.	.	.	.	.
.	.	.	.	.	.	.	.	16C	.	.	.	.	.	.	.	.	.	.	.	.
4r	4r	.	8d	8b	4b	.	8D	16C	.	.	.	.	.	4d'	.	.	.	4ff'	.	.
.	.	.	.	.	.	.	.	16C	.	.	.	.	.	.	.	.	.	.	.	.
.	.	.	8f	8d	.	.	8D	16C	.	.	.	.	.	.	.	.	.	.	.	.
.	.	.	.	.	.	.	.	16C	.	.	.	.	.	.	.	.	.	.	.	.
.	.	.	.	.	.	.	.	.	.	.	.	.	.	8eq	8eeQ	8ggQ	.	8ggq	.	.
2r	2r	.	8d	8b	4b	2b	8D	16C	.	.	.	.	.	8d	8dd	8ff	.	8ff	.	.
.	.	.	.	.	.	.	.	16C	.	.	.	.	.	.	.	.	.	.	.	.
.	.	.	8f	8d	.	.	8D	16C	.	.	.	.	.	8c	8cc	8ee	.	8ee	.	.
.	.	.	.	.	.	.	.	16C	.	.	.	.	.	.	.	.	.	.	.	.
.	.	.	8d	8b	4b	.	8D	16C	.	.	.	.	.	8d	8dd	8ff	.	8ff	.	.
.	.	.	.	.	.	.	.	16C	.	.	.	.	.	.	.	.	.	.	.	.
.	.	.	8f	8d	.	.	8D	16C	.	.	.	.	.	8e	8ee	8gg	.	8gg	.	.
.	.	.	.	.	.	.	.	16C	.	.	.	.	.	.	.	.	.	.	.	.
=149	=149	=149	=149	=149	=149	=149	=149	=149	=149	=149	=149	=149	=149	=149	=149	=149	=149	=149	=149	=149
4CC	4C	4g]	8e	8cc	4b`	2b	8D	4C	4c	4cc]	4c	4e	4C	4c	4cc	4ee	4cc	4ee	4ccc	4ccc
.	.	.	8g	8e	.	.	8D	.	.	.	.	.	.	.	.	.	.	.	.	.
4r	4r	4ryy	8e	8cc	4b	.	8D	4r	4ryy	4r	4ryy	4r	4ryy	4r	4ryy	4r	4r	4r	4r	4r
.	.	.	8g	8e	.	.	8D	.	.	.	.	.	.	.	.	.	.	.	.	.
.	.	.	.	.	.	.	.	.	.	.	.	.	.	8eq	8eeQ	8ggQ	.	8ggq	.	.
2r	2r	4g	8d	8b	4b	2b	8D	2r	2ryy	2r	2ryy	2r	4G	8d	8dd	8ff	4b	8ff	2bb	2bb
.	.	.	8f	8d	.	.	8D	.	.	.	.	.	.	8c	8cc	8ee	.	8ee	.	.
.	.	4ryy	8d	8b	4b	.	8D	.	.	.	.	.	4r	8d	8dd	8ff	4r	8ff	.	.
.	.	.	8f	8d	.	.	8D	.	.	.	.	.	.	8e	8ee	8gg	.	8gg	.	.
=150	=150	=150	=150	=150	=150	=150	=150	=150	=150	=150	=150	=150	=150	=150	=150	=150	=150	=150	=150	=150
4CC	4C	4g	8e	8cc	4b	2b	8D	1r	1r	1r	1r	1r	4C	4c	4cc	4ee	4cc	4ee	4ccc	4ccc
.	.	.	8g	8e	.	.	8D	.	.	.	.	.	.	.	.	.	.	.	.	.
4r	4r	4r	8e	8cc	4b	.	8D	.	.	.	.	.	4r	4r	4ryy	4r	4r	4r	4r	4r
.	.	.	8g	8e	.	.	8D	.	.	.	.	.	.	.	.	.	.	.	.	.
.	.	.	.	.	.	.	.	.	.	.	.	.	.	8eq	8eeQ	8ggQ	.	8ggq	.	.
2r	2r	4g	8d	8b	4b	2b	8D	.	.	.	.	.	4GG	8d	8dd	8ff	4b	8ff	2bb	2bb
.	.	.	8f	8d	.	.	8D	.	.	.	.	.	.	8c	8cc	8ee	.	8ee	.	.
.	.	4r	8d	8b	4b	.	8D	.	.	.	.	.	4r	8d	8dd	8ff	4r	8ff	.	.
.	.	.	8f	8d	.	.	8D	.	.	.	.	.	.	8e	8ee	8gg	.	8gg	.	.
=151	=151	=151	=151	=151	=151	=151	=151	=151	=151	=151	=151	=151	=151	=151	=151	=151	=151	=151	=151	=151
4CC	4C	4g	4e	4cc	4b	4b	4D	1r	1r	1r	1r	1r	4C	4c	4cc	4ee	4cc	4ee	4ccc	4ccc
4r	4r	4r	4r	4r	4r	4r	4r	.	.	.	.	.	4ryy	4r	4ryy	4r	4ryy	4r	4r	4r
4CC	4C	4g	4e	4cc	4b	4b	4D	.	.	.	.	.	4C	4c	4cc	4ee	4cc	4ee	4ccc	4ccc
4r	4r	4r	4r	4r	4r	4r	4r	.	.	.	.	.	4ryy	4r	4ryy	4r	4ryy	4r	4r	4r
=152	=152	=152	=152	=152	=152	=152	=152	=152	=152	=152	=152	=152	=152	=152	=152	=152	=152	=152	=152	=152
4CC	4C	4g	4e	4cc	4b	4b	4D	1r	2r	2r	1r	1r	4C	4c	4cc	4ee	4cc	4ee	4ccc	4ccc
4r	4r	4r	4r	4r	4r	4r	4r	.	.	.	.	.	4ryy	4r	4ryy	4r	4ryy	4r	4r	4r
2r	2r	2r	2r	2r	2r	2r	2r	.	4r	4r	.	.	2ryy	2r	2ryy	2r	2ryy	2r	2r	2r
.	.	.	.	.	.	.	.	.	12c	12c	.	.	.	.	.	.	.	.	.	.
.	.	.	.	.	.	.	.	.	12c	12c	.	.	.	.	.	.	.	.	.	.
.	.	.	.	.	.	.	.	.	12c	12c	.	.	.	.	.	.	.	.	.	.
=153	=153	=153	=153	=153	=153	=153	=153	=153	=153	=153	=153	=153	=153	=153	=153	=153	=153	=153	=153	=153
*	*	*	*	*	*	*	*	*staff:1	*staff:2	*staff:2	*	*	*	*	*	*	*	*	*	*
1ryy	1ryy	1ryy	1ryy	1ryy	1ryy	1ryy	1ryy	1r	4c	4c	1ryy	1ryy	1ryy	1ryy	1ryy	1ryy	1ryy	1ryy	1ryy	1ryy
.	.	.	.	.	.	.	.	.	4r	4r	.	.	.	.	.	.	.	.	.	.
.	.	.	.	.	.	.	.	.	4r	4r	.	.	.	.	.	.	.	.	.	.
.	.	.	.	.	.	.	.	.	12c	12c	.	.	.	.	.	.	.	.	.	.
.	.	.	.	.	.	.	.	.	12c	12c	.	.	.	.	.	.	.	.	.	.
.	.	.	.	.	.	.	.	.	12c	12c	.	.	.	.	.	.	.	.	.	.
=154	=154	=154	=154	=154	=154	=154	=154	=154	=154	=154	=154	=154	=154	=154	=154	=154	=154	=154	=154	=154
1ryy	1ryy	1ryy	1ryy	1ryy	1ryy	1ryy	1ryy	1r	4c	4c	1ryy	1ryy	1ryy	1ryy	1ryy	1ryy	1ryy	1ryy	1ryy	1ryy
.	.	.	.	.	.	.	.	.	4r	4r	.	.	.	.	.	.	.	.	.	.
.	.	.	.	.	.	.	.	.	4r	4r	.	.	.	.	.	.	.	.	.	.
.	.	.	.	.	.	.	.	.	12c	12c	.	.	.	.	.	.	.	.	.	.
.	.	.	.	.	.	.	.	.	12c	12c	.	.	.	.	.	.	.	.	.	.
.	.	.	.	.	.	.	.	.	12c	12c	.	.	.	.	.	.	.	.	.	.
=155	=155	=155	=155	=155	=155	=155	=155	=155	=155	=155	=155	=155	=155	=155	=155	=155	=155	=155	=155	=155
1ryy	1ryy	1ryy	1ryy	1ryy	1ryy	1ryy	1ryy	1r	4e	4e	1ryy	1ryy	1ryy	1ryy	1ryy	1ryy	1ryy	1ryy	1ryy	1ryy
.	.	.	.	.	.	.	.	.	4r	4r	.	.	.	.	.	.	.	.	.	.
.	.	.	.	.	.	.	.	.	4r	4r	.	.	.	.	.	.	.	.	.	.
.	.	.	.	.	.	.	.	.	12c	12c	.	.	.	.	.	.	.	.	.	.
.	.	.	.	.	.	.	.	.	12c	12c	.	.	.	.	.	.	.	.	.	.
.	.	.	.	.	.	.	.	.	12c	12c	.	.	.	.	.	.	.	.	.	.
=156	=156	=156	=156	=156	=156	=156	=156	=156	=156	=156	=156	=156	=156	=156	=156	=156	=156	=156	=156	=156
1ryy	1ryy	1ryy	1ryy	1ryy	1ryy	1ryy	1ryy	1r	4c	4c	1ryy	1ryy	1ryy	1ryy	1ryy	1ryy	1ryy	1ryy	1ryy	1ryy
.	.	.	.	.	.	.	.	.	4r	4r	.	.	.	.	.	.	.	.	.	.
.	.	.	.	.	.	.	.	.	4r	4r	.	.	.	.	.	.	.	.	.	.
.	.	.	.	.	.	.	.	.	12c	12c	.	.	.	.	.	.	.	.	.	.
.	.	.	.	.	.	.	.	.	12c	12c	.	.	.	.	.	.	.	.	.	.
.	.	.	.	.	.	.	.	.	12c	12c	.	.	.	.	.	.	.	.	.	.
=157	=157	=157	=157	=157	=157	=157	=157	=157	=157	=157	=157	=157	=157	=157	=157	=157	=157	=157	=157	=157
1ryy	1ryy	1ryy	1ryy	1ryy	1ryy	1ryy	1ryy	1r	4c	4c	1ryy	1ryy	1ryy	1ryy	1ryy	1ryy	1ryy	1ryy	1ryy	1ryy
.	.	.	.	.	.	.	.	.	4G	4G	.	.	.	.	.	.	.	.	.	.
.	.	.	.	.	.	.	.	.	4c	4c	.	.	.	.	.	.	.	.	.	.
.	.	.	.	.	.	.	.	.	4c	4c	.	.	.	.	.	.	.	.	.	.
=158	=158	=158	=158	=158	=158	=158	=158	=158	=158	=158	=158	=158	=158	=158	=158	=158	=158	=158	=158	=158
1ryy	1ryy	1ryy	1ryy	1ryy	1ryy	1ryy	1ryy	1r	4c	4c	1ryy	1ryy	1ryy	1ryy	1ryy	1ryy	1ryy	1ryy	1ryy	1ryy
.	.	.	.	.	.	.	.	.	12c	12c	.	.	.	.	.	.	.	.	.	.
.	.	.	.	.	.	.	.	.	12c	12c	.	.	.	.	.	.	.	.	.	.
.	.	.	.	.	.	.	.	.	12c	12c	.	.	.	.	.	.	.	.	.	.
.	.	.	.	.	.	.	.	.	4c	4c	.	.	.	.	.	.	.	.	.	.
.	.	.	.	.	.	.	.	.	4c	4c	.	.	.	.	.	.	.	.	.	.
=159	=159	=159	=159	=159	=159	=159	=159	=159	=159	=159	=159	=159	=159	=159	=159	=159	=159	=159	=159	=159
1ryy	1ryy	1ryy	1ryy	1ryy	1ryy	1ryy	1ryy	16C	4c	4c	1ryy	1ryy	1ryy	1ryy	1ryy	1ryy	1ryy	1ryy	1ryy	1ryy
.	.	.	.	.	.	.	.	16C	.	.	.	.	.	.	.	.	.	.	.	.
.	.	.	.	.	.	.	.	16C	.	.	.	.	.	.	.	.	.	.	.	.
.	.	.	.	.	.	.	.	16C	.	.	.	.	.	.	.	.	.	.	.	.
.	.	.	.	.	.	.	.	16C	4r	4r	.	.	.	.	.	.	.	.	.	.
.	.	.	.	.	.	.	.	16C	.	.	.	.	.	.	.	.	.	.	.	.
.	.	.	.	.	.	.	.	16C	.	.	.	.	.	.	.	.	.	.	.	.
.	.	.	.	.	.	.	.	16C	.	.	.	.	.	.	.	.	.	.	.	.
.	.	.	.	.	.	.	.	16C	2r	2r	.	.	.	.	.	.	.	.	.	.
.	.	.	.	.	.	.	.	16C	.	.	.	.	.	.	.	.	.	.	.	.
.	.	.	.	.	.	.	.	16C	.	.	.	.	.	.	.	.	.	.	.	.
.	.	.	.	.	.	.	.	16C	.	.	.	.	.	.	.	.	.	.	.	.
.	.	.	.	.	.	.	.	16C	.	.	.	.	.	.	.	.	.	.	.	.
.	.	.	.	.	.	.	.	16C	.	.	.	.	.	.	.	.	.	.	.	.
.	.	.	.	.	.	.	.	16C	.	.	.	.	.	.	.	.	.	.	.	.
.	.	.	.	.	.	.	.	16C	.	.	.	.	.	.	.	.	.	.	.	.
=160	=160	=160	=160	=160	=160	=160	=160	=160	=160	=160	=160	=160	=160	=160	=160	=160	=160	=160	=160	=160
1ryy	1ryy	1ryy	1ryy	1ryy	1ryy	1ryy	1ryy	16C	1r	1r	1ryy	1ryy	1ryy	1ryy	1ryy	1ryy	1ryy	1ryy	1ryy	1ryy
.	.	.	.	.	.	.	.	16C	.	.	.	.	.	.	.	.	.	.	.	.
.	.	.	.	.	.	.	.	16C	.	.	.	.	.	.	.	.	.	.	.	.
.	.	.	.	.	.	.	.	16C	.	.	.	.	.	.	.	.	.	.	.	.
.	.	.	.	.	.	.	.	16C	.	.	.	.	.	.	.	.	.	.	.	.
.	.	.	.	.	.	.	.	16C	.	.	.	.	.	.	.	.	.	.	.	.
.	.	.	.	.	.	.	.	16C	.	.	.	.	.	.	.	.	.	.	.	.
.	.	.	.	.	.	.	.	16C	.	.	.	.	.	.	.	.	.	.	.	.
.	.	.	.	.	.	.	.	16C	.	.	.	.	.	.	.	.	.	.	.	.
.	.	.	.	.	.	.	.	16C	.	.	.	.	.	.	.	.	.	.	.	.
.	.	.	.	.	.	.	.	16C	.	.	.	.	.	.	.	.	.	.	.	.
.	.	.	.	.	.	.	.	16C	.	.	.	.	.	.	.	.	.	.	.	.
.	.	.	.	.	.	.	.	16C	.	.	.	.	.	.	.	.	.	.	.	.
.	.	.	.	.	.	.	.	16C	.	.	.	.	.	.	.	.	.	.	.	.
.	.	.	.	.	.	.	.	16C	.	.	.	.	.	.	.	.	.	.	.	.
.	.	.	.	.	.	.	.	16C	.	.	.	.	.	.	.	.	.	.	.	.
=161	=161	=161	=161	=161	=161	=161	=161	=161	=161	=161	=161	=161	=161	=161	=161	=161	=161	=161	=161	=161
*staff:1	*staff:1	*staff:2	*staff:3	*staff:4	*staff:5	*staff:6	*staff:7	*staff:8	*staff:9	*staff:9	*staff:10	*staff:10	*staff:11	*staff:11	*staff:12	*staff:12	*staff:13	*staff:13	*staff:14	*staff:14
16AAA-	16AA-	16c	16e- 16cc	16ccc	4b`	2b	8D	16C	1c	[1cc	1C	[1c	1A-	[1c	1cc	[1ee-	1ee-	[1ccc	[1eee-	[1eee-
16AAA-	16AA-	16c	16e- 16cc	16ccc	.	.	.	16C	.	.	.	.	.	.	.	.	.	.	.	.
16AAA-	16AA-	16c	16e- 16cc	16ccc	.	.	8D	16C	.	.	.	.	.	.	.	.	.	.	.	.
16AAA-	16AA-	16c	16e- 16cc	16ccc	.	.	.	16C	.	.	.	.	.	.	.	.	.	.	.	.
16AAA-	16AA-	16c	16e- 16cc	16ccc	4b	.	8D	16C	.	.	.	.	.	.	.	.	.	.	.	.
16AAA-	16AA-	16c	16e- 16cc	16ccc	.	.	.	16C	.	.	.	.	.	.	.	.	.	.	.	.
16AAA-	16AA-	16c	16e- 16cc	16ccc	.	.	8D	16C	.	.	.	.	.	.	.	.	.	.	.	.
16AAA-	16AA-	16c	16e- 16cc	16ccc	.	.	.	16C	.	.	.	.	.	.	.	.	.	.	.	.
16AAA-	16AA-	16c	16e- 16cc	16ccc	4b	2b	8D	16C	.	.	.	.	.	.	.	.	.	.	.	.
16AAA-	16AA-	16c	16e- 16cc	16ccc	.	.	.	16C	.	.	.	.	.	.	.	.	.	.	.	.
16AAA-	16AA-	16c	16e- 16cc	16ccc	.	.	8D	16C	.	.	.	.	.	.	.	.	.	.	.	.
16AAA-	16AA-	16c	16e- 16cc	16ccc	.	.	.	16C	.	.	.	.	.	.	.	.	.	.	.	.
16AAA-	16AA-	16c	16e- 16cc	16ccc	4b	.	8D	16C	.	.	.	.	.	.	.	.	.	.	.	.
16AAA-	16AA-	16c	16e- 16cc	16ccc	.	.	.	16C	.	.	.	.	.	.	.	.	.	.	.	.
16AAA-	16AA-	16c	16e- 16cc	16ccc	.	.	8D	16C	.	.	.	.	.	.	.	.	.	.	.	.
16AAA-	16AA-	16c	16e- 16cc	16ccc	.	.	.	16C	.	.	.	.	.	.	.	.	.	.	.	.
=162	=162	=162	=162	=162	=162	=162	=162	=162	=162	=162	=162	=162	=162	=162	=162	=162	=162	=162	=162	=162
16AAA-	16AA-	16c	16e- 16cc	16aa-	4b`	2b	8D	16C	1c	1cc_	1C	1c_	1A-	1c_	1cc	1ee-_	1ee-	1ccc_	1eee-_	1eee-_
16AAA-	16AA-	16c	16e- 16cc	16aa-	.	.	.	16C	.	.	.	.	.	.	.	.	.	.	.	.
16AAA-	16AA-	16c	16e- 16cc	16aa-	.	.	8D	16C	.	.	.	.	.	.	.	.	.	.	.	.
16AAA-	16AA-	16c	16e- 16cc	16aa-	.	.	.	16C	.	.	.	.	.	.	.	.	.	.	.	.
16AAA-	16AA-	16c	16e- 16cc	16aa-	4b	.	8D	16C	.	.	.	.	.	.	.	.	.	.	.	.
16AAA-	16AA-	16c	16e- 16cc	16aa-	.	.	.	16C	.	.	.	.	.	.	.	.	.	.	.	.
16AAA-	16AA-	16c	16e- 16cc	16aa-	.	.	8D	16C	.	.	.	.	.	.	.	.	.	.	.	.
16AAA-	16AA-	16c	16e- 16cc	16aa-	.	.	.	16C	.	.	.	.	.	.	.	.	.	.	.	.
16AAA-	16AA-	16c	16e- 16cc	16ee-	4b	2b	8D	16C	.	.	.	.	.	.	.	.	.	.	.	.
16AAA-	16AA-	16c	16e- 16cc	16ee-	.	.	.	16C	.	.	.	.	.	.	.	.	.	.	.	.
16AAA-	16AA-	16c	16e- 16cc	16ee-	.	.	8D	16C	.	.	.	.	.	.	.	.	.	.	.	.
16AAA-	16AA-	16c	16e- 16cc	16ee-	.	.	.	16C	.	.	.	.	.	.	.	.	.	.	.	.
16AAA-	16AA-	16c	16e- 16cc	16ee-	4b	.	8D	16C	.	.	.	.	.	.	.	.	.	.	.	.
16AAA-	16AA-	16c	16e- 16cc	16ee-	.	.	.	16C	.	.	.	.	.	.	.	.	.	.	.	.
16AAA-	16AA-	16c	16e- 16cc	16ee-	.	.	8D	16C	.	.	.	.	.	.	.	.	.	.	.	.
16AAA-	16AA-	16c	16e- 16cc	16ee-	.	.	.	16C	.	.	.	.	.	.	.	.	.	.	.	.
=163	=163	=163	=163	=163	=163	=163	=163	=163	=163	=163	=163	=163	=163	=163	=163	=163	=163	=163	=163	=163
16AAA-	16AA-	16c	16e- 16cc	16cc	4b`	2b	8D	16C	1c	1cc_	1C	1c_	1A-	1c_	1cc	1ee-_	1ee-	1ccc_	1eee-]	1eee-]
16AAA-	16AA-	16c	16e- 16cc	16cc	.	.	.	16C	.	.	.	.	.	.	.	.	.	.	.	.
16AAA-	16AA-	16c	16e- 16cc	16cc	.	.	8D	16C	.	.	.	.	.	.	.	.	.	.	.	.
16AAA-	16AA-	16c	16e- 16cc	16cc	.	.	.	16C	.	.	.	.	.	.	.	.	.	.	.	.
16AAA-	16AA-	16c	16e- 16cc	16cc	4b	.	8D	16C	.	.	.	.	.	.	.	.	.	.	.	.
16AAA-	16AA-	16c	16e- 16cc	16cc	.	.	.	16C	.	.	.	.	.	.	.	.	.	.	.	.
16AAA-	16AA-	16c	16e- 16cc	16cc	.	.	8D	16C	.	.	.	.	.	.	.	.	.	.	.	.
16AAA-	16AA-	16c	16e- 16cc	16cc	.	.	.	16C	.	.	.	.	.	.	.	.	.	.	.	.
16AAA-	16AA-	16c	16e- 16cc	16a-	4b	2b	8D	16C	.	.	.	.	.	.	.	.	.	.	.	.
16AAA-	16AA-	16c	16e- 16cc	16a-	.	.	.	16C	.	.	.	.	.	.	.	.	.	.	.	.
16AAA-	16AA-	16c	16e- 16cc	16a-	.	.	8D	16C	.	.	.	.	.	.	.	.	.	.	.	.
16AAA-	16AA-	16c	16e- 16cc	16a-	.	.	.	16C	.	.	.	.	.	.	.	.	.	.	.	.
16AAA-	16AA-	16c	16e- 16cc	16a-	4b	.	8D	16C	.	.	.	.	.	.	.	.	.	.	.	.
16AAA-	16AA-	16c	16e- 16cc	16a-	.	.	.	16C	.	.	.	.	.	.	.	.	.	.	.	.
16AAA-	16AA-	16c	16e- 16cc	16a-	.	.	8D	16C	.	.	.	.	.	.	.	.	.	.	.	.
16AAA-	16AA-	16c	16e- 16cc	16a-	.	.	.	16C	.	.	.	.	.	.	.	.	.	.	.	.
=164	=164	=164	=164	=164	=164	=164	=164	=164	=164	=164	=164	=164	=164	=164	=164	=164	=164	=164	=164	=164
16AAA-	16AA-	16c	16c 16e-	16cc	4b`	2b	8D	16C	1c	1cc_	1C	1c_	1A-	1c_	1cc	1ee-_	[1ee-	2ccc]	[1ccc	[1ccc
16AAA-	16AA-	16c	16c 16e-	16cc	.	.	.	16C	.	.	.	.	.	.	.	.	.	.	.	.
16AAA-	16AA-	16c	16c 16e-	16cc	.	.	8D	16C	.	.	.	.	.	.	.	.	.	.	.	.
16AAA-	16AA-	16c	16c 16e-	16cc	.	.	.	16C	.	.	.	.	.	.	.	.	.	.	.	.
16AAA-	16AA-	16c	16c 16e-	16cc	4b	.	8D	16C	.	.	.	.	.	.	.	.	.	.	.	.
16AAA-	16AA-	16c	16c 16e-	16cc	.	.	.	16C	.	.	.	.	.	.	.	.	.	.	.	.
16AAA-	16AA-	16c	16c 16e-	16cc	.	.	8D	16C	.	.	.	.	.	.	.	.	.	.	.	.
16AAA-	16AA-	16c	16c 16e-	16cc	.	.	.	16C	.	.	.	.	.	.	.	.	.	.	.	.
16AAA-	16AA-	16c	16c 16e-	16a-	4b	2b	8D	16C	.	.	.	.	.	.	.	.	.	2aa-	.	.
16AAA-	16AA-	16c	16c 16e-	16a-	.	.	.	16C	.	.	.	.	.	.	.	.	.	.	.	.
16AAA-	16AA-	16c	16c 16e-	16a-	.	.	8D	16C	.	.	.	.	.	.	.	.	.	.	.	.
16AAA-	16AA-	16c	16c 16e-	16a-	.	.	.	16C	.	.	.	.	.	.	.	.	.	.	.	.
16AAA-	16AA-	16c	16c 16e-	16a-	4b	.	8D	16C	.	.	.	.	.	.	.	.	.	.	.	.
16AAA-	16AA-	16c	16c 16e-	16a-	.	.	.	16C	.	.	.	.	.	.	.	.	.	.	.	.
16AAA-	16AA-	16c	16c 16e-	16a-	.	.	8D	16C	.	.	.	.	.	.	.	.	.	.	.	.
16AAA-	16AA-	16c	16c 16e-	16a-	.	.	.	16C	.	.	.	.	.	.	.	.	.	.	.	.
=165	=165	=165	=165	=165	=165	=165	=165	=165	=165	=165	=165	=165	=165	=165	=165	=165	=165	=165	=165	=165
16AAA-	16AA-	16c	16c 16e-	16g	4b`	4b	8D	16C	1c	1cc_	1C	1c_	1A-	1c_	1cc	1ee-]	1ee-]	1gg	1ccc_	1ccc_
16AAA-	16AA-	16c	16c 16e-	16g	.	.	.	16C	.	.	.	.	.	.	.	.	.	.	.	.
16AAA-	16AA-	16c	16c 16e-	16g	.	.	8D	16C	.	.	.	.	.	.	.	.	.	.	.	.
16AAA-	16AA-	16c	16c 16e-	16g	.	.	.	16C	.	.	.	.	.	.	.	.	.	.	.	.
16AAA-	16AA-	16c	16c 16e-	16g	4b	4r	8D	16C	.	.	.	.	.	.	.	.	.	.	.	.
16AAA-	16AA-	16c	16c 16e-	16g	.	.	.	16C	.	.	.	.	.	.	.	.	.	.	.	.
16AAA-	16AA-	16c	16c 16e-	16g	.	.	8D	16C	.	.	.	.	.	.	.	.	.	.	.	.
16AAA-	16AA-	16c	16c 16e-	16g	.	.	.	16C	.	.	.	.	.	.	.	.	.	.	.	.
16AAA-	16AA-	16c	16c 16e-	16g	4b	4b	8D	16C	.	.	.	.	.	.	.	.	.	.	.	.
16AAA-	16AA-	16c	16c 16e-	16g	.	.	.	16C	.	.	.	.	.	.	.	.	.	.	.	.
16AAA-	16AA-	16c	16c 16e-	16g	.	.	8D	16C	.	.	.	.	.	.	.	.	.	.	.	.
16AAA-	16AA-	16c	16c 16e-	16g	.	.	.	16C	.	.	.	.	.	.	.	.	.	.	.	.
16AAA-	16AA-	16c	16c 16e-	16g	4b	4r	8D	16C	.	.	.	.	.	.	.	.	.	.	.	.
16AAA-	16AA-	16c	16c 16e-	16g	.	.	.	16C	.	.	.	.	.	.	.	.	.	.	.	.
16AAA-	16AA-	16c	16c 16e-	16g	.	.	8D	16C	.	.	.	.	.	.	.	.	.	.	.	.
16AAA-	16AA-	16c	16c 16e-	16g	.	.	.	16C	.	.	.	.	.	.	.	.	.	.	.	.
=166	=166	=166	=166	=166	=166	=166	=166	=166	=166	=166	=166	=166	=166	=166	=166	=166	=166	=166	=166	=166
16AAA-	16AA-	16c	16c 16e-	16f#	4b`	4b	8D	16C	1c	1cc]	1C	1c]	1A-	1c]	1cc	1ff#	2ee-	1ff#	1ccc]	1ccc]
16AAA-	16AA-	16c	16c 16e-	16f#	.	.	.	16C	.	.	.	.	.	.	.	.	.	.	.	.
16AAA-	16AA-	16c	16c 16e-	16f#	.	.	8D	16C	.	.	.	.	.	.	.	.	.	.	.	.
16AAA-	16AA-	16c	16c 16e-	16f#	.	.	.	16C	.	.	.	.	.	.	.	.	.	.	.	.
16AAA-	16AA-	16c	16c 16e-	16f#	4b	4r	8D	16C	.	.	.	.	.	.	.	.	.	.	.	.
16AAA-	16AA-	16c	16c 16e-	16f#	.	.	.	16C	.	.	.	.	.	.	.	.	.	.	.	.
16AAA-	16AA-	16c	16c 16e-	16f#	.	.	8D	16C	.	.	.	.	.	.	.	.	.	.	.	.
16AAA-	16AA-	16c	16c 16e-	16f#	.	.	.	16C	.	.	.	.	.	.	.	.	.	.	.	.
16AAA-	16AA-	16c	16c 16e-	16f#	4b	4b	8D	16C	.	.	.	.	.	.	.	.	2cc	.	.	.
16AAA-	16AA-	16c	16c 16e-	16f#	.	.	.	16C	.	.	.	.	.	.	.	.	.	.	.	.
16AAA-	16AA-	16c	16c 16e-	16f#	.	.	8D	16C	.	.	.	.	.	.	.	.	.	.	.	.
16AAA-	16AA-	16c	16c 16e-	16f#	.	.	.	16C	.	.	.	.	.	.	.	.	.	.	.	.
16AAA-	16AA-	16c	16c 16e-	16f#	4b	4r	8D	16C	.	.	.	.	.	.	.	.	.	.	.	.
16AAA-	16AA-	16c	16c 16e-	16f#	.	.	.	16C	.	.	.	.	.	.	.	.	.	.	.	.
16AAA-	16AA-	16c	16c 16e-	16f#	.	.	8D	16C	.	.	.	.	.	.	.	.	.	.	.	.
16AAA-	16AA-	16c	16c 16e-	16f#	.	.	.	16C	.	.	.	.	.	.	.	.	.	.	.	.
=167	=167	=167	=167	=167	=167	=167	=167	=167	=167	=167	=167	=167	=167	=167	=167	=167	=167	=167	=167	=167
2GGG	2GG	4c	4en'	4g'	4b	4b	4D	2GG	2G	2g	2G	2G	2c	2c	4en	4gg	4een	4gg	4gg	4gg
.	.	4ryy	4e'	4g'	4r	4r	4r	.	.	.	.	.	.	.	4ryy	4r	4ryy	4r	4r	4r
.	.	.	8eq	8gq	.	.	.	.	.	.	.	.	.	.	.	.	.	.	.	.
2r	2r	2ryy	8d	8fn	2r	2r	2r	2r	2ryy	2r	2ryy	2r	2ryy	2r	2ryy	2r	2ryy	2r	2r	2r
.	.	.	8c	8e	.	.	.	.	.	.	.	.	.	.	.	.	.	.	.	.
.	.	.	8d	8f	.	.	.	.	.	.	.	.	.	.	.	.	.	.	.	.
.	.	.	8e	8g	.	.	.	.	.	.	.	.	.	.	.	.	.	.	.	.
=168	=168	=168	=168	=168	=168	=168	=168	=168	=168	=168	=168	=168	=168	=168	=168	=168	=168	=168	=168	=168
2GGG	2GG	1r	4c	4e	1r	1r	1r	1r	1r	1r	1r	1r	1r	1r	4g'y	4een'	1r	1r	1r	1r
.	.	.	4r	4r	.	.	.	.	.	.	.	.	.	.	4g'y	4ee'	.	.	.	.
.	.	.	.	.	.	.	.	.	.	.	.	.	.	.	8gQ	8eeQ	.	.	.	.
2r	2r	.	2r	2r	.	.	.	.	.	.	.	.	.	.	8f	8dd	.	.	.	.
.	.	.	.	.	.	.	.	.	.	.	.	.	.	.	8e	8cc	.	.	.	.
.	.	.	.	.	.	.	.	.	.	.	.	.	.	.	8f	8dd	.	.	.	.
.	.	.	.	.	.	.	.	.	.	.	.	.	.	.	8g	8ee	.	.	.	.
=169	=169	=169	=169	=169	=169	=169	=169	=169	=169	=169	=169	=169	=169	=169	=169	=169	=169	=169	=169	=169
2GGG	2GG	1r	1r	1r	1r	1r	1r	1r	1r	1r	1r	1r	1r	1r	4e	4cc	4ee'y	4gg'	1r	1r
.	.	.	.	.	.	.	.	.	.	.	.	.	.	.	4ryy	4r	4ee'y	4gg'	.	.
.	.	.	.	.	.	.	.	.	.	.	.	.	.	.	.	.	8eeQ	8ggQ	.	.
2r	2r	.	.	.	.	.	.	.	.	.	.	.	.	.	2ryy	2r	8dd	8ffn	.	.
.	.	.	.	.	.	.	.	.	.	.	.	.	.	.	.	.	8cc	8ee	.	.
.	.	.	.	.	.	.	.	.	.	.	.	.	.	.	.	.	8dd	8ff	.	.
.	.	.	.	.	.	.	.	.	.	.	.	.	.	.	.	.	8ee	8gg	.	.
=170	=170	=170	=170	=170	=170	=170	=170	=170	=170	=170	=170	=170	=170	=170	=170	=170	=170	=170	=170	=170
2GGG	2GG	1r	1r	1r	1r	1r	1r	1r	1r	1r	1r	1r	1r	1r	1ryy	4gg'	4cc	4ee	4eeen'	4eeen'
.	.	.	.	.	.	.	.	.	.	.	.	.	.	.	.	4gg'	4ryy	4r	4eee'	4eee'
.	.	.	.	.	.	.	.	.	.	.	.	.	.	.	.	8ggq	.	.	8eeeq	8eeeq
2r	2r	.	.	.	.	.	.	.	.	.	.	.	.	.	.	8ff	2ryy	2r	8ddd	8ddd
.	.	.	.	.	.	.	.	.	.	.	.	.	.	.	.	8ee	.	.	8ccc	8ccc
.	.	.	.	.	.	.	.	.	.	.	.	.	.	.	.	8ff	.	.	8ddd	8ddd
.	.	.	.	.	.	.	.	.	.	.	.	.	.	.	.	8gg	.	.	8eee	8eee
=171	=171	=171	=171	=171	=171	=171	=171	=171	=171	=171	=171	=171	=171	=171	=171	=171	=171	=171	=171	=171
2GGG	2GG	1r	1r	1r	1r	1r	1r	1r	1r	1r	1r	1r	1r	1r	1ryy	4ee'	1r	4gg'	4ccc'	4ccc'
.	.	.	.	.	.	.	.	.	.	.	.	.	.	.	.	4ee'	.	4gg'	4ccc'	4ccc'
.	.	.	.	.	.	.	.	.	.	.	.	.	.	.	.	8eeq	.	8ggq	8cccq	8cccq
2r	2r	.	.	.	.	.	.	.	.	.	.	.	.	.	.	8dd	.	8ff	8bb	8bb
.	.	.	.	.	.	.	.	.	.	.	.	.	.	.	.	8cc	.	8ee	8aa	8aa
.	.	.	.	.	.	.	.	.	.	.	.	.	.	.	.	8dd	.	8ff	8bb	8bb
.	.	.	.	.	.	.	.	.	.	.	.	.	.	.	.	8ee	.	8gg	8ccc	8ccc
=172	=172	=172	=172	=172	=172	=172	=172	=172	=172	=172	=172	=172	=172	=172	=172	=172	=172	=172	=172	=172
2GGG	2GG	1r	1r	1r	1r	1r	1r	1r	1r	1r	1r	1r	1r	1r	1ryy	4cc'	1r	4ee'	4aa'	4aa'
.	.	.	.	.	.	.	.	.	.	.	.	.	.	.	.	4cc'	.	4ee'	4aa'	4aa'
.	.	.	.	.	.	.	.	.	.	.	.	.	.	.	.	8ccq	.	8eeq	8aaq	8aaq
2r	2r	.	.	.	.	.	.	.	.	.	.	.	.	.	.	8b	.	8dd	8gg	8gg
.	.	.	.	.	.	.	.	.	.	.	.	.	.	.	.	8a	.	8cc	8ff#	8ff#
.	.	.	.	.	.	.	.	.	.	.	.	.	.	.	.	8b	.	8dd	8gg	8gg
.	.	.	.	.	.	.	.	.	.	.	.	.	.	.	.	8cc	.	8ee	8aa	8aa
=173	=173	=173	=173	=173	=173	=173	=173	=173	=173	=173	=173	=173	=173	=173	=173	=173	=173	=173	=173	=173
2GGG	2GG	1r	1r	1r	1r	1r	1r	1r	1r	1r	1r	1r	1r	1r	1ryy	1a	2.ee-	4cc'	1ff#	1ff#
.	.	.	.	.	.	.	.	.	.	.	.	.	.	.	.	.	.	4cc'	.	.
.	.	.	.	.	.	.	.	.	.	.	.	.	.	.	.	.	.	8ddq	.	.
2r	2r	.	.	.	.	.	.	.	.	.	.	.	.	.	.	.	.	8cc	.	.
.	.	.	.	.	.	.	.	.	.	.	.	.	.	.	.	.	.	8b	.	.
.	.	.	.	.	.	.	.	.	.	.	.	.	.	.	.	.	4cc	8cc	.	.
.	.	.	.	.	.	.	.	.	.	.	.	.	.	.	.	.	.	8dd	.	.
=174	=174	=174	=174	=174	=174	=174	=174	=174	=174	=174	=174	=174	=174	=174	=174	=174	=174	=174	=174	=174
4GG'	4G'	4G'y 4g'	4B 4d	4G 4g	4b`	2b	8D	4GG	4g	4dd	4G	4d	4G'	4G'	4g	4g	4b	4b	4gg	4gg
.	.	.	.	.	.	.	8D	.	.	.	.	.	.	.	.	.	.	.	.	.
4GG'	4G'	4G'y 4g'	4r	4r	4b	.	8D	4r	4ryy	4r	4ryy	4r	4G'	4G'	4r	4r	4ryy	4r	4r	4r
.	.	.	.	.	.	.	8D	.	.	.	.	.	.	.	.	.	.	.	.	.
8Gq	8Gq	8gq	.	.	.	.	.	.	.	.	.	.	8Gq	8Gq	.	.	.	.	.	.
8FF	8F	8f	4G 4d 4b	4G 4d 4b	4b	2b	8D	4GG	4g	4dd	4G	4d	8F	8F	4b	4b	4b	4dd	2r	2r
8EE	8E	8e	.	.	.	.	8D	.	.	.	.	.	8E	8E	.	.	.	.	.	.
8FF	8F	8f	4r	4r	4b	.	8D	4r	4ryy	4r	4ryy	4r	8F	8F	4r	4r	4ryy	4r	.	.
8GG	8G	8g	.	.	.	.	8D	.	.	.	.	.	8G	8G	.	.	.	.	.	.
=175	=175	=175	=175	=175	=175	=175	=175	=175	=175	=175	=175	=175	=175	=175	=175	=175	=175	=175	=175	=175
4EE	4E	4e'	4G 4e 4cc	4e 4cc 4gg	4b`	2b	8D	4C	4cc	4ee	4c	4e	4E'	4E'	4g	4gg	4cc	4gg'	1r	1r
.	.	.	.	.	.	.	8D	.	.	.	.	.	.	.	.	.	.	.	.	.
4r	4r	4e'	4r	4gg	4b	.	8D	4r	4ryy	4r	4ryy	4r	4e'	4e'	4ryy	4r	4r	4gg'	.	.
.	.	.	.	.	.	.	8D	.	.	.	.	.	.	.	.	.	.	.	.	.
.	.	8eq	.	8ggq	.	.	.	.	.	.	.	.	8eq	8eq	.	.	.	8ggq	.	.
4DD	4D	8d	4G 4f 4b	8ff	4b	2b	8D	4GG	4dd	4ff	4d	4f	8d	8d	4b	4gg	4dd	8ff	.	.
.	.	8c	.	8ee	.	.	8D	.	.	.	.	.	8c	8c	.	.	.	8ee	.	.
4r	4r	8d	4r	8ff	4b	.	8D	4r	4ryy	4r	4ryy	4r	8d	8d	4ryy	4r	4r	8ff	.	.
.	.	8e	.	8gg	.	.	8D	.	.	.	.	.	8e	8e	.	.	.	8gg	.	.
=176	=176	=176	=176	=176	=176	=176	=176	=176	=176	=176	=176	=176	=176	=176	=176	=176	=176	=176	=176	=176
4CC	4C	4c	4G 4e 4cc	4ee'	4b`	2b	8D	4C	2ee	2gg	2e	2g	4c	4c	4cc'y	4ee'	4ee'	4ee'	4eee'	4eee'
.	.	.	.	.	.	.	8D	.	.	.	.	.	.	.	.	.	.	.	.	.
4CC	4C	4c	4g	4ee'	4b	.	8D	4r	.	.	.	.	4C	4C	4cc'y	4ee'	4ee'y	4gg'	4eee'	4eee'
.	.	.	.	.	.	.	8D	.	.	.	.	.	.	.	.	.	.	.	.	.
4FF	4F	4a	8f	8dd	4b	2b	8D	2r	2dd	2ff	2d	2f	4F	4F	8dd	8ff	8dd	8ff	8ddd	8ddd
.	.	.	8g	8ee	.	.	8D	.	.	.	.	.	.	.	8ee	8gg	8ee	8gg	8eee	8eee
4FF	4F	4a	8a	8ff	4b	.	8D	.	.	.	.	.	4F	4F	8ff	8aa	8ff	8aa	8fffn	8fffn
.	.	.	8f	8dd	.	.	8D	.	.	.	.	.	.	.	8dd	8ff	8dd	8ff	8ddd	8ddd
=177	=177	=177	=177	=177	=177	=177	=177	=177	=177	=177	=177	=177	=177	=177	=177	=177	=177	=177	=177	=177
4GG	4G	4g	4e	4cc	4b`	2b	8D	4GG	4cc	4ee	4c	4e	4G	4G	4cc	4ee	4cc	4ee	4ccc	4ccc
.	.	.	.	.	.	.	8D	.	.	.	.	.	.	.	.	.	.	.	.	.
4r	4r	4r	4r	4r	4b	.	8D	4r	4ryy	4r	4ryy	4r	4r	4r	4ryy	4r	4ryy	4r	4r	4r
.	.	.	.	.	.	.	8D	.	.	.	.	.	.	.	.	.	.	.	.	.
4GGG	4GG	4G	4G 4d 4b	4d 4b	4b	2b	8D	4GG	4g	4dd	4G	4d	4GG	4GG	4b	4dd	4b	4dd	4bb	4bb
.	.	.	.	.	.	.	8D	.	.	.	.	.	.	.	.	.	.	.	.	.
4r	4r	4r	4r	4r	4b	.	8D	4r	4ryy	4r	4ryy	4r	4r	4r	4ryy	4r	4ryy	4r	4r	4r
.	.	.	.	.	.	.	8D	.	.	.	.	.	.	.	.	.	.	.	.	.
=178	=178	=178	=178	=178	=178	=178	=178	=178	=178	=178	=178	=178	=178	=178	=178	=178	=178	=178	=178	=178
2CC	2C	1e	1e	4cc'	4b`	2b	8D	1r	1r	1r	1r	1r	1G	1G	1r	1r	1r	1r	1r	1r
.	.	.	.	.	.	.	8D	.	.	.	.	.	.	.	.	.	.	.	.	.
.	.	.	.	4cc'	4b	.	8D	.	.	.	.	.	.	.	.	.	.	.	.	.
.	.	.	.	.	.	.	8D	.	.	.	.	.	.	.	.	.	.	.	.	.
.	.	.	.	8ddq	.	.	.	.	.	.	.	.	.	.	.	.	.	.	.	.
2r	2r	.	.	8cc	4b	2b	8D	.	.	.	.	.	.	.	.	.	.	.	.	.
.	.	.	.	8b	.	.	8D	.	.	.	.	.	.	.	.	.	.	.	.	.
.	.	.	.	8cc	4b	.	8D	.	.	.	.	.	.	.	.	.	.	.	.	.
.	.	.	.	8dd	.	.	8D	.	.	.	.	.	.	.	.	.	.	.	.	.
=179	=179	=179	=179	=179	=179	=179	=179	=179	=179	=179	=179	=179	=179	=179	=179	=179	=179	=179	=179	=179
2CC	2C	1d	4f'	1b	4b`	2b	8D	1r	1r	1r	1r	1r	1A-	1A-	1r	1r	1r	1dd	1r	1r
.	.	.	.	.	.	.	8D	.	.	.	.	.	.	.	.	.	.	.	.	.
.	.	.	4f'	.	4b	.	8D	.	.	.	.	.	.	.	.	.	.	.	.	.
.	.	.	.	.	.	.	8D	.	.	.	.	.	.	.	.	.	.	.	.	.
.	.	.	8gq	.	.	.	.	.	.	.	.	.	.	.	.	.	.	.	.	.
2r	2r	.	8f	.	4b	2b	8D	.	.	.	.	.	.	.	.	.	.	.	.	.
.	.	.	8e	.	.	.	8D	.	.	.	.	.	.	.	.	.	.	.	.	.
.	.	.	8f	.	4b	.	8D	.	.	.	.	.	.	.	.	.	.	.	.	.
.	.	.	8g	.	.	.	8D	.	.	.	.	.	.	.	.	.	.	.	.	.
=180	=180	=180	=180	=180	=180	=180	=180	=180	=180	=180	=180	=180	=180	=180	=180	=180	=180	=180	=180	=180
2CC	2C	1e	1e	4cc'	4b`	2b	8D	1r	1r	1r	1r	1r	1G	1G	1ee	1ee	1g	4ee	4ccc'	4ccc'
.	.	.	.	.	.	.	8D	.	.	.	.	.	.	.	.	.	.	.	.	.
.	.	.	.	4cc'	4b	.	8D	.	.	.	.	.	.	.	.	.	.	4r	4ccc'	4ccc'
.	.	.	.	.	.	.	8D	.	.	.	.	.	.	.	.	.	.	.	.	.
.	.	.	.	8ddq	.	.	.	.	.	.	.	.	.	.	.	.	.	.	8dddq	8dddq
2r	2r	.	.	8cc	4b	2b	8D	.	.	.	.	.	.	.	.	.	.	2r	8ccc	8ccc
.	.	.	.	8b	.	.	8D	.	.	.	.	.	.	.	.	.	.	.	8bb	8bb
.	.	.	.	8cc	4b	.	8D	.	.	.	.	.	.	.	.	.	.	.	8ccc	8ccc
.	.	.	.	8dd	.	.	8D	.	.	.	.	.	.	.	.	.	.	.	8ddd	8ddd
=181	=181	=181	=181	=181	=181	=181	=181	=181	=181	=181	=181	=181	=181	=181	=181	=181	=181	=181	=181	=181
2CC	2C	1d	4f'	1b	4b`	2b	8D	1r	1r	1r	1r	1r	1A-	1A-	1dd	1dd	1a-	4ff'	1bb	1bb
.	.	.	.	.	.	.	8D	.	.	.	.	.	.	.	.	.	.	.	.	.
.	.	.	4f'	.	4b	.	8D	.	.	.	.	.	.	.	.	.	.	4ff'	.	.
.	.	.	.	.	.	.	8D	.	.	.	.	.	.	.	.	.	.	.	.	.
.	.	.	8gq	.	.	.	.	.	.	.	.	.	.	.	.	.	.	8ggq	.	.
2r	2r	.	8f	.	4b	2b	8D	.	.	.	.	.	.	.	.	.	.	8ff	.	.
.	.	.	8e	.	.	.	8D	.	.	.	.	.	.	.	.	.	.	8ee	.	.
.	.	.	8f	.	4b	.	8D	.	.	.	.	.	.	.	.	.	.	8ff	.	.
.	.	.	8g	.	.	.	8D	.	.	.	.	.	.	.	.	.	.	8gg	.	.
=182	=182	=182	=182	=182	=182	=182	=182	=182	=182	=182	=182	=182	=182	=182	=182	=182	=182	=182	=182	=182
4CC	4C	4G 4e	4e	4cc	4b	4b	8D	4C	4ryy	4r	4ryy	4r	4G	4G	4cc	4cc	4g	4ee	4ccc	4ccc
.	.	.	.	.	.	.	8D	.	.	.	.	.	.	.	.	.	.	.	.	.
12GGG	12GG	12g	[12g	[12gg	4r	4r	8D	4GG	12G	12g	12GG	12G	12G	12G	12g	12g	12g	12gg	12gg	[12gg
12GGG	12GG	12g	12g]	12gg]	.	.	.	.	12G	12g	12GG	12G	12G	12G	12g	12g	12g	12gg	12gg	12gg]
.	.	.	.	.	.	.	8D	.	.	.	.	.	.	.	.	.	.	.	.	.
12GGG	12GG	12g	12g	12gg	.	.	.	.	12G	12g	12GG	12G	12G	12G	12g	12g	12g	12gg	12gg	12gg
4CC	4C	4cc	4cc	4ccc	2r	2r	8D	4C	4c	4cc	4C	4c	4c	4c	4cc	4cc	4cc	4ccc	4ccc	4ccc
.	.	.	.	.	.	.	8D	.	.	.	.	.	.	.	.	.	.	.	.	.
12GGG	12GG	12g	[12g	[12gg	.	.	8D	4GG	12G	12g	12GG	12G	12G	12G	12g	12g	12g	12gg	12gg	[12gg
12GGG	12GG	12g	12g]	12gg]	.	.	.	.	12G	12g	12GG	12G	12G	12G	12g	12g	12g	12gg	12gg	12gg]
.	.	.	.	.	.	.	8D	.	.	.	.	.	.	.	.	.	.	.	.	.
12GGG	12GG	12g	12g	12gg	.	.	.	.	12G	12g	12GG	12G	12G	12G	12g	12g	12g	12gg	12gg	12gg
=183	=183	=183	=183	=183	=183	=183	=183	=183	=183	=183	=183	=183	=183	=183	=183	=183	=183	=183	=183	=183
4CC	4C	4cc	4cc	4ccc	4b	4b	8D	4C	4c	4cc	4C	4c	4c	4c	4cc	4cc	4cc	4ccc	4ccc	4ccc
.	.	.	.	.	.	.	8D	.	.	.	.	.	.	.	.	.	.	.	.	.
8.GGG	8.GG	8.g	8.g	8.gg	4r	4r	8D	4GG	8.G	8.g	8.GG	8.G	8.G	8.G	8.g	8.g	8.g	8.gg	8.gg	8.gg
.	.	.	.	.	.	.	8D	.	.	.	.	.	.	.	.	.	.	.	.	.
16GGG	16GG	16g	16g	16gg	.	.	.	.	16G	16g	16GG	16G	16G	16G	16g	16g	16g	16gg	16gg	16gg
8CC	8C	8cc	8cc	8ccc	2r	2r	8D	8C	8c	8cc	8C	8c	8c	8c	8cc	8cc	8cc	8ccc	8ccc	8ccc
8GGG	8GG	8g	8g	8gg	.	.	8D	8GG	8G	8g	8GG	8G	8G	8G	8g	8g	8g	8gg	8gg	8gg
8CC	8C	8cc	8cc	8ccc	.	.	8D	8C	8c	8cc	8C	8c	8c	8c	8cc	8cc	8cc	8ccc	8ccc	8ccc
8GGG	8GG	8g	8g	8gg	.	.	8D	8GG	8G	8g	8GG	8G	8G	8G	8g	8g	8g	8gg	8gg	8gg
=184	=184	=184	=184	=184	=184	=184	=184	=184	=184	=184	=184	=184	=184	=184	=184	=184	=184	=184	=184	=184
8CC	8C	8cc	8cc	8ccc	4b	4b	8D	8C	8c	8cc	8C	8c	8c	8c	8cc	8cc	8cc	8ccc	8ccc	8ccc
8GGG	8GG	8g	8g	8gg	.	.	8D	8GG	8G	8g	8GG	8G	8G	8G	8g	8g	8g	8gg	8gg	8gg
8CC	8C	8cc	8cc	8ccc	4r	4r	8D	8C	8c	8cc	8C	8c	8c	8c	8cc	8cc	8cc	8ccc	8ccc	8ccc
8GGG	8GG	8g	8g	8gg	.	.	8D	8GG	8G	8g	8GG	8G	8G	8G	8g	8g	8g	8gg	8gg	8gg
8CC	8C	8cc	8cc	8ccc	2r	2r	8D	8C	8c	8cc	8C	8c	8c	8c	8cc	8cc	8cc	8ccc	8ccc	8ccc
8GGG	8GG	8g	8g	8gg	.	.	8D	8GG	8G	8g	8GG	8G	8G	8G	8g	8g	8g	8gg	8gg	8gg
8CC	8C	8cc	8cc	8ccc	.	.	8D	8C	8c	8cc	8C	8c	8c	8c	8cc	8cc	8cc	8ccc	8ccc	8ccc
8GGG	8GG	8g	8g	8gg	.	.	8D	8GG	8G	8g	8GG	8G	8G	8G	8g	8g	8g	8gg	8gg	8gg
=185	=185	=185	=185	=185	=185	=185	=185	=185	=185	=185	=185	=185	=185	=185	=185	=185	=185	=185	=185	=185
4CC	4C	4cc	4cc	4ccc	4b	4b	8D	4C	4c	4cc	4C	4c	4c	4c	4cc	4cc	4cc	4ccc	4ccc	4ccc
.	.	.	.	.	.	.	8D	.	.	.	.	.	.	.	.	.	.	.	.	.
4r	4r	4r	4r	4r	4r	4r	8D	4r	4ryy	4r	4ryy	4r	4r	4r	4ryy	4r	4ryy	4r	4r	4r
.	.	.	.	.	.	.	8D	.	.	.	.	.	.	.	.	.	.	.	.	.
4CC	4C	4G 4e 4cc	4g 4cc 4ee	4ee 4ccc	4b	4b	8D	4C	4e	4cc	4E	4c	4C	4C	4cc	4ee	4ee	4ccc	4eee	4eee
.	.	.	.	.	.	.	8D	.	.	.	.	.	.	.	.	.	.	.	.	.
4r	4r	4r	4r	4r	4r	4r	8D	4r	4ryy	4r	4ryy	4r	4r	4r	4ryy	4r	4ryy	4r	4r	4r
.	.	.	.	.	.	.	8D	.	.	.	.	.	.	.	.	.	.	.	.	.
=186	=186	=186	=186	=186	=186	=186	=186	=186	=186	=186	=186	=186	=186	=186	=186	=186	=186	=186	=186	=186
4CC	4C	4G 4e 4cc	4g 4cc 4ee	4ee 4ccc	4b	4b	4D	4C	4e	4cc	4E	4c	4C	4C	4cc	4ee	4ee	4ccc	4ccc	4ccc
4r	4r	4r	4r	4r	4r	4r	4r	4r	4ryy	4r	4ryy	4r	4r	4r	4ryy	4r	4ryy	4r	4r	4r
2r	2r	2r	2r	2r	2r	2r	2r	2r	2ryy	2r	2ryy	2r	2r	2r	2ryy	2r	2ryy	2r	2r	2r
==187	==187	==187	==187	==187	==187	==187	==187	==187	==187	==187	==187	==187	==187	==187	==187	==187	==187	==187	==187	==187
*-	*-	*-	*-	*-	*-	*-	*-	*-	*-	*-	*-	*-	*-	*-	*-	*-	*-	*-	*-	*-
